jianye0428/UNICAR_TrajOpt/src/pick_and_place/config/file_output_place.csv
shoulder_lift_joint,shoulder_pan_joint,elbow_joint,wrist_2_joint,wrist_1_joint,wrist_3_joint,drehkranz_joint,x,y,z,q_w,q_x,q_y,q_z,collision_1,collision_2,collision_3,collision_4,collision_5,collision_6,collision_7,collision_8,collision_9,collision_10,collision_11,collision_12,collision_13,collision_14,collision_15,collision_16,collision_17,collision_18,collision_19,collision_20,collision_21,collision_22,collision_23,collision_24,collision_25,collision_26,collision_27,collision_28,joint_velocity_cost,pose_9,pose_extra_19
1.13585,2.13574,-0.150177,1.02143,-1.6551,1.57045,1.3579,-0.3,1.55,1.5422,1,-0.000398251,7.65303e-08,-0.000199053
1.13585,2.13574,-0.150177,1.02143,-1.6551,1.57045,1.3579,-0.3,1.55,1.5422,1,-0.000398251,7.65303e-08,-0.000199053
1.13585,2.13574,-0.150177,1.02143,-1.6551,1.57045,1.3579,-0.3,1.55,1.5422,1,-0.000398251,7.65303e-08,-0.000199053
1.13585,2.13574,-0.150177,1.02143,-1.6551,1.57045,1.3579,-0.3,1.55,1.5422,1,-0.000398251,7.65303e-08,-0.000199053
1.13585,2.13574,-0.150177,1.02143,-1.6551,1.57045,1.3579,-0.3,1.55,1.5422,1,-0.000398251,7.65303e-08,-0.000199053
1.13585,2.13574,-0.150177,1.02143,-1.6551,1.57045,1.3579,-0.3,1.55,1.5422,1,-0.000398251,7.65303e-08,-0.000199053
1.13585,2.13574,-0.150177,1.02143,-1.6551,1.57045,1.3579,-0.3,1.55,1.5422,1,-0.000398251,7.65303e-08,-0.000199053
1.13585,2.13574,-0.150177,1.02143,-1.6551,1.57045,1.3579,-0.3,1.55,1.5422,1,-0.000398251,7.65303e-08,-0.000199053
1.13585,2.13574,-0.150177,1.02143,-1.6551,1.57045,1.3579,-0.3,1.55,1.5422,1,-0.000398251,7.65303e-08,-0.000199053
1.13585,2.13574,-0.150177,1.02143,-1.6551,1.57045,1.3579,-0.3,1.55,1.5422,1,-0.000398251,7.65303e-08,-0.000199053
1.13585,2.13574,-0.150177,1.02143,-1.6551,1.57045,1.3579,-0.3,1.55,1.5422,1,-0.000398251,7.65303e-08,-0.000199053
1.13585,2.13574,-0.150177,1.02143,-1.6551,1.57045,1.3579,-0.3,1.55,1.5422,1,-0.000398251,7.65303e-08,-0.000199053
1.13585,2.13574,-0.150177,1.02143,-1.6551,1.57045,1.3579,-0.3,1.55,1.5422,1,-0.000398251,7.65303e-08,-0.000199053
1.13585,2.13574,-0.150177,1.02143,-1.6551,1.57045,1.3579,-0.3,1.55,1.5422,1,-0.000398251,7.65303e-08,-0.000199053
1.13585,2.13574,-0.150177,1.02143,-1.6551,1.57045,1.3579,-0.3,1.55,1.5422,1,-0.000398251,7.65303e-08,-0.000199053
1.13585,2.13574,-0.150177,1.02143,-1.6551,1.57045,1.3579,-0.3,1.55,1.5422,1,-0.000398251,7.65303e-08,-0.000199053
1.13585,2.13574,-0.150177,1.02143,-1.6551,1.57045,1.3579,-0.3,1.55,1.5422,1,-0.000398251,7.65303e-08,-0.000199053
1.13585,2.13574,-0.150177,1.02143,-1.6551,1.57045,1.3579,-0.3,1.55,1.5422,1,-0.000398251,7.65303e-08,-0.000199053
1.13585,2.13574,-0.150177,1.02143,-1.6551,1.57045,1.3579,-0.3,1.55,1.5422,1,-0.000398251,7.65303e-08,-0.000199053
1.13585,2.13574,-0.150177,1.02143,-1.6551,1.57045,1.3579,-0.3,1.55,1.5422,1,-0.000398251,7.65303e-08,-0.000199053
1.13585,2.13574,-0.150177,1.02143,-1.6551,1.57045,1.3579,-0.3,1.55,1.5422,1,-0.000398251,7.65303e-08,-0.000199053
1.13585,2.13574,-0.150177,1.02143,-1.6551,1.57045,1.3579,-0.3,1.55,1.5422,1,-0.000398251,7.65303e-08,-0.000199053
1.13585,2.13574,-0.150177,1.02143,-1.6551,1.57045,1.3579,-0.3,1.55,1.5422,1,-0.000398251,7.65303e-08,-0.000199053
1.13585,2.13574,-0.150177,1.02143,-1.6551,1.57045,1.3579,-0.3,1.55,1.5422,1,-0.000398251,7.65303e-08,-0.000199053
1.13585,2.13574,-0.150177,1.02143,-1.6551,1.57045,1.3579,-0.3,1.55,1.5422,1,-0.000398251,7.65303e-08,-0.000199053
1.13585,2.13574,-0.150177,1.02143,-1.6551,1.57045,1.3579,-0.3,1.55,1.5422,1,-0.000398251,7.65303e-08,-0.000199053
1.13585,2.13574,-0.150177,1.02143,-1.6551,1.57045,1.3579,-0.3,1.55,1.5422,1,-0.000398251,7.65303e-08,-0.000199053
1.13585,2.13574,-0.150177,1.02143,-1.6551,1.57045,1.3579,-0.3,1.55,1.5422,1,-0.000398251,7.65303e-08,-0.000199053
1.13585,2.13574,-0.150177,1.02143,-1.6551,1.57045,1.3579,-0.3,1.55,1.5422,1,-0.000398251,7.65303e-08,-0.000199053
1.13585,2.13574,-0.150177,1.02143,-1.6551,1.57045,1.3579,-0.3,1.55,1.5422,1,-0.000398251,7.65303e-08,-0.000199053

1.13585,2.13574,-0.150177,1.02143,-1.6551,1.57045,1.3579,-0.3,1.55,1.5422,1,-0.000398251,7.65303e-08,-0.000199053,0,0,0,0,0,0,0,0,0,0,0,0,0,0,0,0,0,0,0,0,0,0,0,0,0,0,0,0,0.000875841,2.45431,27.6099
1.13679,2.13685,-0.149065,1.02143,-1.65621,1.57045,1.35773,-0.3,1.54989,1.54338,1,-0.00039824,6.48935e-08,-0.000199063,0,0,0,0,0,0,0,0,0,0,0,0,0,0,0,0,0,0,0,0,0,0,0,0,0,0,0,0,0.000875841,2.45431,27.6099
1.13772,2.13796,-0.147954,1.02143,-1.65732,1.57045,1.35755,-0.299999,1.54978,1.54456,1,-0.000398229,5.35917e-08,-0.000199073,0,0,0,0,0,0,0,0,0,0,0,0,0,0,0,0,0,0,0,0,0,0,0,0,0,0,0,0,0.000875841,2.45431,27.6099
1.13865,2.13907,-0.146843,1.02143,-1.65843,1.57045,1.35737,-0.299998,1.54967,1.54574,1,-0.000398216,4.26254e-08,-0.000199082,0,0,0,0,0,0,0,0,0,0,0,0,0,0,0,0,0,0,0,0,0,0,0,0,0,0,0,0,0.000875841,2.45431,27.6099
1.13959,2.14018,-0.145732,1.02143,-1.65954,1.57045,1.35719,-0.299997,1.54956,1.54692,1,-0.000398203,3.19953e-08,-0.000199092,0,0,0,0,0,0,0,0,0,0,0,0,0,0,0,0,0,0,0,0,0,0,0,0,0,0,0,0,0.000875841,2.45431,27.6099
1.14052,2.14129,-0.144621,1.02143,-1.66065,1.57045,1.35701,-0.299995,1.54944,1.5481,1,-0.000398189,2.17018e-08,-0.000199102,0,0,0,0,0,0,0,0,0,0,0,0,0,0,0,0,0,0,0,0,0,0,0,0,0,0,0,0,0.000875841,2.45431,27.6099
1.14145,2.1424,-0.14351,1.02143,-1.66177,1.57046,1.35684,-0.299993,1.54933,1.54928,1,-0.000398174,1.17455e-08,-0.000199111,0,0,0,0,0,0,0,0,0,0,0,0,0,0,0,0,0,0,0,0,0,0,0,0,0,0,0,0,0.000875841,2.45431,27.6099
1.14239,2.14352,-0.142399,1.02143,-1.66288,1.57046,1.35666,-0.29999,1.54921,1.55046,1,-0.000398158,2.12689e-09,-0.000199121,0,0,0,0,0,0,0,0,0,0,0,0,0,0,0,0,0,0,0,0,0,0,0,0,0,0,0,0,0.000875841,2.45431,27.6099
1.14332,2.14463,-0.141288,1.02143,-1.66399,1.57046,1.35648,-0.299987,1.54909,1.55164,1,-0.000398141,-7.15346e-09,-0.000199131,0,0,0,0,0,0,0,0,0,0,0,0,0,0,0,0,0,0,0,0,0,0,0,0,0,0,0,0,0.000875841,2.45431,27.6099
1.14426,2.14574,-0.140177,1.02143,-1.6651,1.57046,1.3563,-0.299983,1.54897,1.55281,1,-0.000398123,-1.6095e-08,-0.00019914,0,0,0,0,0,0,0,0,0,0,0,0,0,0,0,0,0,0,0,0,0,0,0,0,0,0,0,0,0.000875841,2.45431,27.6099
1.14442,2.14374,-0.142177,1.02143,-1.6631,1.57046,1.35746,-0.30284,1.54863,1.5507,1,-0.000398136,-2.20016e-07,0.000300868,0,0,0,0,0,0,0,0,0,0,0,0,0,0,0,0,0,0,0,0,0,0,0,0,0,0,0,0,0.000875841,2.45431,27.6099
1.14458,2.14174,-0.144177,1.02143,-1.6611,1.57046,1.35862,-0.305694,1.54828,1.54857,1,-0.000398146,-4.22857e-07,0.000800876,0,0,0,0,0,0,0,0,0,0,0,0,0,0,0,0,0,0,0,0,0,0,0,0,0,0,0,0,0.000875841,2.45431,27.6099
1.14474,2.13974,-0.146177,1.02143,-1.6591,1.57045,1.35978,-0.308547,1.54792,1.54645,0.999999,-0.000398153,-6.24609e-07,0.00130088,0,0,0,0,0,0,0,0,0,0,0,0,0,0,0,0,0,0,0,0,0,0,0,0,0,0,0,0,0.000875841,2.45431,27.6099
1.14489,2.13774,-0.148177,1.02143,-1.6571,1.57045,1.36094,-0.311398,1.54755,1.54433,0.999998,-0.000398157,-8.25263e-07,0.00180089,0,0,0,0,0,0,0,0,0,0,0,0,0,0,0,0,0,0,0,0,0,0,0,0,0,0,0,0,0.000875841,2.45431,27.6099
1.14505,2.13574,-0.150177,1.02143,-1.6551,1.57045,1.3621,-0.314248,1.54717,1.5422,0.999997,-0.000398158,-1.02481e-06,0.0023009,0,0,0,0,0,0,0,0,0,0,0,0,0,0,0,0,0,0,0,0,0,0,0,0,0,0,0,0,0.000875841,2.45431,27.6099
1.14521,2.13374,-0.152177,1.02143,-1.6531,1.57044,1.36326,-0.317096,1.54678,1.54007,0.999996,-0.000398156,-1.22324e-06,0.0028009,0,0,0,0,0,0,0,0,0,0,0,0,0,0,0,0,0,0,0,0,0,0,0,0,0,0,0,0,0.000875841,2.45431,27.6099
1.14537,2.13174,-0.154177,1.02143,-1.6511,1.57044,1.36442,-0.319942,1.54638,1.53794,0.999994,-0.000398151,-1.42055e-06,0.00330091,0,0,0,0,0,0,0,0,0,0,0,0,0,0,0,0,0,0,0,0,0,0,0,0,0,0,0,0,0.000875841,2.45431,27.6099
1.14553,2.12974,-0.156177,1.02143,-1.6491,1.57044,1.36558,-0.322786,1.54597,1.53581,0.999993,-0.000398142,-1.61672e-06,0.00380092,0,0,0,0,0,0,0,0,0,0,0,0,0,0,0,0,0,0,0,0,0,0,0,0,0,0,0,0,0.000875841,2.45431,27.6099
1.14569,2.12774,-0.158177,1.02143,-1.6471,1.57043,1.36674,-0.325628,1.54555,1.53368,0.999991,-0.000398131,-1.81175e-06,0.00430092,0,0,0,0,0,0,0,0,0,0,0,0,0,0,0,0,0,0,0,0,0,0,0,0,0,0,0,0,0.000875841,2.45431,27.6099
1.14585,2.12574,-0.160177,1.02143,-1.6451,1.57043,1.3679,-0.328469,1.54511,1.53154,0.999988,-0.000398117,-2.00563e-06,0.00480092,0,0,0,0,0,0,0,0,0,0,0,0,0,0,0,0,0,0,0,0,0,0,0,0,0,0,0,0,0.000875841,2.45431,27.6099
1.14585,2.12574,-0.160177,1.02143,-1.6451,1.57043,1.3679,-0.328469,1.54511,1.53154,0.999988,-0.000398117,-2.00563e-06,0.00480092,0,0,0,0,0,0,0,0,0,0,0,0,0,0,0,0,0,0,0,0,0,0,0,0,0,0,0,0,0.000875841,2.45431,27.6099
1.14585,2.12574,-0.160177,1.02143,-1.6451,1.57043,1.3679,-0.328469,1.54511,1.53154,0.999988,-0.000398117,-2.00563e-06,0.00480092,0,0,0,0,0,0,0,0,0,0,0,0,0,0,0,0,0,0,0,0,0,0,0,0,0,0,0,0,0.000875841,2.45431,27.6099
1.14585,2.12574,-0.160177,1.02143,-1.6451,1.57043,1.3679,-0.328469,1.54511,1.53154,0.999988,-0.000398117,-2.00563e-06,0.00480092,0,0,0,0,0,0,0,0,0,0,0,0,0,0,0,0,0,0,0,0,0,0,0,0,0,0,0,0,0.000875841,2.45431,27.6099
1.14585,2.12574,-0.160177,1.02143,-1.6451,1.57043,1.3679,-0.328469,1.54511,1.53154,0.999988,-0.000398117,-2.00563e-06,0.00480092,0,0,0,0,0,0,0,0,0,0,0,0,0,0,0,0,0,0,0,0,0,0,0,0,0,0,0,0,0.000875841,2.45431,27.6099
1.14585,2.12574,-0.160177,1.02143,-1.6451,1.57043,1.3679,-0.328469,1.54511,1.53154,0.999988,-0.000398117,-2.00563e-06,0.00480092,0,0,0,0,0,0,0,0,0,0,0,0,0,0,0,0,0,0,0,0,0,0,0,0,0,0,0,0,0.000875841,2.45431,27.6099
1.14585,2.12574,-0.160177,1.02143,-1.6451,1.57043,1.3679,-0.328469,1.54511,1.53154,0.999988,-0.000398117,-2.00563e-06,0.00480092,0,0,0,0,0,0,0,0,0,0,0,0,0,0,0,0,0,0,0,0,0,0,0,0,0,0,0,0,0.000875841,2.45431,27.6099
1.14585,2.12574,-0.160177,1.02143,-1.6451,1.57043,1.3679,-0.328469,1.54511,1.53154,0.999988,-0.000398117,-2.00563e-06,0.00480092,0,0,0,0,0,0,0,0,0,0,0,0,0,0,0,0,0,0,0,0,0,0,0,0,0,0,0,0,0.000875841,2.45431,27.6099
1.14585,2.12574,-0.160177,1.02143,-1.6451,1.57043,1.3679,-0.328469,1.54511,1.53154,0.999988,-0.000398117,-2.00563e-06,0.00480092,0,0,0,0,0,0,0,0,0,0,0,0,0,0,0,0,0,0,0,0,0,0,0,0,0,0,0,0,0.000875841,2.45431,27.6099
1.14585,2.12574,-0.160177,1.02143,-1.6451,1.57043,1.3679,-0.328469,1.54511,1.53154,0.999988,-0.000398117,-2.00563e-06,0.00480092,0,0,0,0,0,0,0,0,0,0,0,0,0,0,0,0,0,0,0,0,0,0,0,0,0,0,0,0,0.000875841,2.45431,27.6099
1.14585,2.12574,-0.160177,1.02143,-1.6451,1.57043,1.3679,-0.328469,1.54511,1.53154,0.999988,-0.000398117,-2.00563e-06,0.00480092,0,0,0,0,0,0,0,0,0,0,0,0,0,0,0,0,0,0,0,0,0,0,0,0,0,0,0,0,0.000875841,2.45431,27.6099

1.13585,2.13574,-0.150177,1.02143,-1.6551,1.57045,1.3579,-0.3,1.55,1.5422,1,-0.000398251,7.65303e-08,-0.000199053,0,0,0,0,0,0,0,0,0,0,0,0,0,0,0,0,0,0,0,0,0,0,0,0,0,0,0,0,0.00115821,2.43996,27.5584
1.13693,2.13702,-0.148899,1.02143,-1.65638,1.57045,1.3577,-0.300002,1.54988,1.54356,1,-0.000398232,8.0741e-08,-0.000199058,0,0,0,0,0,0,0,0,0,0,0,0,0,0,0,0,0,0,0,0,0,0,0,0,0,0,0,0,0.00115821,2.43996,27.5584
1.138,2.13829,-0.147621,1.02143,-1.65765,1.57045,1.3575,-0.300004,1.54975,1.54492,1,-0.000398213,8.53924e-08,-0.000199063,0,0,0,0,0,0,0,0,0,0,0,0,0,0,0,0,0,0,0,0,0,0,0,0,0,0,0,0,0.00115821,2.43996,27.5584
1.13908,2.13957,-0.146343,1.02143,-1.65893,1.57045,1.35729,-0.300005,1.54962,1.54627,1,-0.000398192,9.04855e-08,-0.000199067,0,0,0,0,0,0,0,0,0,0,0,0,0,0,0,0,0,0,0,0,0,0,0,0,0,0,0,0,0.00115821,2.43996,27.5584
1.14015,2.14085,-0.145065,1.02143,-1.66021,1.57045,1.35709,-0.300005,1.54949,1.54763,1,-0.000398171,9.6021e-08,-0.000199072,0,0,0,0,0,0,0,0,0,0,0,0,0,0,0,0,0,0,0,0,0,0,0,0,0,0,0,0,0.00115821,2.43996,27.5584
1.14123,2.14213,-0.143788,1.02143,-1.66149,1.57046,1.35689,-0.300005,1.54936,1.54899,1,-0.000398148,1.02e-07,-0.000199077,0,0,0,0,0,0,0,0,0,0,0,0,0,0,0,0,0,0,0,0,0,0,0,0,0,0,0,0,0.00115821,2.43996,27.5584
1.1423,2.1434,-0.14251,1.02143,-1.66277,1.57046,1.35669,-0.300005,1.54922,1.55034,1,-0.000398123,1.08423e-07,-0.000199081,0,0,0,0,0,0,0,0,0,0,0,0,0,0,0,0,0,0,0,0,0,0,0,0,0,0,0,0,0.00115821,2.43996,27.5584
1.14338,2.14468,-0.141232,1.02143,-1.66404,1.57046,1.35648,-0.300003,1.54908,1.5517,1,-0.000398098,1.1529e-07,-0.000199086,0,0,0,0,0,0,0,0,0,0,0,0,0,0,0,0,0,0,0,0,0,0,0,0,0,0,0,0,0.00115821,2.43996,27.5584
1.14445,2.14596,-0.139954,1.02143,-1.66532,1.57046,1.35628,-0.300002,1.54894,1.55305,1,-0.000398071,1.22604e-07,-0.000199091,0,0,0,0,0,0,0,0,0,0,0,0,0,0,0,0,0,0,0,0,0,0,0,0,0,0,0,0,0.00115821,2.43996,27.5584
1.14553,2.14724,-0.138677,1.02144,-1.6666,1.57046,1.35608,-0.3,1.5488,1.5544,1,-0.000398043,1.30364e-07,-0.000199095,0,0,0,0,0,0,0,0,0,0,0,0,0,0,0,0,0,0,0,0,0,0,0,0,0,0,0,0,0.00115821,2.43996,27.5584
1.14571,2.14494,-0.140977,1.02143,-1.6643,1.57046,1.35741,-0.303283,1.54842,1.55197,1,-0.000398061,-1.049e-07,0.000375908,0,0,0,0,0,0,0,0,0,0,0,0,0,0,0,0,0,0,0,0,0,0,0,0,0,0,0,0,0.00115821,2.43996,27.5584
1.14589,2.14264,-0.143277,1.02143,-1.662,1.57046,1.35874,-0.306564,1.54802,1.54953,0.999999,-0.000398075,-3.3874e-07,0.000950912,0,0,0,0,0,0,0,0,0,0,0,0,0,0,0,0,0,0,0,0,0,0,0,0,0,0,0,0,0.00115821,2.43996,27.5584
1.14608,2.14034,-0.145577,1.02143,-1.6597,1.57045,1.36008,-0.309842,1.5476,1.54709,0.999999,-0.000398085,-5.71141e-07,0.00152591,0,0,0,0,0,0,0,0,0,0,0,0,0,0,0,0,0,0,0,0,0,0,0,0,0,0,0,0,0.00115821,2.43996,27.5584
1.14626,2.13804,-0.147877,1.02143,-1.6574,1.57045,1.36141,-0.313119,1.54718,1.54465,0.999998,-0.00039809,-8.0209e-07,0.00210092,0,0,0,0,0,0,0,0,0,0,0,0,0,0,0,0,0,0,0,0,0,0,0,0,0,0,0,0,0.00115821,2.43996,27.5584
1.14644,2.13574,-0.150177,1.02143,-1.6551,1.57045,1.36274,-0.316394,1.54674,1.5422,0.999996,-0.000398092,-1.03157e-06,0.00267592,0,0,0,0,0,0,0,0,0,0,0,0,0,0,0,0,0,0,0,0,0,0,0,0,0,0,0,0,0.00115821,2.43996,27.5584
1.14662,2.13344,-0.152477,1.02143,-1.6528,1.57044,1.36407,-0.319666,1.54628,1.53975,0.999995,-0.000398089,-1.25958e-06,0.00325092,0,0,0,0,0,0,0,0,0,0,0,0,0,0,0,0,0,0,0,0,0,0,0,0,0,0,0,0,0.00115821,2.43996,27.5584
1.14681,2.13114,-0.154777,1.02143,-1.6505,1.57044,1.36541,-0.322935,1.54581,1.5373,0.999993,-0.000398083,-1.48609e-06,0.00382592,0,0,0,0,0,0,0,0,0,0,0,0,0,0,0,0,0,0,0,0,0,0,0,0,0,0,0,0,0.00115821,2.43996,27.5584
1.14699,2.12884,-0.157077,1.02143,-1.6482,1.57044,1.36674,-0.326203,1.54533,1.53485,0.99999,-0.000398072,-1.7111e-06,0.00440092,0,0,0,0,0,0,0,0,0,0,0,0,0,0,0,0,0,0,0,0,0,0,0,0,0,0,0,0,0.00115821,2.43996,27.5584
1.14717,2.12654,-0.159377,1.02143,-1.6459,1.57043,1.36807,-0.329467,1.54484,1.5324,0.999988,-0.000398057,-1.93458e-06,0.00497592,0,0,0,0,0,0,0,0,0,0,0,0,0,0,0,0,0,0,0,0,0,0,0,0,0,0,0,0,0.00115821,2.43996,27.5584
1.14735,2.12424,-0.161677,1.02143,-1.6436,1.57043,1.3694,-0.33273,1.54433,1.52994,0.999985,-0.000398038,-2.15653e-06,0.00555091,0,0,0,0,0,0,0,0,0,0,0,0,0,0,0,0,0,0,0,0,0,0,0,0,0,0,0,0,0.00115821,2.43996,27.5584
1.14735,2.12424,-0.161677,1.02143,-1.6436,1.57043,1.3694,-0.33273,1.54433,1.52994,0.999985,-0.000398038,-2.15653e-06,0.00555091,0,0,0,0,0,0,0,0,0,0,0,0,0,0,0,0,0,0,0,0,0,0,0,0,0,0,0,0,0.00115821,2.43996,27.5584
1.14735,2.12424,-0.161677,1.02143,-1.6436,1.57043,1.3694,-0.33273,1.54433,1.52994,0.999985,-0.000398038,-2.15653e-06,0.00555091,0,0,0,0,0,0,0,0,0,0,0,0,0,0,0,0,0,0,0,0,0,0,0,0,0,0,0,0,0.00115821,2.43996,27.5584
1.14735,2.12424,-0.161677,1.02143,-1.6436,1.57043,1.3694,-0.33273,1.54433,1.52994,0.999985,-0.000398038,-2.15653e-06,0.00555091,0,0,0,0,0,0,0,0,0,0,0,0,0,0,0,0,0,0,0,0,0,0,0,0,0,0,0,0,0.00115821,2.43996,27.5584
1.14735,2.12424,-0.161677,1.02143,-1.6436,1.57043,1.3694,-0.33273,1.54433,1.52994,0.999985,-0.000398038,-2.15653e-06,0.00555091,0,0,0,0,0,0,0,0,0,0,0,0,0,0,0,0,0,0,0,0,0,0,0,0,0,0,0,0,0.00115821,2.43996,27.5584
1.14735,2.12424,-0.161677,1.02143,-1.6436,1.57043,1.3694,-0.33273,1.54433,1.52994,0.999985,-0.000398038,-2.15653e-06,0.00555091,0,0,0,0,0,0,0,0,0,0,0,0,0,0,0,0,0,0,0,0,0,0,0,0,0,0,0,0,0.00115821,2.43996,27.5584
1.14735,2.12424,-0.161677,1.02143,-1.6436,1.57043,1.3694,-0.33273,1.54433,1.52994,0.999985,-0.000398038,-2.15653e-06,0.00555091,0,0,0,0,0,0,0,0,0,0,0,0,0,0,0,0,0,0,0,0,0,0,0,0,0,0,0,0,0.00115821,2.43996,27.5584
1.14735,2.12424,-0.161677,1.02143,-1.6436,1.57043,1.3694,-0.33273,1.54433,1.52994,0.999985,-0.000398038,-2.15653e-06,0.00555091,0,0,0,0,0,0,0,0,0,0,0,0,0,0,0,0,0,0,0,0,0,0,0,0,0,0,0,0,0.00115821,2.43996,27.5584
1.14735,2.12424,-0.161677,1.02143,-1.6436,1.57043,1.3694,-0.33273,1.54433,1.52994,0.999985,-0.000398038,-2.15653e-06,0.00555091,0,0,0,0,0,0,0,0,0,0,0,0,0,0,0,0,0,0,0,0,0,0,0,0,0,0,0,0,0.00115821,2.43996,27.5584
1.14735,2.12424,-0.161677,1.02143,-1.6436,1.57043,1.3694,-0.33273,1.54433,1.52994,0.999985,-0.000398038,-2.15653e-06,0.00555091,0,0,0,0,0,0,0,0,0,0,0,0,0,0,0,0,0,0,0,0,0,0,0,0,0,0,0,0,0.00115821,2.43996,27.5584
1.14735,2.12424,-0.161677,1.02143,-1.6436,1.57043,1.3694,-0.33273,1.54433,1.52994,0.999985,-0.000398038,-2.15653e-06,0.00555091,0,0,0,0,0,0,0,0,0,0,0,0,0,0,0,0,0,0,0,0,0,0,0,0,0,0,0,0,0.00115821,2.43996,27.5584

1.13585,2.13574,-0.150177,1.02143,-1.6551,1.57045,1.3579,-0.3,1.55,1.5422,1,-0.000398251,7.65303e-08,-0.000199053,0,0,0,0,0,0,0,0,0,0,0,0,0,0,0,0,0,0,0,0,0,0,0,0,0,0,0,0,0.00165692,2.41872,27.4811
1.13714,2.13727,-0.148649,1.02143,-1.65663,1.57045,1.35766,-0.300003,1.54985,1.54382,1,-0.000398255,7.43342e-08,-0.000199057,0,0,0,0,0,0,0,0,0,0,0,0,0,0,0,0,0,0,0,0,0,0,0,0,0,0,0,0,0.00165692,2.41872,27.4811
1.13843,2.13879,-0.147121,1.02143,-1.65815,1.57045,1.35742,-0.300005,1.5497,1.54545,1,-0.000398257,7.27811e-08,-0.00019906,0,0,0,0,0,0,0,0,0,0,0,0,0,0,0,0,0,0,0,0,0,0,0,0,0,0,0,0,0.00165692,2.41872,27.4811
1.13971,2.14032,-0.145593,1.02143,-1.65968,1.57045,1.35718,-0.300007,1.54954,1.54707,1,-0.000398258,7.18725e-08,-0.000199063,0,0,0,0,0,0,0,0,0,0,0,0,0,0,0,0,0,0,0,0,0,0,0,0,0,0,0,0,0.00165692,2.41872,27.4811
1.141,2.14185,-0.144065,1.02143,-1.66121,1.57046,1.35693,-0.300007,1.54938,1.54869,1,-0.000398257,7.16097e-08,-0.000199066,0,0,0,0,0,0,0,0,0,0,0,0,0,0,0,0,0,0,0,0,0,0,0,0,0,0,0,0,0.00165692,2.41872,27.4811
1.14228,2.14338,-0.142538,1.02143,-1.66274,1.57046,1.35669,-0.300007,1.54922,1.55031,1,-0.000398254,7.1994e-08,-0.000199069,0,0,0,0,0,0,0,0,0,0,0,0,0,0,0,0,0,0,0,0,0,0,0,0,0,0,0,0,0.00165692,2.41872,27.4811
1.14357,2.1449,-0.14101,1.02143,-1.66427,1.57046,1.35645,-0.300006,1.54906,1.55193,1,-0.000398249,7.3027e-08,-0.000199072,0,0,0,0,0,0,0,0,0,0,0,0,0,0,0,0,0,0,0,0,0,0,0,0,0,0,0,0,0.00165692,2.41872,27.4811
1.14485,2.14643,-0.139482,1.02143,-1.66579,1.57046,1.35621,-0.300005,1.54889,1.55355,1,-0.000398243,7.47101e-08,-0.000199075,0,0,0,0,0,0,0,0,0,0,0,0,0,0,0,0,0,0,0,0,0,0,0,0,0,0,0,0,0.00165692,2.41872,27.4811
1.14614,2.14796,-0.137954,1.02144,-1.66732,1.57047,1.35597,-0.300002,1.54872,1.55517,1,-0.000398235,7.70445e-08,-0.000199079,0,0,0,0,0,0,0,0,0,0,0,0,0,0,0,0,0,0,0,0,0,0,0,0,0,0,0,0,0.00165692,2.41872,27.4811
1.14743,2.14949,-0.136427,1.02144,-1.66885,1.57047,1.35572,-0.299999,1.54854,1.55678,1,-0.000398225,8.00317e-08,-0.000199082,0,0,0,0,0,0,0,0,0,0,0,0,0,0,0,0,0,0,0,0,0,0,0,0,0,0,0,0,0.00165692,2.41872,27.4811
1.14764,2.14674,-0.139176,1.02144,-1.6661,1.57046,1.35732,-0.303922,1.54809,1.55387,1,-0.000398132,-1.73449e-07,0.00048735,0,0,0,0,0,0,0,0,0,0,0,0,0,0,0,0,0,0,0,0,0,0,0,0,0,0,0,0,0.00165692,2.41872,27.4811
1.14786,2.14399,-0.141925,1.02143,-1.66335,1.57046,1.35891,-0.307842,1.54762,1.55096,0.999999,-0.000398032,-4.2435e-07,0.00117378,0,0,0,0,0,0,0,0,0,0,0,0,0,0,0,0,0,0,0,0,0,0,0,0,0,0,0,0,0.00165692,2.41872,27.4811
1.14808,2.14124,-0.144674,1.02143,-1.6606,1.57045,1.3605,-0.31176,1.54713,1.54805,0.999998,-0.000397927,-6.72642e-07,0.00186021,0,0,0,0,0,0,0,0,0,0,0,0,0,0,0,0,0,0,0,0,0,0,0,0,0,0,0,0,0.00165692,2.41872,27.4811
1.14829,2.13849,-0.147423,1.02143,-1.65785,1.57045,1.3621,-0.315674,1.54661,1.54513,0.999997,-0.000397815,-9.18296e-07,0.00254664,0,0,0,0,0,0,0,0,0,0,0,0,0,0,0,0,0,0,0,0,0,0,0,0,0,0,0,0,0.00165692,2.41872,27.4811
1.14851,2.13574,-0.150173,1.02143,-1.6551,1.57045,1.36369,-0.319584,1.54608,1.54221,0.999995,-0.000397699,-1.16129e-06,0.00323307,0,0,0,0,0,0,0,0,0,0,0,0,0,0,0,0,0,0,0,0,0,0,0,0,0,0,0,0,0.00165692,2.41872,27.4811
1.14873,2.13299,-0.152922,1.02143,-1.65235,1.57044,1.36528,-0.323492,1.54553,1.53928,0.999992,-0.000397576,-1.4016e-06,0.0039195,0,0,0,0,0,0,0,0,0,0,0,0,0,0,0,0,0,0,0,0,0,0,0,0,0,0,0,0,0.00165692,2.41872,27.4811
1.14894,2.13025,-0.155671,1.02143,-1.64961,1.57044,1.36687,-0.327396,1.54496,1.53635,0.999989,-0.000397448,-1.6392e-06,0.00460592,0,0,0,0,0,0,0,0,0,0,0,0,0,0,0,0,0,0,0,0,0,0,0,0,0,0,0,0,0.00165692,2.41872,27.4811
1.14916,2.1275,-0.15842,1.02143,-1.64686,1.57043,1.36847,-0.331296,1.54436,1.53342,0.999986,-0.000397314,-1.87407e-06,0.00529234,0,0,0,0,0,0,0,0,0,0,0,0,0,0,0,0,0,0,0,0,0,0,0,0,0,0,0,0,0.00165692,2.41872,27.4811
1.14938,2.12475,-0.16117,1.02143,-1.64411,1.57043,1.37006,-0.335193,1.54375,1.53049,0.999982,-0.000397174,-2.10621e-06,0.00597876,0,0,0,0,0,0,0,0,0,0,0,0,0,0,0,0,0,0,0,0,0,0,0,0,0,0,0,0,0.00165692,2.41872,27.4811
1.14959,2.122,-0.163919,1.02143,-1.64136,1.57042,1.37165,-0.339086,1.54312,1.52755,0.999978,-0.000397029,-2.33558e-06,0.00666518,0,0,0,0,0,0,0,0,0,0,0,0,0,0,0,0,0,0,0,0,0,0,0,0,0,0,0,0,0.00165692,2.41872,27.4811
1.14926,2.12224,-0.163515,1.02164,-1.64135,1.57035,1.37165,-0.338301,1.54339,1.52817,0.99998,-0.000118965,0.000139444,0.0063771,0,0,0,0,0,0,0,0,0,0,0,0,0,0,0,0,0,0,0,0,0,0,0,0,0,0,0,0,0.00165692,2.41872,27.4811
1.14926,2.12224,-0.163514,1.02164,-1.64135,1.57035,1.37165,-0.338301,1.54339,1.52817,0.99998,-0.000118775,0.000139566,0.00637707,0,0,0,0,0,0,0,0,0,0,0,0,0,0,0,0,0,0,0,0,0,0,0,0,0,0,0,0,0.00165692,2.41872,27.4811
1.14926,2.12224,-0.163514,1.02164,-1.64135,1.57035,1.37165,-0.338301,1.54339,1.52817,0.99998,-0.000118593,0.000139683,0.00637705,0,0,0,0,0,0,0,0,0,0,0,0,0,0,0,0,0,0,0,0,0,0,0,0,0,0,0,0,0.00165692,2.41872,27.4811
1.14926,2.12224,-0.163514,1.02164,-1.64135,1.57035,1.37165,-0.338301,1.54339,1.52817,0.99998,-0.000118423,0.000139791,0.00637702,0,0,0,0,0,0,0,0,0,0,0,0,0,0,0,0,0,0,0,0,0,0,0,0,0,0,0,0,0.00165692,2.41872,27.4811
1.14926,2.12224,-0.163514,1.02164,-1.64135,1.57035,1.37165,-0.338301,1.54339,1.52817,0.99998,-0.00011827,0.000139889,0.006377,0,0,0,0,0,0,0,0,0,0,0,0,0,0,0,0,0,0,0,0,0,0,0,0,0,0,0,0,0.00165692,2.41872,27.4811
1.14926,2.12224,-0.163513,1.02164,-1.64135,1.57035,1.37165,-0.3383,1.54339,1.52817,0.99998,-0.000118138,0.000139973,0.00637698,0,0,0,0,0,0,0,0,0,0,0,0,0,0,0,0,0,0,0,0,0,0,0,0,0,0,0,0,0.00165692,2.41872,27.4811
1.14926,2.12224,-0.163513,1.02164,-1.64135,1.57035,1.37165,-0.3383,1.54339,1.52817,0.99998,-0.000118031,0.000140041,0.00637697,0,0,0,0,0,0,0,0,0,0,0,0,0,0,0,0,0,0,0,0,0,0,0,0,0,0,0,0,0.00165692,2.41872,27.4811
1.14926,2.12224,-0.163513,1.02164,-1.64135,1.57035,1.37165,-0.3383,1.54339,1.52817,0.99998,-0.000117953,0.000140091,0.00637696,0,0,0,0,0,0,0,0,0,0,0,0,0,0,0,0,0,0,0,0,0,0,0,0,0,0,0,0,0.00165692,2.41872,27.4811
1.14926,2.12224,-0.163513,1.02164,-1.64135,1.57035,1.37165,-0.3383,1.54339,1.52817,0.99998,-0.000117905,0.000140122,0.00637695,0,0,0,0,0,0,0,0,0,0,0,0,0,0,0,0,0,0,0,0,0,0,0,0,0,0,0,0,0.00165692,2.41872,27.4811
1.14926,2.12224,-0.163513,1.02164,-1.64135,1.57035,1.37165,-0.3383,1.54339,1.52817,0.99998,-0.000117888,0.000140133,0.00637695,0,0,0,0,0,0,0,0,0,0,0,0,0,0,0,0,0,0,0,0,0,0,0,0,0,0,0,0,0.00165692,2.41872,27.4811

1.13585,2.13574,-0.150177,1.02143,-1.6551,1.57045,1.3579,-0.3,1.55,1.5422,1,-0.000398251,7.65303e-08,-0.000199053,0,0,0,0,0,0,0,0,0,0,0,0,0,0,0,0,0,0,0,0,0,0,0,0,0,0,0,0,0.00222622,2.38702,27.4158
1.13746,2.13764,-0.148274,1.02143,-1.657,1.57045,1.3576,-0.300005,1.54981,1.54422,1,-0.000398251,6.4366e-08,-0.000199061,0,0,0,0,0,0,0,0,0,0,0,0,0,0,0,0,0,0,0,0,0,0,0,0,0,0,0,0,0.00222622,2.38702,27.4158
1.13906,2.13954,-0.146371,1.02143,-1.6589,1.57045,1.3573,-0.300008,1.54962,1.54624,1,-0.000398249,5.31971e-08,-0.000199069,0,0,0,0,0,0,0,0,0,0,0,0,0,0,0,0,0,0,0,0,0,0,0,0,0,0,0,0,0.00222622,2.38702,27.4158
1.14066,2.14145,-0.144468,1.02143,-1.66081,1.57046,1.357,-0.30001,1.54943,1.54826,1,-0.000398245,4.30263e-08,-0.000199076,0,0,0,0,0,0,0,0,0,0,0,0,0,0,0,0,0,0,0,0,0,0,0,0,0,0,0,0,0.00222622,2.38702,27.4158
1.14226,2.14335,-0.142565,1.02143,-1.66271,1.57046,1.3567,-0.300011,1.54922,1.55028,1,-0.000398237,3.38564e-08,-0.000199084,0,0,0,0,0,0,0,0,0,0,0,0,0,0,0,0,0,0,0,0,0,0,0,0,0,0,0,0,0.00222622,2.38702,27.4158
1.14386,2.14525,-0.140663,1.02143,-1.66461,1.57046,1.3564,-0.300011,1.54902,1.5523,1,-0.000398227,2.56901e-08,-0.000199092,0,0,0,0,0,0,0,0,0,0,0,0,0,0,0,0,0,0,0,0,0,0,0,0,0,0,0,0,0.00222622,2.38702,27.4158
1.14547,2.14715,-0.13876,1.02143,-1.66652,1.57046,1.3561,-0.30001,1.54881,1.55432,1,-0.000398215,1.853e-08,-0.000199099,0,0,0,0,0,0,0,0,0,0,0,0,0,0,0,0,0,0,0,0,0,0,0,0,0,0,0,0,0.00222622,2.38702,27.4158
1.14707,2.14906,-0.136857,1.02144,-1.66842,1.57047,1.3558,-0.300007,1.54859,1.55633,1,-0.000398199,1.23789e-08,-0.000199107,0,0,0,0,0,0,0,0,0,0,0,0,0,0,0,0,0,0,0,0,0,0,0,0,0,0,0,0,0.00222622,2.38702,27.4158
1.14867,2.15096,-0.134954,1.02144,-1.67032,1.57047,1.3555,-0.300003,1.54837,1.55834,1,-0.000398181,7.2395e-09,-0.000199115,0,0,0,0,0,0,0,0,0,0,0,0,0,0,0,0,0,0,0,0,0,0,0,0,0,0,0,0,0.00222622,2.38702,27.4158
1.15027,2.15286,-0.133052,1.02144,-1.67222,1.57047,1.35519,-0.299998,1.54815,1.56035,1,-0.00039816,3.11442e-09,-0.000199122,0,0,0,0,0,0,0,0,0,0,0,0,0,0,0,0,0,0,0,0,0,0,0,0,0,0,0,0,0.00222622,2.38702,27.4158
1.15054,2.14944,-0.135801,1.02119,-1.66923,1.57047,1.35718,-0.304738,1.54737,1.5573,1,-0.000398199,-3.44819e-07,0.000656063,0,0,0,0,0,0,0,0,0,0,0,0,0,0,0,0,0,0,0,0,0,0,0,0,0,0,0,0,0.00222622,2.38702,27.4158
1.15081,2.14602,-0.13855,1.02094,-1.66623,1.57046,1.35916,-0.309473,1.54656,1.55425,0.999999,-0.000398229,-6.89618e-07,0.00151125,0,0,0,0,0,0,0,0,0,0,0,0,0,0,0,0,0,0,0,0,0,0,0,0,0,0,0,0,0.00222622,2.38702,27.4158
1.15108,2.14259,-0.141299,1.02069,-1.66323,1.57046,1.36114,-0.314205,1.54572,1.5512,0.999997,-0.00039825,-1.03124e-06,0.00236643,0,0,0,0,0,0,0,0,0,0,0,0,0,0,0,0,0,0,0,0,0,0,0,0,0,0,0,0,0.00222622,2.38702,27.4158
1.15135,2.13917,-0.144048,1.02044,-1.66023,1.57045,1.36313,-0.318931,1.54486,1.54814,0.999995,-0.000398261,-1.36963e-06,0.00322161,0,0,0,0,0,0,0,0,0,0,0,0,0,0,0,0,0,0,0,0,0,0,0,0,0,0,0,0,0.00222622,2.38702,27.4158
1.15162,2.13574,-0.146798,1.02019,-1.65723,1.57045,1.36511,-0.323653,1.54397,1.54508,0.999992,-0.000398264,-1.70476e-06,0.00407679,0,0,0,0,0,0,0,0,0,0,0,0,0,0,0,0,0,0,0,0,0,0,0,0,0,0,0,0,0.00222622,2.38702,27.4158
1.15189,2.13232,-0.149547,1.01994,-1.65423,1.57044,1.36709,-0.32837,1.54306,1.54202,0.999988,-0.000398258,-2.03657e-06,0.00493197,0,0,0,0,0,0,0,0,0,0,0,0,0,0,0,0,0,0,0,0,0,0,0,0,0,0,0,0,0.00222622,2.38702,27.4158
1.15216,2.1289,-0.152296,1.01969,-1.65124,1.57044,1.36908,-0.333082,1.54212,1.53895,0.999983,-0.000398243,-2.36502e-06,0.00578714,0,0,0,0,0,0,0,0,0,0,0,0,0,0,0,0,0,0,0,0,0,0,0,0,0,0,0,0,0.00222622,2.38702,27.4158
1.15243,2.12547,-0.155045,1.01944,-1.64824,1.57043,1.37106,-0.337789,1.54115,1.53588,0.999978,-0.000398219,-2.69008e-06,0.00664231,0,0,0,0,0,0,0,0,0,0,0,0,0,0,0,0,0,0,0,0,0,0,0,0,0,0,0,0,0.00222622,2.38702,27.4158
1.1527,2.12205,-0.157795,1.01919,-1.64524,1.57042,1.37304,-0.342491,1.54015,1.53281,0.999972,-0.000398186,-3.01168e-06,0.00749747,0,0,0,0,0,0,0,0,0,0,0,0,0,0,0,0,0,0,0,0,0,0,0,0,0,0,0,0,0.00222622,2.38702,27.4158
1.15297,2.11862,-0.160544,1.01894,-1.64224,1.57042,1.37503,-0.347187,1.53913,1.52973,0.999965,-0.000398144,-3.3298e-06,0.00835263,0,0,0,0,0,0,0,0,0,0,0,0,0,0,0,0,0,0,0,0,0,0,0,0,0,0,0,0,0.00222622,2.38702,27.4158
1.15263,2.11886,-0.160493,1.01896,-1.64224,1.57041,1.37503,-0.346413,1.53938,1.52981,0.999967,-0.000362026,1.63186e-05,0.00806461,0,0,0,0,0,0,0,0,0,0,0,0,0,0,0,0,0,0,0,0,0,0,0,0,0,0,0,0,0.00222622,2.38702,27.4158
1.15261,2.11888,-0.160467,1.01898,-1.64224,1.57041,1.37503,-0.346371,1.5394,1.52985,0.999968,-0.000343996,2.61706e-05,0.008049,0,0,0,0,0,0,0,0,0,0,0,0,0,0,0,0,0,0,0,0,0,0,0,0,0,0,0,0,0.00222622,2.38702,27.4158
1.15261,2.11888,-0.160467,1.01898,-1.64224,1.57041,1.37503,-0.346371,1.5394,1.52985,0.999968,-0.000343996,2.61706e-05,0.008049,0,0,0,0,0,0,0,0,0,0,0,0,0,0,0,0,0,0,0,0,0,0,0,0,0,0,0,0,0.00222622,2.38702,27.4158
1.15261,2.11888,-0.160467,1.01898,-1.64224,1.57041,1.37503,-0.346371,1.5394,1.52985,0.999968,-0.000343996,2.61706e-05,0.008049,0,0,0,0,0,0,0,0,0,0,0,0,0,0,0,0,0,0,0,0,0,0,0,0,0,0,0,0,0.00222622,2.38702,27.4158
1.15261,2.11888,-0.160467,1.01898,-1.64224,1.57041,1.37503,-0.346371,1.5394,1.52985,0.999968,-0.000343996,2.61706e-05,0.008049,0,0,0,0,0,0,0,0,0,0,0,0,0,0,0,0,0,0,0,0,0,0,0,0,0,0,0,0,0.00222622,2.38702,27.4158
1.15261,2.11888,-0.160467,1.01898,-1.64224,1.57041,1.37503,-0.346371,1.5394,1.52985,0.999968,-0.000343996,2.61706e-05,0.008049,0,0,0,0,0,0,0,0,0,0,0,0,0,0,0,0,0,0,0,0,0,0,0,0,0,0,0,0,0.00222622,2.38702,27.4158
1.15261,2.11888,-0.160467,1.01898,-1.64224,1.57041,1.37503,-0.346371,1.5394,1.52985,0.999968,-0.000343996,2.61706e-05,0.008049,0,0,0,0,0,0,0,0,0,0,0,0,0,0,0,0,0,0,0,0,0,0,0,0,0,0,0,0,0.00222622,2.38702,27.4158
1.15261,2.11888,-0.160467,1.01898,-1.64224,1.57041,1.37503,-0.346371,1.5394,1.52985,0.999968,-0.000343996,2.61706e-05,0.008049,0,0,0,0,0,0,0,0,0,0,0,0,0,0,0,0,0,0,0,0,0,0,0,0,0,0,0,0,0.00222622,2.38702,27.4158
1.15261,2.11888,-0.160467,1.01898,-1.64224,1.57041,1.37503,-0.346371,1.5394,1.52985,0.999968,-0.000343996,2.61706e-05,0.008049,0,0,0,0,0,0,0,0,0,0,0,0,0,0,0,0,0,0,0,0,0,0,0,0,0,0,0,0,0.00222622,2.38702,27.4158
1.15261,2.11888,-0.160467,1.01898,-1.64224,1.57041,1.37503,-0.346371,1.5394,1.52985,0.999968,-0.000343996,2.61706e-05,0.008049,0,0,0,0,0,0,0,0,0,0,0,0,0,0,0,0,0,0,0,0,0,0,0,0,0,0,0,0,0.00222622,2.38702,27.4158

1.13585,2.13574,-0.150177,1.02143,-1.6551,1.57045,1.3579,-0.3,1.55,1.5422,1,-0.000398251,7.65303e-08,-0.000199053,0,0,0,0,0,0,0,0,0,0,0,0,0,0,0,0,0,0,0,0,0,0,0,0,0,0,0,0,0.00236912,2.38227,27.3983
1.1375,2.1377,-0.148217,1.02143,-1.65706,1.57045,1.35759,-0.300005,1.54981,1.54428,1,-0.000398242,7.30661e-08,-0.00019906,0,0,0,0,0,0,0,0,0,0,0,0,0,0,0,0,0,0,0,0,0,0,0,0,0,0,0,0,0.00236912,2.38227,27.3983
1.13915,2.13966,-0.146258,1.02143,-1.65902,1.57045,1.35728,-0.300009,1.54961,1.54636,1,-0.00039823,7.06512e-08,-0.000199066,0,0,0,0,0,0,0,0,0,0,0,0,0,0,0,0,0,0,0,0,0,0,0,0,0,0,0,0,0.00236912,2.38227,27.3983
1.1408,2.14162,-0.144299,1.02143,-1.66098,1.57046,1.35697,-0.300011,1.54941,1.54844,1,-0.000398215,6.92886e-08,-0.000199073,0,0,0,0,0,0,0,0,0,0,0,0,0,0,0,0,0,0,0,0,0,0,0,0,0,0,0,0,0.00236912,2.38227,27.3983
1.14245,2.14357,-0.14234,1.02143,-1.66294,1.57046,1.35666,-0.300013,1.5492,1.55052,1,-0.000398198,6.89812e-08,-0.000199079,0,0,0,0,0,0,0,0,0,0,0,0,0,0,0,0,0,0,0,0,0,0,0,0,0,0,0,0,0.00236912,2.38227,27.3983
1.1441,2.14553,-0.140381,1.02143,-1.66489,1.57046,1.35636,-0.300013,1.54899,1.5526,1,-0.000398178,6.9732e-08,-0.000199086,0,0,0,0,0,0,0,0,0,0,0,0,0,0,0,0,0,0,0,0,0,0,0,0,0,0,0,0,0.00236912,2.38227,27.3983
1.14575,2.14749,-0.138422,1.02144,-1.66685,1.57046,1.35605,-0.300011,1.54877,1.55467,1,-0.000398155,7.15439e-08,-0.000199092,0,0,0,0,0,0,0,0,0,0,0,0,0,0,0,0,0,0,0,0,0,0,0,0,0,0,0,0,0.00236912,2.38227,27.3983
1.1474,2.14945,-0.136463,1.02144,-1.66881,1.57047,1.35574,-0.300009,1.54855,1.55675,1,-0.000398128,7.442e-08,-0.000199099,0,0,0,0,0,0,0,0,0,0,0,0,0,0,0,0,0,0,0,0,0,0,0,0,0,0,0,0,0.00236912,2.38227,27.3983
1.14905,2.15141,-0.134504,1.02144,-1.67077,1.57047,1.35543,-0.300005,1.54832,1.55882,1,-0.0003981,7.8363e-08,-0.000199105,0,0,0,0,0,0,0,0,0,0,0,0,0,0,0,0,0,0,0,0,0,0,0,0,0,0,0,0,0.00236912,2.38227,27.3983
1.1507,2.15337,-0.132545,1.02144,-1.67273,1.57047,1.35512,-0.3,1.54809,1.56089,1,-0.000398068,8.33761e-08,-0.000199112,0,0,0,0,0,0,0,0,0,0,0,0,0,0,0,0,0,0,0,0,0,0,0,0,0,0,0,0,0.00236912,2.38227,27.3983
1.15098,2.14984,-0.135396,1.02119,-1.66963,1.57047,1.35716,-0.304884,1.54729,1.55773,1,-0.000398119,-2.8215e-07,0.000681385,0,0,0,0,0,0,0,0,0,0,0,0,0,0,0,0,0,0,0,0,0,0,0,0,0,0,0,0,0.00236912,2.38227,27.3983
1.15125,2.14632,-0.138246,1.02094,-1.66653,1.57046,1.3592,-0.309764,1.54647,1.55458,0.999999,-0.00039816,-6.4441e-07,0.00156188,0,0,0,0,0,0,0,0,0,0,0,0,0,0,0,0,0,0,0,0,0,0,0,0,0,0,0,0,0.00236912,2.38227,27.3983
1.15153,2.14279,-0.141097,1.02069,-1.66343,1.57046,1.36124,-0.314639,1.54561,1.55141,0.999997,-0.000398191,-1.00336e-06,0.00244238,0,0,0,0,0,0,0,0,0,0,0,0,0,0,0,0,0,0,0,0,0,0,0,0,0,0,0,0,0.00236912,2.38227,27.3983
1.15181,2.13927,-0.143947,1.02044,-1.66033,1.57045,1.36328,-0.319509,1.54473,1.54825,0.999994,-0.000398213,-1.35894e-06,0.00332287,0,0,0,0,0,0,0,0,0,0,0,0,0,0,0,0,0,0,0,0,0,0,0,0,0,0,0,0,0.00236912,2.38227,27.3983
1.15209,2.13574,-0.146798,1.02019,-1.65723,1.57045,1.36533,-0.324375,1.54382,1.54508,0.999991,-0.000398225,-1.71111e-06,0.00420336,0,0,0,0,0,0,0,0,0,0,0,0,0,0,0,0,0,0,0,0,0,0,0,0,0,0,0,0,0.00236912,2.38227,27.3983
1.15236,2.13222,-0.149648,1.01994,-1.65413,1.57044,1.36737,-0.329235,1.54288,1.54191,0.999987,-0.000398228,-2.05981e-06,0.00508385,0,0,0,0,0,0,0,0,0,0,0,0,0,0,0,0,0,0,0,0,0,0,0,0,0,0,0,0,0.00236912,2.38227,27.3983
1.15264,2.12869,-0.152499,1.01969,-1.65103,1.57044,1.36941,-0.334089,1.54192,1.53873,0.999982,-0.000398221,-2.40501e-06,0.00596433,0,0,0,0,0,0,0,0,0,0,0,0,0,0,0,0,0,0,0,0,0,0,0,0,0,0,0,0,0.00236912,2.38227,27.3983
1.15292,2.12517,-0.155349,1.01944,-1.64793,1.57043,1.37145,-0.338939,1.54092,1.53556,0.999976,-0.000398205,-2.74665e-06,0.00684481,0,0,0,0,0,0,0,0,0,0,0,0,0,0,0,0,0,0,0,0,0,0,0,0,0,0,0,0,0.00236912,2.38227,27.3983
1.1532,2.12164,-0.1582,1.01919,-1.64484,1.57042,1.37349,-0.343782,1.5399,1.53237,0.99997,-0.000398179,-3.08468e-06,0.00772528,0,0,0,0,0,0,0,0,0,0,0,0,0,0,0,0,0,0,0,0,0,0,0,0,0,0,0,0,0.00236912,2.38227,27.3983
1.15347,2.11812,-0.16105,1.01893,-1.64174,1.57042,1.37553,-0.34862,1.53885,1.52919,0.999963,-0.000398143,-3.41905e-06,0.00860575,0,0,0,0,0,0,0,0,0,0,0,0,0,0,0,0,0,0,0,0,0,0,0,0,0,0,0,0,0.00236912,2.38227,27.3983
1.15314,2.11836,-0.160999,1.01893,-1.64174,1.57042,1.37553,-0.347844,1.53909,1.52925,0.999965,-0.000376738,1.10797e-05,0.00831773,0,0,0,0,0,0,0,0,0,0,0,0,0,0,0,0,0,0,0,0,0,0,0,0,0,0,0,0,0.00236912,2.38227,27.3983
1.15312,2.11837,-0.160974,1.01893,-1.64173,1.57042,1.37553,-0.3478,1.5391,1.52928,0.999965,-0.000365932,1.84476e-05,0.00830212,0,0,0,0,0,0,0,0,0,0,0,0,0,0,0,0,0,0,0,0,0,0,0,0,0,0,0,0,0.00236912,2.38227,27.3983
1.15312,2.11837,-0.160974,1.01893,-1.64173,1.57042,1.37553,-0.347801,1.5391,1.52928,0.999965,-0.000365667,1.86284e-05,0.00830212,0,0,0,0,0,0,0,0,0,0,0,0,0,0,0,0,0,0,0,0,0,0,0,0,0,0,0,0,0.00236912,2.38227,27.3983
1.15312,2.11837,-0.160974,1.01893,-1.64173,1.57042,1.37553,-0.347801,1.5391,1.52928,0.999965,-0.000365402,1.88091e-05,0.00830212,0,0,0,0,0,0,0,0,0,0,0,0,0,0,0,0,0,0,0,0,0,0,0,0,0,0,0,0,0.00236912,2.38227,27.3983
1.15312,2.11837,-0.160974,1.01893,-1.64173,1.57042,1.37553,-0.347801,1.5391,1.52928,0.999965,-0.000365137,1.89899e-05,0.00830212,0,0,0,0,0,0,0,0,0,0,0,0,0,0,0,0,0,0,0,0,0,0,0,0,0,0,0,0,0.00236912,2.38227,27.3983
1.15312,2.11837,-0.160974,1.01893,-1.64173,1.57042,1.37553,-0.347801,1.5391,1.52928,0.999965,-0.000364873,1.91707e-05,0.00830212,0,0,0,0,0,0,0,0,0,0,0,0,0,0,0,0,0,0,0,0,0,0,0,0,0,0,0,0,0.00236912,2.38227,27.3983
1.15312,2.11837,-0.160974,1.01893,-1.64173,1.57042,1.37553,-0.347801,1.5391,1.52928,0.999965,-0.000364608,1.93515e-05,0.00830212,0,0,0,0,0,0,0,0,0,0,0,0,0,0,0,0,0,0,0,0,0,0,0,0,0,0,0,0,0.00236912,2.38227,27.3983
1.15312,2.11837,-0.160974,1.01893,-1.64173,1.57042,1.37553,-0.347801,1.5391,1.52928,0.999965,-0.000364343,1.95323e-05,0.00830212,0,0,0,0,0,0,0,0,0,0,0,0,0,0,0,0,0,0,0,0,0,0,0,0,0,0,0,0,0.00236912,2.38227,27.3983
1.15312,2.11837,-0.160974,1.01893,-1.64173,1.57042,1.37553,-0.347801,1.5391,1.52928,0.999965,-0.000364078,1.9713e-05,0.00830212,0,0,0,0,0,0,0,0,0,0,0,0,0,0,0,0,0,0,0,0,0,0,0,0,0,0,0,0,0.00236912,2.38227,27.3983
1.15312,2.11837,-0.160974,1.01893,-1.64173,1.57042,1.37553,-0.347801,1.5391,1.52928,0.999965,-0.000364078,1.9713e-05,0.00830212,0,0,0,0,0,0,0,0,0,0,0,0,0,0,0,0,0,0,0,0,0,0,0,0,0,0,0,0,0.00236912,2.38227,27.3983

1.13585,2.13574,-0.150177,1.02143,-1.6551,1.57045,1.3579,-0.3,1.55,1.5422,1,-0.000398251,7.6522e-08,-0.000199053,0,0,0,0,0,0,0,0,0,0,0,0,0,0,0,0,0,0,0,0,0,0,0,0,0,0,0,0,0.00259206,2.3752,27.372
1.13757,2.13778,-0.148128,1.02144,-1.65714,1.57045,1.35758,-0.300005,1.5498,1.54438,1,-0.000393112,3.10165e-06,-0.000199293,0,0,0,0,0,0,0,0,0,0,0,0,0,0,0,0,0,0,0,0,0,0,0,0,0,0,0,0,0.00259206,2.3752,27.372
1.1393,2.13983,-0.14608,1.02144,-1.65918,1.57045,1.35726,-0.30001,1.5496,1.54656,1,-0.000388069,6.10495e-06,-0.000199435,0,0,0,0,0,0,0,0,0,0,0,0,0,0,0,0,0,0,0,0,0,0,0,0,0,0,0,0,0.00259206,2.3752,27.372
1.14102,2.14187,-0.144031,1.02145,-1.66123,1.57045,1.35693,-0.300013,1.54938,1.54874,1,-0.000383241,9.06335e-06,-0.000199331,0,0,0,0,0,0,0,0,0,0,0,0,0,0,0,0,0,0,0,0,0,0,0,0,0,0,0,0,0.00259206,2.3752,27.372
1.14274,2.14391,-0.141982,1.02145,-1.66327,1.57046,1.35661,-0.300016,1.54917,1.55092,1,-0.000378919,1.18271e-05,-0.000198879,0,0,0,0,0,0,0,0,0,0,0,0,0,0,0,0,0,0,0,0,0,0,0,0,0,0,0,0,0.00259206,2.3752,27.372
1.14446,2.14596,-0.139934,1.02146,-1.66531,1.57046,1.35629,-0.300018,1.54894,1.55309,1,-0.000375757,1.3975e-05,-0.000198156,0,0,0,0,0,0,0,0,0,0,0,0,0,0,0,0,0,0,0,0,0,0,0,0,0,0,0,0,0.00259206,2.3752,27.372
1.14618,2.148,-0.137889,1.02146,-1.66735,1.57046,1.35597,-0.300018,1.54871,1.55526,1,-0.000375282,1.44764e-05,-0.000197465,0,0,0,0,0,0,0,0,0,0,0,0,0,0,0,0,0,0,0,0,0,0,0,0,0,0,0,0,0.00259206,2.3752,27.372
1.1479,2.15004,-0.135849,1.02145,-1.6694,1.57047,1.35564,-0.300015,1.54848,1.55741,1,-0.000378871,1.2358e-05,-0.000197383,0,0,0,0,0,0,0,0,0,0,0,0,0,0,0,0,0,0,0,0,0,0,0,0,0,0,0,0,0.00259206,2.3752,27.372
1.14962,2.15208,-0.133815,1.02145,-1.67144,1.57047,1.35532,-0.300009,1.54824,1.55956,1,-0.000386319,7.71622e-06,-0.000197893,0,0,0,0,0,0,0,0,0,0,0,0,0,0,0,0,0,0,0,0,0,0,0,0,0,0,0,0,0.00259206,2.3752,27.372
1.15134,2.15413,-0.131787,1.02144,-1.67349,1.57048,1.355,-0.3,1.54799,1.56169,1,-0.000398388,4.11483e-08,-0.000199009,0,0,0,0,0,0,0,0,0,0,0,0,0,0,0,0,0,0,0,0,0,0,0,0,0,0,0,0,0.00259206,2.3752,27.372
1.15163,2.15045,-0.13475,1.02121,-1.67023,1.57047,1.35713,-0.305102,1.54718,1.55844,1,-0.000368691,1.85583e-05,0.000719288,0,0,0,0,0,0,0,0,0,0,0,0,0,0,0,0,0,0,0,0,0,0,0,0,0,0,0,0,0.00259206,2.3752,27.372
1.15192,2.14678,-0.137721,1.02099,-1.66698,1.57046,1.35926,-0.310197,1.54633,1.55517,0.999999,-0.000345376,3.31195e-05,0.00163709,0,0,0,0,0,0,0,0,0,0,0,0,0,0,0,0,0,0,0,0,0,0,0,0,0,0,0,0,0.00259206,2.3752,27.372
1.15221,2.1431,-0.140703,1.02075,-1.66373,1.57046,1.36139,-0.315287,1.54546,1.55189,0.999997,-0.00032918,4.31628e-05,0.00255432,0,0,0,0,0,0,0,0,0,0,0,0,0,0,0,0,0,0,0,0,0,0,0,0,0,0,0,0,0.00259206,2.3752,27.372
1.15249,2.13942,-0.143695,1.02051,-1.66047,1.57045,1.36352,-0.32037,1.54455,1.54858,0.999994,-0.000321099,4.80768e-05,0.00347161,0,0,0,0,0,0,0,0,0,0,0,0,0,0,0,0,0,0,0,0,0,0,0,0,0,0,0,0,0.00259206,2.3752,27.372
1.15278,2.13575,-0.146698,1.02026,-1.65722,1.57044,1.36565,-0.325448,1.54361,1.54525,0.99999,-0.000320922,4.78625e-05,0.00438885,0,0,0,0,0,0,0,0,0,0,0,0,0,0,0,0,0,0,0,0,0,0,0,0,0,0,0,0,0.00259206,2.3752,27.372
1.15307,2.13207,-0.149709,1.02,-1.65397,1.57044,1.36778,-0.330522,1.54263,1.5419,0.999986,-0.000327113,4.36073e-05,0.00530683,0,0,0,0,0,0,0,0,0,0,0,0,0,0,0,0,0,0,0,0,0,0,0,0,0,0,0,0,0.00259206,2.3752,27.372
1.15336,2.12839,-0.152727,1.01974,-1.65072,1.57043,1.3699,-0.335592,1.54163,1.53854,0.999981,-0.000339004,3.57195e-05,0.0062258,0,0,0,0,0,0,0,0,0,0,0,0,0,0,0,0,0,0,0,0,0,0,0,0,0,0,0,0,0.00259206,2.3752,27.372
1.15365,2.12472,-0.155751,1.01948,-1.64747,1.57043,1.37203,-0.340657,1.54059,1.53516,0.999974,-0.000355697,2.47044e-05,0.00714546,0,0,0,0,0,0,0,0,0,0,0,0,0,0,0,0,0,0,0,0,0,0,0,0,0,0,0,0,0.00259206,2.3752,27.372
1.15394,2.12104,-0.158779,1.01921,-1.64422,1.57042,1.37416,-0.345717,1.53952,1.53177,0.999967,-0.000376016,1.12377e-05,0.0080654,0,0,0,0,0,0,0,0,0,0,0,0,0,0,0,0,0,0,0,0,0,0,0,0,0,0,0,0,0.00259206,2.3752,27.372
1.15423,2.11736,-0.161809,1.01893,-1.64098,1.57042,1.37629,-0.350769,1.53842,1.52838,0.99996,-0.000398161,-3.57351e-06,0.00898541,0,0,0,0,0,0,0,0,0,0,0,0,0,0,0,0,0,0,0,0,0,0,0,0,0,0,0,0,0.00259206,2.3752,27.372
1.1539,2.1176,-0.161712,1.01899,-1.64098,1.57042,1.37629,-0.35,1.53867,1.52853,0.999962,-0.000334131,4.05992e-05,0.0086974,0,0,0,0,0,0,0,0,0,0,0,0,0,0,0,0,0,0,0,0,0,0,0,0,0,0,0,0,0.00259206,2.3752,27.372
1.15388,2.11761,-0.161618,1.01905,-1.64098,1.57042,1.37629,-0.349961,1.53869,1.52868,0.999962,-0.000272027,8.35392e-05,0.00868186,0,0,0,0,0,0,0,0,0,0,0,0,0,0,0,0,0,0,0,0,0,0,0,0,0,0,0,0,0.00259206,2.3752,27.372
1.15388,2.11761,-0.16153,1.0191,-1.64097,1.57042,1.37629,-0.349964,1.53869,1.52882,0.999962,-0.000213587,0.000123947,0.00868192,0,0,0,0,0,0,0,0,0,0,0,0,0,0,0,0,0,0,0,0,0,0,0,0,0,0,0,0,0.00259206,2.3752,27.372
1.15388,2.11761,-0.161449,1.01915,-1.64097,1.57042,1.37629,-0.349967,1.5387,1.52895,0.999962,-0.000160364,0.00016074,0.00868199,0,0,0,0,0,0,0,0,0,0,0,0,0,0,0,0,0,0,0,0,0,0,0,0,0,0,0,0,0.00259206,2.3752,27.372
1.15388,2.11761,-0.161378,1.01919,-1.64097,1.57042,1.37629,-0.34997,1.5387,1.52907,0.999962,-0.000113637,0.000193035,0.00868204,0,0,0,0,0,0,0,0,0,0,0,0,0,0,0,0,0,0,0,0,0,0,0,0,0,0,0,0,0.00259206,2.3752,27.372
1.15388,2.11761,-0.161319,1.01923,-1.64097,1.57042,1.37629,-0.349972,1.5387,1.52916,0.999962,-7.43718e-05,0.000220165,0.00868209,0,0,0,0,0,0,0,0,0,0,0,0,0,0,0,0,0,0,0,0,0,0,0,0,0,0,0,0,0.00259206,2.3752,27.372
1.15388,2.11761,-0.161272,1.01926,-1.64097,1.57042,1.37629,-0.349973,1.5387,1.52924,0.999962,-4.32421e-05,0.000241667,0.00868212,0,0,0,0,0,0,0,0,0,0,0,0,0,0,0,0,0,0,0,0,0,0,0,0,0,0,0,0,0.00259206,2.3752,27.372
1.15388,2.11761,-0.161238,1.01928,-1.64097,1.57042,1.37629,-0.349975,1.53871,1.52929,0.999962,-2.06722e-05,0.00025725,0.00868215,0,0,0,0,0,0,0,0,0,0,0,0,0,0,0,0,0,0,0,0,0,0,0,0,0,0,0,0,0.00259206,2.3752,27.372
1.15388,2.11761,-0.161217,1.01929,-1.64097,1.57042,1.37629,-0.349976,1.53871,1.52932,0.999962,-6.9001e-06,0.000266753,0.00868216,0,0,0,0,0,0,0,0,0,0,0,0,0,0,0,0,0,0,0,0,0,0,0,0,0,0,0,0,0.00259206,2.3752,27.372
1.15388,2.11761,-0.16121,1.01929,-1.64097,1.57042,1.37629,-0.349976,1.53871,1.52933,0.999962,-2.30344e-06,0.000269919,0.00868217,0,0,0,0,0,0,0,0,0,0,0,0,0,0,0,0,0,0,0,0,0,0,0,0,0,0,0,0,0.00259206,2.3752,27.372

1.13585,2.13574,-0.150177,1.02143,-1.6551,1.57045,1.3579,-0.3,1.55,1.5422,1,-0.000398251,7.65303e-08,-0.000199053,0,0,0,0,0,0,0,0,0,0,0,0,0,0,0,0,0,0,0,0,0,0,0,0,0,0,0,0,0.0029451,2.36456,27.3324
1.13768,2.13791,-0.148007,1.02143,-1.65727,1.57045,1.35756,-0.300006,1.54979,1.54451,1,-0.000398249,7.19095e-08,-0.000199056,0,0,0,0,0,0,0,0,0,0,0,0,0,0,0,0,0,0,0,0,0,0,0,0,0,0,0,0,0.0029451,2.36456,27.3324
1.13951,2.14008,-0.145837,1.02143,-1.65944,1.57045,1.35722,-0.300011,1.54957,1.54681,1,-0.000398244,6.85556e-08,-0.000199059,0,0,0,0,0,0,0,0,0,0,0,0,0,0,0,0,0,0,0,0,0,0,0,0,0,0,0,0,0.0029451,2.36456,27.3324
1.14134,2.14225,-0.143667,1.02143,-1.66161,1.57046,1.35688,-0.300014,1.54934,1.54911,1,-0.000398236,6.64346e-08,-0.000199063,0,0,0,0,0,0,0,0,0,0,0,0,0,0,0,0,0,0,0,0,0,0,0,0,0,0,0,0,0.0029451,2.36456,27.3324
1.14316,2.14442,-0.141497,1.02143,-1.66378,1.57046,1.35653,-0.300015,1.54911,1.55141,1,-0.000398224,6.55272e-08,-0.000199066,0,0,0,0,0,0,0,0,0,0,0,0,0,0,0,0,0,0,0,0,0,0,0,0,0,0,0,0,0.0029451,2.36456,27.3324
1.14499,2.14659,-0.139328,1.02143,-1.66595,1.57046,1.35619,-0.300015,1.54887,1.55371,1,-0.000398209,6.58253e-08,-0.000199069,0,0,0,0,0,0,0,0,0,0,0,0,0,0,0,0,0,0,0,0,0,0,0,0,0,0,0,0,0.0029451,2.36456,27.3324
1.14682,2.14876,-0.137158,1.02144,-1.66812,1.57047,1.35585,-0.300014,1.54863,1.55601,1,-0.000398191,6.73357e-08,-0.000199072,0,0,0,0,0,0,0,0,0,0,0,0,0,0,0,0,0,0,0,0,0,0,0,0,0,0,0,0,0.0029451,2.36456,27.3324
1.14865,2.15093,-0.134988,1.02144,-1.67029,1.57047,1.35551,-0.300011,1.54838,1.55831,1,-0.000398169,7.00769e-08,-0.000199075,0,0,0,0,0,0,0,0,0,0,0,0,0,0,0,0,0,0,0,0,0,0,0,0,0,0,0,0,0.0029451,2.36456,27.3324
1.15047,2.1531,-0.132818,1.02144,-1.67246,1.57047,1.35516,-0.300006,1.54812,1.5606,1,-0.000398144,7.40784e-08,-0.000199078,0,0,0,0,0,0,0,0,0,0,0,0,0,0,0,0,0,0,0,0,0,0,0,0,0,0,0,0,0.0029451,2.36456,27.3324
1.1523,2.15527,-0.130648,1.02144,-1.67463,1.57048,1.35482,-0.3,1.54786,1.56289,1,-0.000398115,7.93798e-08,-0.000199082,0,0,0,0,0,0,0,0,0,0,0,0,0,0,0,0,0,0,0,0,0,0,0,0,0,0,0,0,0.0029451,2.36456,27.3324
1.15261,2.15136,-0.133876,1.02119,-1.67115,1.57047,1.35708,-0.305426,1.54701,1.55934,1,-0.000396763,5.79385e-07,0.000776329,0,0,0,0,0,0,0,0,0,0,0,0,0,0,0,0,0,0,0,0,0,0,0,0,0,0,0,0,0.0029451,2.36456,27.3324
1.15292,2.14746,-0.137104,1.02094,-1.66767,1.57046,1.35934,-0.310848,1.54612,1.55579,0.999998,-0.000395551,9.9581e-07,0.00175173,0,0,0,0,0,0,0,0,0,0,0,0,0,0,0,0,0,0,0,0,0,0,0,0,0,0,0,0,0.0029451,2.36456,27.3324
1.15322,2.14355,-0.140333,1.02069,-1.66419,1.57046,1.3616,-0.316263,1.5452,1.55223,0.999996,-0.000394612,1.23966e-06,0.00272711,0,0,0,0,0,0,0,0,0,0,0,0,0,0,0,0,0,0,0,0,0,0,0,0,0,0,0,0,0.0029451,2.36456,27.3324
1.15353,2.13965,-0.143562,1.02044,-1.66071,1.57045,1.36387,-0.321673,1.54424,1.54866,0.999993,-0.000394026,1.25488e-06,0.00370247,0,0,0,0,0,0,0,0,0,0,0,0,0,0,0,0,0,0,0,0,0,0,0,0,0,0,0,0,0.0029451,2.36456,27.3324
1.15384,2.13574,-0.146792,1.02019,-1.65723,1.57045,1.36613,-0.327076,1.54325,1.54509,0.999989,-0.000393847,1.00257e-06,0.00467784,0,0,0,0,0,0,0,0,0,0,0,0,0,0,0,0,0,0,0,0,0,0,0,0,0,0,0,0,0.0029451,2.36456,27.3324
1.15414,2.13184,-0.150022,1.01994,-1.65375,1.57044,1.36839,-0.332473,1.54223,1.54151,0.999984,-0.000394078,4.78361e-07,0.00565325,0,0,0,0,0,0,0,0,0,0,0,0,0,0,0,0,0,0,0,0,0,0,0,0,0,0,0,0,0.0029451,2.36456,27.3324
1.15445,2.12793,-0.153253,1.01969,-1.65027,1.57043,1.37065,-0.337864,1.54116,1.53793,0.999978,-0.000394693,-3.05482e-07,0.00662868,0,0,0,0,0,0,0,0,0,0,0,0,0,0,0,0,0,0,0,0,0,0,0,0,0,0,0,0,0.0029451,2.36456,27.3324
1.15476,2.12403,-0.156485,1.01944,-1.64679,1.57043,1.37291,-0.343247,1.54007,1.53435,0.999971,-0.000395647,-1.32717e-06,0.00760412,0,0,0,0,0,0,0,0,0,0,0,0,0,0,0,0,0,0,0,0,0,0,0,0,0,0,0,0,0.0029451,2.36456,27.3324
1.15507,2.12012,-0.159716,1.01919,-1.64332,1.57042,1.37517,-0.348623,1.53893,1.53076,0.999963,-0.000396842,-2.5267e-06,0.00857953,0,0,0,0,0,0,0,0,0,0,0,0,0,0,0,0,0,0,0,0,0,0,0,0,0,0,0,0,0.0029451,2.36456,27.3324
1.15537,2.11622,-0.162948,1.01893,-1.63984,1.57042,1.37743,-0.353992,1.53777,1.52716,0.999954,-0.000398152,-3.82261e-06,0.00955492,0,0,0,0,0,0,0,0,0,0,0,0,0,0,0,0,0,0,0,0,0,0,0,0,0,0,0,0,0.0029451,2.36456,27.3324
1.15504,2.11646,-0.162851,1.01899,-1.63984,1.57042,1.37743,-0.353222,1.53802,1.52731,0.999957,-0.000336271,3.96441e-05,0.00926691,0,0,0,0,0,0,0,0,0,0,0,0,0,0,0,0,0,0,0,0,0,0,0,0,0,0,0,0,0.0029451,2.36456,27.3324
1.15502,2.11647,-0.162757,1.01904,-1.63984,1.57042,1.37743,-0.353184,1.53804,1.52746,0.999957,-0.000276041,8.20603e-05,0.00925137,0,0,0,0,0,0,0,0,0,0,0,0,0,0,0,0,0,0,0,0,0,0,0,0,0,0,0,0,0.0029451,2.36456,27.3324
1.15502,2.11647,-0.162669,1.01909,-1.63984,1.57042,1.37743,-0.353187,1.53804,1.5276,0.999957,-0.000218974,0.000122276,0.00925143,0,0,0,0,0,0,0,0,0,0,0,0,0,0,0,0,0,0,0,0,0,0,0,0,0,0,0,0,0.0029451,2.36456,27.3324
1.15502,2.11647,-0.162588,1.01914,-1.63983,1.57042,1.37743,-0.35319,1.53804,1.52773,0.999957,-0.000166445,0.000159325,0.0092515,0,0,0,0,0,0,0,0,0,0,0,0,0,0,0,0,0,0,0,0,0,0,0,0,0,0,0,0,0.0029451,2.36456,27.3324
1.15502,2.11647,-0.162517,1.01918,-1.63983,1.57042,1.37743,-0.353193,1.53805,1.52784,0.999957,-0.000119729,0.000192313,0.00925155,0,0,0,0,0,0,0,0,0,0,0,0,0,0,0,0,0,0,0,0,0,0,0,0,0,0,0,0,0.0029451,2.36456,27.3324
1.15502,2.11647,-0.162458,1.01922,-1.63983,1.57043,1.37743,-0.353196,1.53805,1.52794,0.999957,-7.98429e-05,0.000220527,0.00925158,0,0,0,0,0,0,0,0,0,0,0,0,0,0,0,0,0,0,0,0,0,0,0,0,0,0,0,0,0.0029451,2.36456,27.3324
1.15502,2.11647,-0.16241,1.01925,-1.63983,1.57043,1.37743,-0.353198,1.53805,1.52802,0.999957,-4.73267e-05,0.000243562,0.00925163,0,0,0,0,0,0,0,0,0,0,0,0,0,0,0,0,0,0,0,0,0,0,0,0,0,0,0,0,0.0029451,2.36456,27.3324
1.15502,2.11647,-0.162375,1.01927,-1.63983,1.57043,1.37743,-0.3532,1.53806,1.52807,0.999957,-2.31053e-05,0.000260726,0.00925166,0,0,0,0,0,0,0,0,0,0,0,0,0,0,0,0,0,0,0,0,0,0,0,0,0,0,0,0,0.0029451,2.36456,27.3324
1.15502,2.11647,-0.162353,1.01929,-1.63983,1.57043,1.37743,-0.353201,1.53806,1.52811,0.999957,-8.27939e-06,0.000271234,0.00925168,0,0,0,0,0,0,0,0,0,0,0,0,0,0,0,0,0,0,0,0,0,0,0,0,0,0,0,0,0.0029451,2.36456,27.3324
1.15502,2.11647,-0.162345,1.01929,-1.63983,1.57043,1.37743,-0.353201,1.53806,1.52812,0.999957,-3.28817e-06,0.000274778,0.00925168,0,0,0,0,0,0,0,0,0,0,0,0,0,0,0,0,0,0,0,0,0,0,0,0,0,0,0,0,0.0029451,2.36456,27.3324

1.13585,2.13574,-0.150177,1.02143,-1.6551,1.57045,1.3579,-0.3,1.55,1.5422,1,-0.000398251,7.65303e-08,-0.000199053,0,0,0,0,0,0,0,0,0,0,0,0,0,0,0,0,0,0.00413912,0.00413912,0,0,0,0,0,0,0,0,0,0.00300773,2.3628,27.3259
1.1377,2.13793,-0.147993,1.02144,-1.65729,1.57045,1.35756,-0.300007,1.54979,1.54453,1,-0.00039602,1.51813e-06,-0.000199053,0,0,0,0,0,0,0,0,0,0,0,0,0,0,0,0,0,0.00413912,0.00413912,0,0,0,0,0,0,0,0,0,0.00300773,2.3628,27.3259
1.13954,2.14012,-0.145809,1.02146,-1.65948,1.57045,1.35721,-0.300012,1.54957,1.54686,1,-0.000393786,2.9595e-06,-0.000199053,0,0,0,0,0,0,0,0,0,0,0,0,0,0,0,0,0,0.00413912,0.00413912,0,0,0,0,0,0,0,0,0,0.00300773,2.3628,27.3259
1.14138,2.14231,-0.143626,1.02147,-1.66167,1.57046,1.35686,-0.300016,1.54934,1.54918,1,-0.000391546,4.40064e-06,-0.000199052,0,0,0,0,0,0,0,0,0,0,0,0,0,0,0,0,0,0.00413912,0.00413912,0,0,0,0,0,0,0,0,0,0.00300773,2.3628,27.3259
1.14323,2.14449,-0.141442,1.02149,-1.66386,1.57046,1.35652,-0.300018,1.54911,1.55151,1,-0.000389302,5.84157e-06,-0.000199052,0,0,0,0,0,0,0,0,0,0,0,0,0,0,0,0,0,0.00413912,0.00413912,0,0,0,0,0,0,0,0,0,0.00300773,2.3628,27.3259
1.14507,2.14668,-0.139259,1.0215,-1.66605,1.57046,1.35617,-0.300018,1.54887,1.55383,1,-0.000387054,7.28228e-06,-0.000199052,0,0,0,0,0,0,0,0,0,0,0,0,0,0,0,0,0,0.00413912,0.00413912,0,0,0,0,0,0,0,0,0,0.00300773,2.3628,27.3259
1.14691,2.14887,-0.137075,1.02151,-1.66825,1.57047,1.35583,-0.300017,1.54863,1.55615,1,-0.000384801,8.72278e-06,-0.000199051,0,0,0,0,0,0,0,0,0,0,0,0,0,0,0,0,0,0.00413912,0.00413912,0,0,0,0,0,0,0,0,0,0.00300773,2.3628,27.3259
1.14875,2.15106,-0.134891,1.02153,-1.67044,1.57047,1.35548,-0.300015,1.54838,1.55846,1,-0.000382543,1.01631e-05,-0.000199051,0,0,0,0,0,0,0,0,0,0,0,0,0,0,0,0,0,0.00413912,0.00413912,0,0,0,0,0,0,0,0,0,0.00300773,2.3628,27.3259
1.1506,2.15325,-0.132708,1.02154,-1.67263,1.57047,1.35513,-0.30001,1.54812,1.56078,1,-0.000380281,1.16032e-05,-0.00019905,0,0,0,0,0,0,0,0,0,0,0,0,0,0,0,0,0,0.00413912,0.00413912,0,0,0,0,0,0,0,0,0,0.00300773,2.3628,27.3259
1.15244,2.15544,-0.130524,1.02155,-1.67485,1.57048,1.35479,-0.299999,1.54785,1.56309,1,-0.000392165,3.98107e-06,-0.000199048,0,0,0,0,0,0,0,0,0,0,0,0,0,0,0,0,0,0.00413912,0.00413912,0,0,0,0,0,0,0,0,0,0.00300773,2.3628,27.3259
1.15272,2.15151,-0.133778,1.02129,-1.67132,1.57045,1.35707,-0.305422,1.54701,1.55951,1,-0.000378482,9.46647e-07,0.000767492,0,0,0,0,0,0,0,0,0,0,0,0,0,0,0,0,0,0.00413912,0.00413912,0,0,0,0,0,0,0,0,0,0.00300773,2.3628,27.3259
1.15301,2.14758,-0.137032,1.02103,-1.6678,1.57043,1.35935,-0.310837,1.54614,1.55592,0.999998,-0.000371318,-6.22913e-06,0.00173418,0,0,0,0,0,0,0,0,0,0,0,0,0,0,0,0,0,0.00413912,0.00413912,0,0,0,0,0,0,0,0,0,0.00300773,2.3628,27.3259
1.15329,2.14364,-0.140286,1.02077,-1.66428,1.5704,1.36163,-0.316247,1.54522,1.55233,0.999996,-0.000364073,-1.33004e-05,0.00270115,0,0,0,0,0,0,0,0,0,0,0,0,0,0,0,0,0,0.00413912,0.00413912,0,0,0,0,0,0,0,0,0,0.00300773,2.3628,27.3259
1.15357,2.13971,-0.143539,1.02051,-1.66076,1.57038,1.36391,-0.321653,1.54427,1.54873,0.999993,-0.000356751,-2.02353e-05,0.0036686,0,0,0,0,0,0,0,0,0,0,0,0,0,0,0,0,0,0.00413912,0.00413912,0,0,0,0,0,0,0,0,0,0.00300773,2.3628,27.3259
1.15386,2.13578,-0.146793,1.02025,-1.65724,1.57035,1.3662,-0.327053,1.54329,1.54513,0.999989,-0.00034945,-2.70832e-05,0.0046366,0,0,0,0,0,0,0,0,0,0,0,0,0,0,0,0,0,0.00413912,0.00413912,0,0,0,0,0,0,0,0,0,0.00300773,2.3628,27.3259
1.15414,2.13184,-0.150047,1.01999,-1.65373,1.57033,1.36848,-0.332449,1.54227,1.54152,0.999984,-0.000342241,-3.39021e-05,0.00560512,0,0,0,0,0,0,0,0,0,0,0,0,0,0,0,0,0,0.00413912,0.00413912,0,0,0,0,0,0,0,0,0,0.00300773,2.3628,27.3259
1.15443,2.12791,-0.153301,1.01972,-1.65021,1.5703,1.37076,-0.33784,1.54121,1.53791,0.999978,-0.000335153,-4.07254e-05,0.00657407,0,0,0,0,0,0,0,0,0,0,0,0,0,0,0,0,0,0.00413912,0.00413912,0,0,0,0,0,0,0,0,0,0.00300773,2.3628,27.3259
1.15472,2.12398,-0.156556,1.01946,-1.64669,1.57028,1.37304,-0.343225,1.54012,1.53429,0.999971,-0.000328044,-4.74427e-05,0.00754356,0,0,0,0,0,0,0,0,0,0,0,0,0,0,0,0,0,0.00413912,0.00413912,0,0,0,0,0,0,0,0,0,0.00300773,2.3628,27.3259
1.155,2.12004,-0.159809,1.0192,-1.64317,1.57025,1.37532,-0.348604,1.53899,1.53067,0.999964,-0.000320762,-5.39019e-05,0.00851387,0,0,0,0,0,0,0,0,0,0,0,0,0,0,0,0,0,0.00413912,0.00413912,0,0,0,0,0,0,0,0,0,0.00300773,2.3628,27.3259
1.15554,2.11605,-0.163182,1.01888,-1.63958,1.57042,1.3776,-0.354486,1.53768,1.52688,0.999953,-0.000409099,-1.13873e-05,0.00964041,0,0,0,0,0,0,0,0,0,0,0,0,0,0,0,0,0,0.00413912,0.00413912,0,0,0,0,0,0,0,0,0,0.00300773,2.3628,27.3259
1.15521,2.11629,-0.16298,1.01898,-1.6397,1.57025,1.3776,-0.353656,1.53794,1.52718,0.999956,-0.000283668,-2.76893e-05,0.00935234,0,0,0,0,0,0,0,0,0,0,0,0,0,0,0,0,0,0.00413912,0.00413912,0,0,0,0,0,0,0,0,0,0.00300773,2.3628,27.3259
1.15519,2.1163,-0.162644,1.01918,-1.63967,1.57025,1.3776,-0.353629,1.53797,1.52771,0.999956,-5.66816e-05,0.000129791,0.00933669,0,0,0,0,0,0,0,0,0,0,0,0,0,0,0,0,0,0.00413912,0.00413912,0,0,0,0,0,0,0,0,0,0.00300773,2.3628,27.3259
1.15519,2.1163,-0.162627,1.01918,-1.63967,1.57025,1.3776,-0.353628,1.53797,1.52773,0.999956,-4.97684e-05,0.00013535,0.00933647,0,0,0,0,0,0,0,0,0,0,0,0,0,0,0,0,0,0.00413912,0.00413912,0,0,0,0,0,0,0,0,0,0.00300773,2.3628,27.3259
1.15519,2.1163,-0.16261,1.01918,-1.63967,1.57025,1.3776,-0.353626,1.53797,1.52775,0.999956,-4.28712e-05,0.000140897,0.00933625,0,0,0,0,0,0,0,0,0,0,0,0,0,0,0,0,0,0.00413912,0.00413912,0,0,0,0,0,0,0,0,0,0.00300773,2.3628,27.3259
1.15519,2.1163,-0.162592,1.01918,-1.63967,1.57025,1.3776,-0.353625,1.53797,1.52777,0.999956,-3.60057e-05,0.000146425,0.00933604,0,0,0,0,0,0,0,0,0,0,0,0,0,0,0,0,0,0.00413912,0.00413912,0,0,0,0,0,0,0,0,0,0.00300773,2.3628,27.3259
1.15519,2.1163,-0.162575,1.01918,-1.63967,1.57025,1.3776,-0.353624,1.53797,1.52779,0.999956,-2.91848e-05,0.000151928,0.00933585,0,0,0,0,0,0,0,0,0,0,0,0,0,0,0,0,0,0.00413912,0.00413912,0,0,0,0,0,0,0,0,0,0.00300773,2.3628,27.3259
1.15519,2.1163,-0.162558,1.01918,-1.63967,1.57026,1.3776,-0.353623,1.53797,1.52781,0.999956,-2.23624e-05,0.000157323,0.00933569,0,0,0,0,0,0,0,0,0,0,0,0,0,0,0,0,0,0.00413912,0.00413912,0,0,0,0,0,0,0,0,0,0.00300773,2.3628,27.3259
1.15519,2.1163,-0.162541,1.01918,-1.63967,1.57026,1.3776,-0.353622,1.53797,1.52783,0.999956,-1.55097e-05,0.000162565,0.00933557,0,0,0,0,0,0,0,0,0,0,0,0,0,0,0,0,0,0.00413912,0.00413912,0,0,0,0,0,0,0,0,0,0.00300773,2.3628,27.3259
1.15519,2.1163,-0.162524,1.01918,-1.63967,1.57026,1.3776,-0.353621,1.53796,1.52785,0.999956,-8.60951e-06,0.000167634,0.00933549,0,0,0,0,0,0,0,0,0,0,0,0,0,0,0,0,0,0.00413912,0.00413912,0,0,0,0,0,0,0,0,0,0.00300773,2.3628,27.3259
1.15519,2.1163,-0.162516,1.01918,-1.63967,1.57026,1.3776,-0.35362,1.53796,1.52786,0.999956,-5.58027e-06,0.000169832,0.00933546,0,0,0,0,0,0,0,0,0,0,0,0,0,0,0,0,0,0.00413912,0.00413912,0,0,0,0,0,0,0,0,0,0.00300773,2.3628,27.3259

1.13585,2.13574,-0.150177,1.02143,-1.6551,1.57045,1.3579,-0.3,1.55,1.5422,1,-0.000398251,7.65303e-08,-0.000199053,0,0,0,0,0,0,0,0,0,0,0,0,0,0,0,0,0,0.00413912,0.00413912,0,0,0,0,0,0,0,0,0,0.00300773,2.3628,27.3259
1.1377,2.13793,-0.147993,1.02144,-1.65729,1.57045,1.35756,-0.300007,1.54979,1.54453,1,-0.00039602,1.51813e-06,-0.000199053,0,0,0,0,0,0,0,0,0,0,0,0,0,0,0,0,0,0.00413912,0.00413912,0,0,0,0,0,0,0,0,0,0.00300773,2.3628,27.3259
1.13954,2.14012,-0.145809,1.02146,-1.65948,1.57045,1.35721,-0.300012,1.54957,1.54686,1,-0.000393786,2.9595e-06,-0.000199053,0,0,0,0,0,0,0,0,0,0,0,0,0,0,0,0,0,0.00413912,0.00413912,0,0,0,0,0,0,0,0,0,0.00300773,2.3628,27.3259
1.14138,2.14231,-0.143626,1.02147,-1.66167,1.57046,1.35686,-0.300016,1.54934,1.54918,1,-0.000391546,4.40064e-06,-0.000199052,0,0,0,0,0,0,0,0,0,0,0,0,0,0,0,0,0,0.00413912,0.00413912,0,0,0,0,0,0,0,0,0,0.00300773,2.3628,27.3259
1.14323,2.14449,-0.141442,1.02149,-1.66386,1.57046,1.35652,-0.300018,1.54911,1.55151,1,-0.000389302,5.84157e-06,-0.000199052,0,0,0,0,0,0,0,0,0,0,0,0,0,0,0,0,0,0.00413912,0.00413912,0,0,0,0,0,0,0,0,0,0.00300773,2.3628,27.3259
1.14507,2.14668,-0.139259,1.0215,-1.66605,1.57046,1.35617,-0.300018,1.54887,1.55383,1,-0.000387054,7.28228e-06,-0.000199052,0,0,0,0,0,0,0,0,0,0,0,0,0,0,0,0,0,0.00413912,0.00413912,0,0,0,0,0,0,0,0,0,0.00300773,2.3628,27.3259
1.14691,2.14887,-0.137075,1.02151,-1.66825,1.57047,1.35583,-0.300017,1.54863,1.55615,1,-0.000384801,8.72278e-06,-0.000199051,0,0,0,0,0,0,0,0,0,0,0,0,0,0,0,0,0,0.00413912,0.00413912,0,0,0,0,0,0,0,0,0,0.00300773,2.3628,27.3259
1.14875,2.15106,-0.134891,1.02153,-1.67044,1.57047,1.35548,-0.300015,1.54838,1.55846,1,-0.000382543,1.01631e-05,-0.000199051,0,0,0,0,0,0,0,0,0,0,0,0,0,0,0,0,0,0.00413912,0.00413912,0,0,0,0,0,0,0,0,0,0.00300773,2.3628,27.3259
1.1506,2.15325,-0.132708,1.02154,-1.67263,1.57047,1.35513,-0.30001,1.54812,1.56078,1,-0.000380281,1.16032e-05,-0.00019905,0,0,0,0,0,0,0,0,0,0,0,0,0,0,0,0,0,0.00413912,0.00413912,0,0,0,0,0,0,0,0,0,0.00300773,2.3628,27.3259
1.15244,2.15544,-0.130524,1.02155,-1.67485,1.57048,1.35479,-0.299999,1.54785,1.56309,1,-0.000392165,3.98107e-06,-0.000199048,0,0,0,0,0,0,0,0,0,0,0,0,0,0,0,0,0,0.00413912,0.00413912,0,0,0,0,0,0,0,0,0,0.00300773,2.3628,27.3259
1.15272,2.15151,-0.133778,1.02129,-1.67132,1.57045,1.35707,-0.305422,1.54701,1.55951,1,-0.000378482,9.46647e-07,0.000767492,0,0,0,0,0,0,0,0,0,0,0,0,0,0,0,0,0,0.00413912,0.00413912,0,0,0,0,0,0,0,0,0,0.00300773,2.3628,27.3259
1.15301,2.14758,-0.137032,1.02103,-1.6678,1.57043,1.35935,-0.310837,1.54614,1.55592,0.999998,-0.000371318,-6.22913e-06,0.00173418,0,0,0,0,0,0,0,0,0,0,0,0,0,0,0,0,0,0.00413912,0.00413912,0,0,0,0,0,0,0,0,0,0.00300773,2.3628,27.3259
1.15329,2.14364,-0.140286,1.02077,-1.66428,1.5704,1.36163,-0.316247,1.54522,1.55233,0.999996,-0.000364073,-1.33004e-05,0.00270115,0,0,0,0,0,0,0,0,0,0,0,0,0,0,0,0,0,0.00413912,0.00413912,0,0,0,0,0,0,0,0,0,0.00300773,2.3628,27.3259
1.15357,2.13971,-0.143539,1.02051,-1.66076,1.57038,1.36391,-0.321653,1.54427,1.54873,0.999993,-0.000356751,-2.02353e-05,0.0036686,0,0,0,0,0,0,0,0,0,0,0,0,0,0,0,0,0,0.00413912,0.00413912,0,0,0,0,0,0,0,0,0,0.00300773,2.3628,27.3259
1.15386,2.13578,-0.146793,1.02025,-1.65724,1.57035,1.3662,-0.327053,1.54329,1.54513,0.999989,-0.00034945,-2.70832e-05,0.0046366,0,0,0,0,0,0,0,0,0,0,0,0,0,0,0,0,0,0.00413912,0.00413912,0,0,0,0,0,0,0,0,0,0.00300773,2.3628,27.3259
1.15414,2.13184,-0.150047,1.01999,-1.65373,1.57033,1.36848,-0.332449,1.54227,1.54152,0.999984,-0.000342241,-3.39021e-05,0.00560512,0,0,0,0,0,0,0,0,0,0,0,0,0,0,0,0,0,0.00413912,0.00413912,0,0,0,0,0,0,0,0,0,0.00300773,2.3628,27.3259
1.15443,2.12791,-0.153301,1.01972,-1.65021,1.5703,1.37076,-0.33784,1.54121,1.53791,0.999978,-0.000335153,-4.07254e-05,0.00657407,0,0,0,0,0,0,0,0,0,0,0,0,0,0,0,0,0,0.00413912,0.00413912,0,0,0,0,0,0,0,0,0,0.00300773,2.3628,27.3259
1.15472,2.12398,-0.156556,1.01946,-1.64669,1.57028,1.37304,-0.343225,1.54012,1.53429,0.999971,-0.000328044,-4.74427e-05,0.00754356,0,0,0,0,0,0,0,0,0,0,0,0,0,0,0,0,0,0.00413912,0.00413912,0,0,0,0,0,0,0,0,0,0.00300773,2.3628,27.3259
1.155,2.12004,-0.159809,1.0192,-1.64317,1.57025,1.37532,-0.348604,1.53899,1.53067,0.999964,-0.000320762,-5.39019e-05,0.00851387,0,0,0,0,0,0,0,0,0,0,0,0,0,0,0,0,0,0.00413912,0.00413912,0,0,0,0,0,0,0,0,0,0.00300773,2.3628,27.3259
1.15554,2.11605,-0.163182,1.01888,-1.63958,1.57042,1.3776,-0.354486,1.53768,1.52688,0.999953,-0.000409099,-1.13873e-05,0.00964041,0,0,0,0,0,0,0,0,0,0,0,0,0,0,0,0,0,0.00413912,0.00413912,0,0,0,0,0,0,0,0,0,0.00300773,2.3628,27.3259
1.15521,2.11629,-0.16298,1.01898,-1.6397,1.57025,1.3776,-0.353656,1.53794,1.52718,0.999956,-0.000283668,-2.76893e-05,0.00935234,0,0,0,0,0,0,0,0,0,0,0,0,0,0,0,0,0,0.00413912,0.00413912,0,0,0,0,0,0,0,0,0,0.00300773,2.3628,27.3259
1.15519,2.1163,-0.162644,1.01918,-1.63967,1.57025,1.3776,-0.353629,1.53797,1.52771,0.999956,-5.66816e-05,0.000129791,0.00933669,0,0,0,0,0,0,0,0,0,0,0,0,0,0,0,0,0,0.00413912,0.00413912,0,0,0,0,0,0,0,0,0,0.00300773,2.3628,27.3259
1.15519,2.1163,-0.162627,1.01918,-1.63967,1.57025,1.3776,-0.353628,1.53797,1.52773,0.999956,-4.97684e-05,0.00013535,0.00933647,0,0,0,0,0,0,0,0,0,0,0,0,0,0,0,0,0,0.00413912,0.00413912,0,0,0,0,0,0,0,0,0,0.00300773,2.3628,27.3259
1.15519,2.1163,-0.16261,1.01918,-1.63967,1.57025,1.3776,-0.353626,1.53797,1.52775,0.999956,-4.28712e-05,0.000140897,0.00933625,0,0,0,0,0,0,0,0,0,0,0,0,0,0,0,0,0,0.00413912,0.00413912,0,0,0,0,0,0,0,0,0,0.00300773,2.3628,27.3259
1.15519,2.1163,-0.162592,1.01918,-1.63967,1.57025,1.3776,-0.353625,1.53797,1.52777,0.999956,-3.60057e-05,0.000146425,0.00933604,0,0,0,0,0,0,0,0,0,0,0,0,0,0,0,0,0,0.00413912,0.00413912,0,0,0,0,0,0,0,0,0,0.00300773,2.3628,27.3259
1.15519,2.1163,-0.162575,1.01918,-1.63967,1.57025,1.3776,-0.353624,1.53797,1.52779,0.999956,-2.91848e-05,0.000151928,0.00933585,0,0,0,0,0,0,0,0,0,0,0,0,0,0,0,0,0,0.00413912,0.00413912,0,0,0,0,0,0,0,0,0,0.00300773,2.3628,27.3259
1.15519,2.1163,-0.162558,1.01918,-1.63967,1.57026,1.3776,-0.353623,1.53797,1.52781,0.999956,-2.23624e-05,0.000157323,0.00933569,0,0,0,0,0,0,0,0,0,0,0,0,0,0,0,0,0,0.00413912,0.00413912,0,0,0,0,0,0,0,0,0,0.00300773,2.3628,27.3259
1.15519,2.1163,-0.162541,1.01918,-1.63967,1.57026,1.3776,-0.353622,1.53797,1.52783,0.999956,-1.55097e-05,0.000162565,0.00933557,0,0,0,0,0,0,0,0,0,0,0,0,0,0,0,0,0,0.00413912,0.00413912,0,0,0,0,0,0,0,0,0,0.00300773,2.3628,27.3259
1.15519,2.1163,-0.162524,1.01918,-1.63967,1.57026,1.3776,-0.353621,1.53796,1.52785,0.999956,-8.60951e-06,0.000167634,0.00933549,0,0,0,0,0,0,0,0,0,0,0,0,0,0,0,0,0,0.00413912,0.00413912,0,0,0,0,0,0,0,0,0,0.00300773,2.3628,27.3259
1.15519,2.1163,-0.162516,1.01918,-1.63967,1.57026,1.3776,-0.35362,1.53796,1.52786,0.999956,-5.58027e-06,0.000169832,0.00933546,0,0,0,0,0,0,0,0,0,0,0,0,0,0,0,0,0,0.00413912,0.00413912,0,0,0,0,0,0,0,0,0,0.00300773,2.3628,27.3259

1.13585,2.13574,-0.150177,1.02143,-1.6551,1.57045,1.3579,-0.3,1.55,1.5422,1,-0.000398251,7.65303e-08,-0.000199053,0,0,0,0,0,0,0,0,0,0,0,0,0,0,0,0,0,1.1732,1.1732,0,0,0,0,0,0,0,0,0,0.00359929,2.34879,27.2736
1.13784,2.13809,-0.147826,1.02144,-1.65746,1.57045,1.35753,-0.300007,1.54977,1.5447,1,-0.000398257,7.09431e-08,-0.000199057,0,0,0,0,0,0,0,0,0,0,0,0,0,0,0,0,0,1.1732,1.1732,0,0,0,0,0,0,0,0,0,0.00359929,2.34879,27.2736
1.13982,2.14045,-0.145476,1.02146,-1.65982,1.57045,1.35716,-0.300013,1.54953,1.54721,1,-0.00039826,6.68837e-08,-0.00019906,0,0,0,0,0,0,0,0,0,0,0,0,0,0,0,0,0,1.1732,1.1732,0,0,0,0,0,0,0,0,0,0.00359929,2.34879,27.2736
1.14181,2.14281,-0.143126,1.02147,-1.66218,1.57046,1.35679,-0.300016,1.54929,1.54971,1,-0.000398258,6.43491e-08,-0.000199063,0,0,0,0,0,0,0,0,0,0,0,0,0,0,0,0,0,1.1732,1.1732,0,0,0,0,0,0,0,0,0,0.00359929,2.34879,27.2736
1.14379,2.14516,-0.140775,1.02148,-1.66455,1.57046,1.35642,-0.300018,1.54903,1.55221,1,-0.000398253,6.33329e-08,-0.000199066,0,0,0,0,0,0,0,0,0,0,0,0,0,0,0,0,0,1.1732,1.1732,0,0,0,0,0,0,0,0,0,0.00359929,2.34879,27.2736
1.14577,2.14752,-0.138425,1.02149,-1.66691,1.57046,1.35604,-0.300018,1.54877,1.5547,1,-0.000398243,6.38231e-08,-0.000199069,0,0,0,0,0,0,0,0,0,0,0,0,0,0,0,0,0,1.1732,1.1732,0,0,0,0,0,0,0,0,0,0.00359929,2.34879,27.2736
1.14776,2.14987,-0.136075,1.0215,-1.66927,1.57047,1.35567,-0.300016,1.54851,1.55719,1,-0.000398229,6.58051e-08,-0.000199072,0,0,0,0,0,0,0,0,0,0,0,0,0,0,0,0,0,1.1732,1.1732,0,0,0,0,0,0,0,0,0,0.00359929,2.34879,27.2736
1.14974,2.15223,-0.133725,1.02152,-1.67163,1.57047,1.3553,-0.300013,1.54823,1.55969,1,-0.000398212,6.92695e-08,-0.000199075,0,0,0,0,0,0,0,0,0,0,0,0,0,0,0,0,0,1.1732,1.1732,0,0,0,0,0,0,0,0,0,0.00359929,2.34879,27.2736
1.15172,2.15458,-0.131374,1.02153,-1.67399,1.57048,1.35493,-0.300007,1.54795,1.56217,1,-0.00039819,7.42308e-08,-0.000199079,0,0,0,0,0,0,0,0,0,0,0,0,0,0,0,0,0,1.1732,1.1732,0,0,0,0,0,0,0,0,0,0.00359929,2.34879,27.2736
1.15371,2.15694,-0.129024,1.02154,-1.67635,1.57048,1.35456,-0.3,1.54766,1.56466,1,-0.000398164,8.07344e-08,-0.000199082,0,0,0,0,0,0,0,0,0,0,0,0,0,0,0,0,0,1.1732,1.1732,0,0,0,0,0,0,0,0,0,0.00359929,2.34879,27.2736
1.15402,2.1527,-0.132314,1.02144,-1.6725,1.57047,1.35701,-0.305875,1.54678,1.56118,1,-0.000204713,0.000124552,0.000848409,0,0,0,0,0,0,0,0,0,0,0,0,0,0,0,0,0,1.1732,1.1732,0,0,0,0,0,0,0,0,0,0.00359929,2.34879,27.2736
1.15433,2.14846,-0.13561,1.02133,-1.66865,1.57047,1.35947,-0.311745,1.54586,1.55769,0.999998,-1.66381e-05,0.000247398,0.0018955,0,0,0,0,0,0,0,0,0,0,0,0,0,0,0,0,0,1.1732,1.1732,0,0,0,0,0,0,0,0,0,0.00359929,2.34879,27.2736
1.15464,2.14422,-0.138919,1.02121,-1.6648,1.57046,1.36192,-0.317608,1.5449,1.55418,0.999996,0.000162106,0.000365922,0.00294213,0,0,0,0,0,0,0,0,0,0,0,0,0,0,0,0,0,1.1732,1.1732,0,0,0,0,0,0,0,0,0,0.00359929,2.34879,27.2736
1.15495,2.13998,-0.142245,1.02109,-1.66095,1.57045,1.36438,-0.323464,1.54391,1.55063,0.999992,0.000328635,0.000478069,0.00398831,0,0,0,0,0,0,0,0,0,0,0,0,0,0,0,0,0,1.1732,1.1732,0,0,0,0,0,0,0,0,0,0.00359929,2.34879,27.2736
1.15525,2.13574,-0.145589,1.02095,-1.6571,1.57045,1.36683,-0.329316,1.54287,1.54705,0.999987,0.000481363,0.000582739,0.00503506,0,0,0,0,0,0,0,0,0,0,0,0,0,0,0,0,0,1.1732,1.1732,0,0,0,0,0,0,0,0,0,0.00359929,2.34879,27.2736
1.15557,2.1315,-0.148953,1.02081,-1.65325,1.57044,1.36928,-0.335163,1.54178,1.54343,0.999981,0.00062029,0.000679821,0.00608283,0,0,0,0,0,0,0,0,0,0,0,0,0,0,0,0,0,1.1732,1.1732,0,0,0,0,0,0,0,0,0,0.00359929,2.34879,27.2736
1.15588,2.12726,-0.152336,1.02065,-1.6494,1.57043,1.37174,-0.341006,1.54066,1.53978,0.999974,0.000746168,0.000769641,0.00713142,0,0,0,0,0,0,0,0,0,0,0,0,0,0,0,0,0,1.1732,1.1732,0,0,0,0,0,0,0,0,0,0.00359929,2.34879,27.2736
1.15619,2.12303,-0.155732,1.02049,-1.64556,1.57043,1.37419,-0.34684,1.5395,1.5361,0.999966,0.000861978,0.000853905,0.00817989,0,0,0,0,0,0,0,0,0,0,0,0,0,0,0,0,0,1.1732,1.1732,0,0,0,0,0,0,0,0,0,0.00359929,2.34879,27.2736
1.1565,2.11879,-0.159135,1.02032,-1.64171,1.57042,1.37665,-0.352666,1.53829,1.53241,0.999957,0.000972372,0.000935637,0.00922787,0,0,0,0,0,0,0,0,0,0,0,0,0,0,0,0,0,1.1732,1.1732,0,0,0,0,0,0,0,0,0,0.00359929,2.34879,27.2736
1.15704,2.11455,-0.164682,1.01891,-1.63808,1.57041,1.3791,-0.358731,1.53682,1.52529,0.999946,-0.000398158,-4.11152e-06,0.0103904,0,0,0,0,0,0,0,0,0,0,0,0,0,0,0,0,0,1.1732,1.1732,0,0,0,0,0,0,0,0,0,0.00359929,2.34879,27.2736
1.15522,2.11585,-0.162334,1.02006,-1.6382,1.57008,1.379,-0.354491,1.53827,1.52885,0.99996,0.00108961,0.0008144,0.00888135,0,0,0,0,0,0,0,0,0,0,0,0,0,0,0,0,0,1.1732,1.1732,0,0,0,0,0,0,0,0,0,0.00359929,2.34879,27.2736
1.15527,2.11581,-0.16226,1.0201,-1.63819,1.57009,1.379,-0.354605,1.53824,1.52897,0.999959,0.00113799,0.000855379,0.00892195,0,0,0,0,0,0,0,0,0,0,0,0,0,0,0,0,0,1.1732,1.1732,0,0,0,0,0,0,0,0,0,0.00359929,2.34879,27.2736
1.15531,2.11578,-0.162188,1.02015,-1.63818,1.5701,1.379,-0.354716,1.5382,1.52909,0.999959,0.00118477,0.000895014,0.00896127,0,0,0,0,0,0,0,0,0,0,0,0,0,0,0,0,0,1.1732,1.1732,0,0,0,0,0,0,0,0,0,0.00359929,2.34879,27.2736
1.15536,2.11575,-0.162121,1.02019,-1.63818,1.57011,1.379,-0.35482,1.53817,1.5292,0.999958,0.00122839,0.000932008,0.00899808,0,0,0,0,0,0,0,0,0,0,0,0,0,0,0,0,0,1.1732,1.1732,0,0,0,0,0,0,0,0,0,0.00359929,2.34879,27.2736
1.15539,2.11572,-0.162061,1.02023,-1.63817,1.57012,1.379,-0.354913,1.53815,1.52929,0.999958,0.00126745,0.000965182,0.00903126,0,0,0,0,0,0,0,0,0,0,0,0,0,0,0,0,0,1.1732,1.1732,0,0,0,0,0,0,0,0,0,0.00359929,2.34879,27.2736
1.15543,2.11569,-0.162009,1.02026,-1.63817,1.57013,1.379,-0.354993,1.53813,1.52938,0.999958,0.00130075,0.000993507,0.00905982,0,0,0,0,0,0,0,0,0,0,0,0,0,0,0,0,0,1.1732,1.1732,0,0,0,0,0,0,0,0,0,0.00359929,2.34879,27.2736
1.15545,2.11567,-0.161967,1.02028,-1.63817,1.57014,1.379,-0.355058,1.53811,1.52945,0.999957,0.00132726,0.00101614,0.00908292,0,0,0,0,0,0,0,0,0,0,0,0,0,0,0,0,0,1.1732,1.1732,0,0,0,0,0,0,0,0,0,0.00359929,2.34879,27.2736
1.15547,2.11566,-0.161936,1.0203,-1.63817,1.57014,1.379,-0.355106,1.53809,1.5295,0.999957,0.00134635,0.0010325,0.00909992,0,0,0,0,0,0,0,0,0,0,0,0,0,0,0,0,0,1.1732,1.1732,0,0,0,0,0,0,0,0,0,0.00359929,2.34879,27.2736
1.15548,2.11565,-0.161917,1.02032,-1.63817,1.57015,1.379,-0.355135,1.53808,1.52953,0.999957,0.00135803,0.00104253,0.00911035,0,0,0,0,0,0,0,0,0,0,0,0,0,0,0,0,0,1.1732,1.1732,0,0,0,0,0,0,0,0,0,0.00359929,2.34879,27.2736
1.15549,2.11565,-0.161911,1.02032,-1.63817,1.57015,1.379,-0.355145,1.53808,1.52954,0.999957,0.00136203,0.00104595,0.00911393,0,0,0,0,0,0,0,0,0,0,0,0,0,0,0,0,0,1.1732,1.1732,0,0,0,0,0,0,0,0,0,0.00359929,2.34879,27.2736

1.13585,2.13574,-0.150177,1.02143,-1.6551,1.57045,1.3579,-0.3,1.55,1.5422,1,-0.000398251,7.65303e-08,-0.000199053,0,0,0,0,0,0,0,0,0,0,0,0,0,0,0,0,0,3.72647,3.72647,0,0,0,0,0,0,0,0,0,0.00537846,2.32794,27.1961
1.13805,2.13834,-0.147576,1.02144,-1.65771,1.57045,1.35749,-0.300009,1.54974,1.54497,1,-0.000398261,6.92841e-08,-0.000199056,0,0,0,0,0,0,0,0,0,0,0,0,0,0,0,0,0,3.72647,3.72647,0,0,0,0,0,0,0,0,0,0.00537846,2.32794,27.1961
1.14024,2.14095,-0.144976,1.02146,-1.66032,1.57045,1.35708,-0.300016,1.54948,1.54774,1,-0.000398267,6.39149e-08,-0.00019906,0,0,0,0,0,0,0,0,0,0,0,0,0,0,0,0,0,3.72647,3.72647,0,0,0,0,0,0,0,0,0,0.00537846,2.32794,27.1961
1.14244,2.14356,-0.142376,1.02147,-1.66293,1.57046,1.35667,-0.30002,1.54921,1.5505,1,-0.000398267,6.04296e-08,-0.000199063,0,0,0,0,0,0,0,0,0,0,0,0,0,0,0,0,0,3.72647,3.72647,0,0,0,0,0,0,0,0,0,0.00537846,2.32794,27.1961
1.14463,2.14616,-0.139775,1.02148,-1.66555,1.57046,1.35626,-0.300022,1.54892,1.55327,1,-0.000398262,5.88352e-08,-0.000199066,0,0,0,0,0,0,0,0,0,0,0,0,0,0,0,0,0,3.72647,3.72647,0,0,0,0,0,0,0,0,0,0.00537846,2.32794,27.1961
1.14683,2.14877,-0.137175,1.02149,-1.66816,1.57047,1.35585,-0.300022,1.54863,1.55602,1,-0.000398253,5.91387e-08,-0.000199069,0,0,0,0,0,0,0,0,0,0,0,0,0,0,0,0,0,3.72647,3.72647,0,0,0,0,0,0,0,0,0,0.00537846,2.32794,27.1961
1.14902,2.15137,-0.134575,1.0215,-1.67077,1.57047,1.35544,-0.30002,1.54833,1.55878,1,-0.000398238,6.1347e-08,-0.000199072,0,0,0,0,0,0,0,0,0,0,0,0,0,0,0,0,0,3.72647,3.72647,0,0,0,0,0,0,0,0,0,0.00537846,2.32794,27.1961
1.15122,2.15398,-0.131975,1.02152,-1.67338,1.57047,1.35503,-0.300015,1.54802,1.56153,1,-0.000398218,6.5467e-08,-0.000199075,0,0,0,0,0,0,0,0,0,0,0,0,0,0,0,0,0,3.72647,3.72647,0,0,0,0,0,0,0,0,0,0.00537846,2.32794,27.1961
1.15341,2.15658,-0.129374,1.02153,-1.67599,1.57048,1.35462,-0.300008,1.5477,1.56428,1,-0.000398193,7.15057e-08,-0.000199078,0,0,0,0,0,0,0,0,0,0,0,0,0,0,0,0,0,3.72647,3.72647,0,0,0,0,0,0,0,0,0,0.00537846,2.32794,27.1961
1.15561,2.15919,-0.126774,1.02154,-1.6786,1.57048,1.35421,-0.299999,1.54737,1.56703,1,-0.000398163,7.947e-08,-0.000199081,0,0,0,0,0,0,0,0,0,0,0,0,0,0,0,0,0,3.72647,3.72647,0,0,0,0,0,0,0,0,0,0.00537846,2.32794,27.1961
1.15546,2.1549,-0.130113,1.02167,-1.67425,1.57023,1.35692,-0.305273,1.54684,1.56372,1,0.000149152,0.000204014,0.000513881,0,0,0,0,0,0,0,0,0,0,0,0,0,0,0,0,0,3.72647,3.72647,0,0,0,0,0,0,0,0,0,0.00537846,2.32794,27.1961
1.15532,2.15062,-0.133451,1.0218,-1.6699,1.56997,1.35964,-0.310545,1.54627,1.5604,0.999999,0.000695044,0.000411655,0.00122644,0,0,0,0,0,0,0,0,0,0,0,0,0,0,0,0,0,3.72647,3.72647,0,0,0,0,0,0,0,0,0,0.00537846,2.32794,27.1961
1.15517,2.14633,-0.13679,1.02192,-1.66555,1.56971,1.36235,-0.315812,1.54567,1.55708,0.999997,0.00123954,0.000622991,0.0019383,0,0,0,0,0,0,0,0,0,0,0,0,0,0,0,0,0,3.72647,3.72647,0,0,0,0,0,0,0,0,0,0.00537846,2.32794,27.1961
1.15503,2.14205,-0.140129,1.02205,-1.6612,1.56946,1.36507,-0.321075,1.54503,1.55375,0.999995,0.00178254,0.000837854,0.00264891,0,0,0,0,0,0,0,0,0,0,0,0,0,0,0,0,0,3.72647,3.72647,0,0,0,0,0,0,0,0,0,0.00537846,2.32794,27.1961
1.15488,2.13776,-0.143467,1.02218,-1.65685,1.5692,1.36778,-0.326332,1.54436,1.55042,0.999991,0.00232438,0.00105652,0.00335846,0,0,0,0,0,0,0,0,0,0,0,0,0,0,0,0,0,3.72647,3.72647,0,0,0,0,0,0,0,0,0,0.00537846,2.32794,27.1961
1.15473,2.13348,-0.146805,1.02231,-1.6525,1.56894,1.37049,-0.331583,1.54365,1.54708,0.999987,0.00286513,0.00127905,0.00406702,0,0,0,0,0,0,0,0,0,0,0,0,0,0,0,0,0,3.72647,3.72647,0,0,0,0,0,0,0,0,0,0.00537846,2.32794,27.1961
1.15458,2.1292,-0.150143,1.02243,-1.64815,1.56869,1.37321,-0.336829,1.54291,1.54374,0.999982,0.00340466,0.00150535,0.00477447,0,0,0,0,0,0,0,0,0,0,0,0,0,0,0,0,0,3.72647,3.72647,0,0,0,0,0,0,0,0,0,0.00537846,2.32794,27.1961
1.15443,2.12492,-0.153482,1.02256,-1.6438,1.56843,1.37592,-0.342068,1.54213,1.5404,0.999976,0.00394255,0.00173507,0.00548039,0,0,0,0,0,0,0,0,0,0,0,0,0,0,0,0,0,3.72647,3.72647,0,0,0,0,0,0,0,0,0,0.00537846,2.32794,27.1961
1.15427,2.12064,-0.156685,1.02269,-1.63944,1.56817,1.37864,-0.347289,1.54131,1.53721,0.999969,0.00453473,0.00200634,0.00618385,0,0,0,0,0,0,0,0,0,0,0,0,0,0,0,0,0,3.72647,3.72647,0,0,0,0,0,0,0,0,0,0.00537846,2.32794,27.1961
1.15929,2.1123,-0.166882,1.01895,-1.6359,1.57041,1.38135,-0.365079,1.53547,1.52297,0.999934,-0.000389418,1.4795e-06,0.0115153,0,0,0,0,0,0,0,0,0,0,0,0,0,0,0,0,0,3.72647,3.72647,0,0,0,0,0,0,0,0,0,0.00537846,2.32794,27.1961
1.15426,2.11609,-0.159882,1.02242,-1.63592,1.56783,1.38125,-0.352789,1.53999,1.53366,0.999962,0.00464643,0.0019008,0.00714332,0,0,0,0,0,0,0,0,0,0,0,0,0,0,0,0,0,3.72647,3.72647,0,0,0,0,0,0,0,0,0,0.00537846,2.32794,27.1961
1.15433,2.11604,-0.16001,1.02235,-1.63594,1.56784,1.38125,-0.352951,1.53992,1.53345,0.999962,0.00455341,0.00184786,0.00720477,0,0,0,0,0,0,0,0,0,0,0,0,0,0,0,0,0,3.72647,3.72647,0,0,0,0,0,0,0,0,0,0.00537846,2.32794,27.1961
1.15439,2.116,-0.160001,1.02236,-1.63593,1.56786,1.38125,-0.353101,1.53988,1.53347,0.999962,0.00455774,0.0018608,0.00725947,0,0,0,0,0,0,0,0,0,0,0,0,0,0,0,0,0,3.72647,3.72647,0,0,0,0,0,0,0,0,0,0.00537846,2.32794,27.1961
1.15445,2.11595,-0.159993,1.02237,-1.63593,1.56787,1.38125,-0.353232,1.53983,1.53349,0.999961,0.00456152,0.00187216,0.00730752,0,0,0,0,0,0,0,0,0,0,0,0,0,0,0,0,0,3.72647,3.72647,0,0,0,0,0,0,0,0,0,0.00537846,2.32794,27.1961
1.15449,2.11592,-0.159986,1.02237,-1.63593,1.56788,1.38125,-0.353345,1.5398,1.5335,0.999961,0.00456476,0.00188186,0.00734858,0,0,0,0,0,0,0,0,0,0,0,0,0,0,0,0,0,3.72647,3.72647,0,0,0,0,0,0,0,0,0,0.00537846,2.32794,27.1961
1.15453,2.11589,-0.159981,1.02238,-1.63592,1.56789,1.38125,-0.353437,1.53977,1.53351,0.999961,0.00456745,0.00188985,0.00738232,0,0,0,0,0,0,0,0,0,0,0,0,0,0,0,0,0,3.72647,3.72647,0,0,0,0,0,0,0,0,0,0.00537846,2.32794,27.1961
1.15456,2.11587,-0.159976,1.02238,-1.63592,1.5679,1.38125,-0.35351,1.53974,1.53352,0.99996,0.00456957,0.0018961,0.00740866,0,0,0,0,0,0,0,0,0,0,0,0,0,0,0,0,0,3.72647,3.72647,0,0,0,0,0,0,0,0,0,0.00537846,2.32794,27.1961
1.15458,2.11585,-0.159973,1.02239,-1.63592,1.56791,1.38125,-0.353561,1.53973,1.53352,0.99996,0.00457108,0.00190057,0.00742754,0,0,0,0,0,0,0,0,0,0,0,0,0,0,0,0,0,3.72647,3.72647,0,0,0,0,0,0,0,0,0,0.00537846,2.32794,27.1961
1.15459,2.11584,-0.159971,1.02239,-1.63592,1.56791,1.38125,-0.353593,1.53972,1.53353,0.99996,0.00457199,0.00190326,0.00743894,0,0,0,0,0,0,0,0,0,0,0,0,0,0,0,0,0,3.72647,3.72647,0,0,0,0,0,0,0,0,0,0.00537846,2.32794,27.1961
1.1546,2.11584,-0.159971,1.02239,-1.63592,1.56791,1.38125,-0.353603,1.53971,1.53353,0.99996,0.00457227,0.00190414,0.00744283,0,0,0,0,0,0,0,0,0,0,0,0,0,0,0,0,0,3.72647,3.72647,0,0,0,0,0,0,0,0,0,0.00537846,2.32794,27.1961

1.13585,2.13574,-0.150177,1.02143,-1.6551,1.57045,1.3579,-0.3,1.55,1.5422,1,-0.000398251,7.65304e-08,-0.000199053,0,0,0,0,0,0,0,0,0,0,0,0,0,0,0,0,0,1.11026,1.11026,0,0,0,0,0,0,0,0,0,0.0063952,2.29685,27.1316
1.13837,2.13872,-0.147202,1.02144,-1.65809,1.57045,1.35743,-0.300011,1.54971,1.54537,1,-0.000398452,-5.90504e-08,-0.000199102,0,0,0,0,0,0,0,0,0,0,0,0,0,0,0,0,0,1.11026,1.11026,0,0,0,0,0,0,0,0,0,0.0063952,2.29685,27.1316
1.14088,2.1417,-0.144226,1.02146,-1.66107,1.57046,1.35697,-0.30002,1.5494,1.54853,1,-0.00039863,-1.80082e-07,-0.000199144,0,0,0,0,0,0,0,0,0,0,0,0,0,0,0,0,0,1.11026,1.11026,0,0,0,0,0,0,0,0,0,0.0063952,2.29685,27.1316
1.14339,2.14468,-0.141251,1.02147,-1.66406,1.57046,1.3565,-0.300025,1.54908,1.55169,1,-0.00039876,-2.69517e-07,-0.000199175,0,0,0,0,0,0,0,0,0,0,0,0,0,0,0,0,0,1.11026,1.11026,0,0,0,0,0,0,0,0,0,0.0063952,2.29685,27.1316
1.1459,2.14766,-0.138276,1.02148,-1.66705,1.57046,1.35603,-0.300028,1.54875,1.55485,1,-0.000398824,-3.16492e-07,-0.00019919,0,0,0,0,0,0,0,0,0,0,0,0,0,0,0,0,0,1.11026,1.11026,0,0,0,0,0,0,0,0,0,0.0063952,2.29685,27.1316
1.14841,2.15064,-0.135301,1.02149,-1.67003,1.57047,1.35556,-0.300028,1.54841,1.55801,1,-0.000398815,-3.15754e-07,-0.000199191,0,0,0,0,0,0,0,0,0,0,0,0,0,0,0,0,0,1.11026,1.11026,0,0,0,0,0,0,0,0,0,0.0063952,2.29685,27.1316
1.15093,2.15362,-0.132326,1.0215,-1.67302,1.57047,1.35509,-0.300025,1.54806,1.56116,1,-0.000398732,-2.66971e-07,-0.000199177,0,0,0,0,0,0,0,0,0,0,0,0,0,0,0,0,0,1.11026,1.11026,0,0,0,0,0,0,0,0,0,0.0063952,2.29685,27.1316
1.15344,2.1566,-0.12935,1.02152,-1.676,1.57048,1.35462,-0.300019,1.5477,1.5643,1,-0.000398583,-1.76941e-07,-0.000199152,0,0,0,0,0,0,0,0,0,0,0,0,0,0,0,0,0,1.11026,1.11026,0,0,0,0,0,0,0,0,0,0.0063952,2.29685,27.1316
1.15595,2.15958,-0.126375,1.02153,-1.67899,1.57048,1.35415,-0.30001,1.54732,1.56745,1,-0.000398386,-5.6493e-08,-0.000199119,0,0,0,0,0,0,0,0,0,0,0,0,0,0,0,0,0,1.11026,1.11026,0,0,0,0,0,0,0,0,0,0.0063952,2.29685,27.1316
1.15846,2.16256,-0.123399,1.02154,-1.68198,1.57049,1.35368,-0.299998,1.54693,1.57059,1,-0.000398159,8.09551e-08,-0.000199082,0,0,0,0,0,0,0,0,0,0,0,0,0,0,0,0,0,1.11026,1.11026,0,0,0,0,0,0,0,0,0,0.0063952,2.29685,27.1316
1.15837,2.15753,-0.127415,1.02129,-1.6775,1.57048,1.35679,-0.306245,1.54602,1.56624,1,-0.000307051,5.87087e-05,0.000720774,0,0,0,0,0,0,0,0,0,0,0,0,0,0,0,0,0,1.11026,1.11026,0,0,0,0,0,0,0,0,0,0.0063952,2.29685,27.1316
1.15828,2.1525,-0.131429,1.02104,-1.67301,1.57047,1.35989,-0.312486,1.54506,1.56189,0.999999,-0.000215668,0.000118536,0.00164073,0,0,0,0,0,0,0,0,0,0,0,0,0,0,0,0,0,1.11026,1.11026,0,0,0,0,0,0,0,0,0,0.0063952,2.29685,27.1316
1.15819,2.14746,-0.135443,1.02079,-1.66853,1.57047,1.363,-0.31872,1.54404,1.55753,0.999997,-0.000123469,0.000179886,0.00256073,0,0,0,0,0,0,0,0,0,0,0,0,0,0,0,0,0,1.11026,1.11026,0,0,0,0,0,0,0,0,0,0.0063952,2.29685,27.1316
1.1581,2.14243,-0.139455,1.02054,-1.66405,1.57046,1.3661,-0.324947,1.54298,1.55317,0.999994,-3.0242e-05,0.000242909,0.0034808,0,0,0,0,0,0,0,0,0,0,0,0,0,0,0,0,0,1.11026,1.11026,0,0,0,0,0,0,0,0,0,0.0063952,2.29685,27.1316
1.15801,2.13739,-0.143467,1.02029,-1.65956,1.57045,1.36921,-0.331164,1.54186,1.54881,0.99999,6.3976e-05,0.000307497,0.00440045,0,0,0,0,0,0,0,0,0,0,0,0,0,0,0,0,0,1.11026,1.11026,0,0,0,0,0,0,0,0,0,0.0063952,2.29685,27.1316
1.15792,2.13236,-0.147477,1.02005,-1.65507,1.57044,1.37231,-0.337373,1.5407,1.54444,0.999986,0.000159252,0.000373654,0.00531949,0,0,0,0,0,0,0,0,0,0,0,0,0,0,0,0,0,1.11026,1.11026,0,0,0,0,0,0,0,0,0,0.0063952,2.29685,27.1316
1.15783,2.12733,-0.151487,1.0198,-1.65058,1.57043,1.37542,-0.34357,1.53948,1.54006,0.99998,0.000255825,0.000441522,0.00623783,0,0,0,0,0,0,0,0,0,0,0,0,0,0,0,0,0,1.11026,1.11026,0,0,0,0,0,0,0,0,0,0.0063952,2.29685,27.1316
1.15774,2.1223,-0.155495,1.01956,-1.64609,1.57042,1.37852,-0.349757,1.53822,1.53568,0.999974,0.00035395,0.000511315,0.00715559,0,0,0,0,0,0,0,0,0,0,0,0,0,0,0,0,0,1.11026,1.11026,0,0,0,0,0,0,0,0,0,0.0063952,2.29685,27.1316
1.15765,2.11726,-0.159501,1.01932,-1.6416,1.57041,1.38162,-0.355934,1.5369,1.5313,0.999967,0.000452886,0.000582674,0.00807317,0,0,0,0,0,0,0,0,0,0,0,0,0,0,0,0,0,1.11026,1.11026,0,0,0,0,0,0,0,0,0,0.0063952,2.29685,27.1316
1.16267,2.10892,-0.163507,1.01676,-1.63711,1.5704,1.38473,-0.373097,1.53132,1.52533,0.999913,-0.000398084,-5.38261e-06,0.0132036,0,0,0,0,0,0,0,0,0,0,0,0,0,0,0,0,0,1.11026,1.11026,0,0,0,0,0,0,0,0,0,0.0063952,2.29685,27.1316
1.15764,2.11272,-0.156511,1.0258,-1.63255,1.5712,1.38463,-0.363268,1.53757,1.54039,0.999911,0.00782237,0.00620455,0.00884097,0,0,0,0,0,0,0,0,0,0,0,0,0,0,0,0,0,1.11026,1.11026,0,0,0,0,0,0,0,0,0,0.0063952,2.29685,27.1316
1.15761,2.11274,-0.156635,1.02573,-1.63256,1.57119,1.38463,-0.363198,1.53759,1.5402,0.999912,0.00774038,0.00614122,0.00881759,0,0,0,0,0,0,0,0,0,0,0,0,0,0,0,0,0,1.11026,1.11026,0,0,0,0,0,0,0,0,0,0.0063952,2.29685,27.1316
1.15758,2.11276,-0.156729,1.02567,-1.63257,1.57118,1.38463,-0.363131,1.53761,1.54005,0.999913,0.00767941,0.00609267,0.00879467,0,0,0,0,0,0,0,0,0,0,0,0,0,0,0,0,0,1.11026,1.11026,0,0,0,0,0,0,0,0,0,0.0063952,2.29685,27.1316
1.15756,2.11278,-0.15682,1.02562,-1.63258,1.57117,1.38462,-0.363067,1.53762,1.5399,0.999914,0.00762106,0.00604627,0.00877302,0,0,0,0,0,0,0,0,0,0,0,0,0,0,0,0,0,1.11026,1.11026,0,0,0,0,0,0,0,0,0,0.0063952,2.29685,27.1316
1.15754,2.1128,-0.156903,1.02557,-1.63258,1.57116,1.38462,-0.363009,1.53764,1.53977,0.999915,0.00756779,0.00600396,0.00875343,0,0,0,0,0,0,0,0,0,0,0,0,0,0,0,0,0,1.11026,1.11026,0,0,0,0,0,0,0,0,0,0.0063952,2.29685,27.1316
1.15752,2.11281,-0.156974,1.02553,-1.63259,1.57116,1.38462,-0.36296,1.53765,1.53966,0.999916,0.00752163,0.00596732,0.00873654,0,0,0,0,0,0,0,0,0,0,0,0,0,0,0,0,0,1.11026,1.11026,0,0,0,0,0,0,0,0,0,0.0063952,2.29685,27.1316
1.1575,2.11283,-0.157033,1.0255,-1.63259,1.57115,1.38462,-0.36292,1.53766,1.53956,0.999916,0.00748417,0.0059376,0.00872289,0,0,0,0,0,0,0,0,0,0,0,0,0,0,0,0,0,1.11026,1.11026,0,0,0,0,0,0,0,0,0,0.0063952,2.29685,27.1316
1.15749,2.11283,-0.157075,1.02548,-1.6326,1.57115,1.38462,-0.36289,1.53767,1.5395,0.999917,0.00745661,0.00591574,0.00871286,0,0,0,0,0,0,0,0,0,0,0,0,0,0,0,0,0,1.11026,1.11026,0,0,0,0,0,0,0,0,0,0.0063952,2.29685,27.1316
1.15748,2.11284,-0.157102,1.02546,-1.6326,1.57114,1.38462,-0.362872,1.53768,1.53945,0.999917,0.00743971,0.00590234,0.00870672,0,0,0,0,0,0,0,0,0,0,0,0,0,0,0,0,0,1.11026,1.11026,0,0,0,0,0,0,0,0,0,0.0063952,2.29685,27.1316
1.15748,2.11284,-0.157111,1.02546,-1.6326,1.57114,1.38462,-0.362866,1.53768,1.53944,0.999917,0.00743393,0.00589775,0.00870462,0,0,0,0,0,0,0,0,0,0,0,0,0,0,0,0,0,1.11026,1.11026,0,0,0,0,0,0,0,0,0,0.0063952,2.29685,27.1316

1.13585,2.13574,-0.150177,1.02143,-1.6551,1.57045,1.3579,-0.3,1.55,1.5422,1,-0.000398251,7.65303e-08,-0.000199053,0,0,0,0,0,0,0,0,0,0,0,0,0,0,0,0,0,1.17624,1.17624,0,0,0,0,0,0,0,0,0,0.00803469,2.25059,27.001
1.13884,2.13928,-0.146639,1.02144,-1.65865,1.57045,1.35735,-0.300016,1.54965,1.54597,1,-0.000398299,4.89246e-08,-0.000199061,0,0,0,0,0,0,0,0,0,0,0,0,0,0,0,0,0,1.17624,1.17624,0,0,0,0,0,0,0,0,0,0.00803469,2.25059,27.001
1.14183,2.14282,-0.143101,1.02146,-1.6622,1.57046,1.35679,-0.300028,1.54928,1.54973,1,-0.000398336,2.6229e-08,-0.000199069,0,0,0,0,0,0,0,0,0,0,0,0,0,0,0,0,0,1.17624,1.17624,0,0,0,0,0,0,0,0,0,0.00803469,2.25059,27.001
1.14482,2.14637,-0.139563,1.02147,-1.66575,1.57046,1.35624,-0.300036,1.5489,1.55348,1,-0.000398359,1.046e-08,-0.000199075,0,0,0,0,0,0,0,0,0,0,0,0,0,0,0,0,0,1.17624,1.17624,0,0,0,0,0,0,0,0,0,0.00803469,2.25059,27.001
1.14781,2.14991,-0.136026,1.02148,-1.6693,1.57047,1.35568,-0.300039,1.54849,1.55723,1,-0.000398366,2.92433e-09,-0.000199079,0,0,0,0,0,0,0,0,0,0,0,0,0,0,0,0,0,1.17624,1.17624,0,0,0,0,0,0,0,0,0,0.00803469,2.25059,27.001
1.15079,2.15345,-0.132488,1.02149,-1.67284,1.57047,1.35513,-0.300039,1.54808,1.56098,1,-0.000398356,4.24787e-09,-0.000199081,0,0,0,0,0,0,0,0,0,0,0,0,0,0,0,0,0,1.17624,1.17624,0,0,0,0,0,0,0,0,0,0.00803469,2.25059,27.001
1.15378,2.157,-0.12895,1.02151,-1.67639,1.57048,1.35457,-0.300034,1.54764,1.56472,1,-0.000398328,1.44368e-08,-0.000199082,0,0,0,0,0,0,0,0,0,0,0,0,0,0,0,0,0,1.17624,1.17624,0,0,0,0,0,0,0,0,0,0.00803469,2.25059,27.001
1.15677,2.16054,-0.125412,1.02152,-1.67994,1.57048,1.35402,-0.300026,1.54719,1.56845,1,-0.000398284,3.28151e-08,-0.000199082,0,0,0,0,0,0,0,0,0,0,0,0,0,0,0,0,0,1.17624,1.17624,0,0,0,0,0,0,0,0,0,0.00803469,2.25059,27.001
1.15976,2.16408,-0.121874,1.02153,-1.68349,1.57049,1.35346,-0.300013,1.54672,1.57218,1,-0.000398226,5.81506e-08,-0.00019908,0,0,0,0,0,0,0,0,0,0,0,0,0,0,0,0,0,1.17624,1.17624,0,0,0,0,0,0,0,0,0,0.00803469,2.25059,27.001
1.16274,2.16763,-0.118337,1.02154,-1.68704,1.5705,1.3529,-0.299996,1.54624,1.57591,1,-0.000398156,8.82702e-08,-0.000199078,0,0,0,0,0,0,0,0,0,0,0,0,0,0,0,0,0,1.17624,1.17624,0,0,0,0,0,0,0,0,0,0.00803469,2.25059,27.001
1.16274,2.16147,-0.122352,1.02103,-1.68175,1.57045,1.35659,-0.30767,1.54493,1.57148,0.999999,-6.8371e-05,0.000192518,0.00103329,0,0,0,0,0,0,0,0,0,0,0,0,0,0,0,0,0,1.17624,1.17624,0,0,0,0,0,0,0,0,0,0.00803469,2.25059,27.001
1.16274,2.15531,-0.126367,1.02052,-1.67646,1.57041,1.36028,-0.315335,1.54355,1.56706,0.999997,0.00025983,0.000388388,0.00226563,0,0,0,0,0,0,0,0,0,0,0,0,0,0,0,0,0,1.17624,1.17624,0,0,0,0,0,0,0,0,0,0.00803469,2.25059,27.001
1.16273,2.14915,-0.130381,1.02,-1.67117,1.57037,1.36397,-0.322991,1.5421,1.56262,0.999994,0.000586402,0.000587672,0.00349796,0,0,0,0,0,0,0,0,0,0,0,0,0,0,0,0,0,1.17624,1.17624,0,0,0,0,0,0,0,0,0,0.00803469,2.25059,27.001
1.16273,2.143,-0.134395,1.01949,-1.66588,1.57033,1.36766,-0.330638,1.54059,1.55818,0.999988,0.000911222,0.00079031,0.00473039,0,0,0,0,0,0,0,0,0,0,0,0,0,0,0,0,0,1.17624,1.17624,0,0,0,0,0,0,0,0,0,0.00803469,2.25059,27.001
1.16272,2.13684,-0.138409,1.01898,-1.66059,1.57028,1.37135,-0.338275,1.539,1.55373,0.999981,0.00123417,0.000996211,0.00596299,0,0,0,0,0,0,0,0,0,0,0,0,0,0,0,0,0,1.17624,1.17624,0,0,0,0,0,0,0,0,0,0.00803469,2.25059,27.001
1.16272,2.13068,-0.142424,1.01847,-1.65531,1.57024,1.37504,-0.345902,1.53734,1.54928,0.999972,0.00155512,0.00120523,0.00719567,0,0,0,0,0,0,0,0,0,0,0,0,0,0,0,0,0,1.17624,1.17624,0,0,0,0,0,0,0,0,0,0.00803469,2.25059,27.001
1.16271,2.12452,-0.146439,1.01797,-1.65002,1.5702,1.37872,-0.353517,1.53561,1.54482,0.999962,0.00187496,0.00141787,0.00842824,0,0,0,0,0,0,0,0,0,0,0,0,0,0,0,0,0,1.17624,1.17624,0,0,0,0,0,0,0,0,0,0.00803469,2.25059,27.001
1.16271,2.11836,-0.150448,1.01747,-1.64474,1.57015,1.38241,-0.361119,1.53381,1.54037,0.99995,0.00219785,0.00163689,0.00966064,0,0,0,0,0,0,0,0,0,0,0,0,0,0,0,0,0,1.17624,1.17624,0,0,0,0,0,0,0,0,0,0.00803469,2.25059,27.001
1.16271,2.1122,-0.154438,1.01699,-1.63945,1.57011,1.3861,-0.368717,1.53195,1.53595,0.999936,0.00253373,0.00186978,0.0108954,0,0,0,0,0,0,0,0,0,0,0,0,0,0,0,0,0,1.17624,1.17624,0,0,0,0,0,0,0,0,0,0.00803469,2.25059,27.001
1.16773,2.10386,-0.160882,1.0117,-1.63467,1.5704,1.38979,-0.38566,1.52586,1.52524,0.999876,-0.000398222,-6.37688e-06,0.0157322,0,0,0,0,0,0,0,0,0,0,0,0,0,0,0,0,0,1.17624,1.17624,0,0,0,0,0,0,0,0,0,0.00803469,2.25059,27.001
1.1627,2.10766,-0.160781,1.02073,-1.63465,1.5704,1.38969,-0.375356,1.53182,1.53158,0.999926,0.00333727,0.00263948,0.0113691,0,0,0,0,0,0,0,0,0,0,0,0,0,0,0,0,0,1.17624,1.17624,0,0,0,0,0,0,0,0,0,0.00803469,2.25059,27.001
1.16267,2.10768,-0.160672,1.0208,-1.63464,1.57041,1.38969,-0.3753,1.53185,1.53175,0.999926,0.00341174,0.0026956,0.0113458,0,0,0,0,0,0,0,0,0,0,0,0,0,0,0,0,0,1.17624,1.17624,0,0,0,0,0,0,0,0,0,0.00803469,2.25059,27.001
1.16265,2.1077,-0.160561,1.02086,-1.63463,1.57041,1.38969,-0.375245,1.53188,1.53193,0.999926,0.0034865,0.00275196,0.0113229,0,0,0,0,0,0,0,0,0,0,0,0,0,0,0,0,0,1.17624,1.17624,0,0,0,0,0,0,0,0,0,0.00803469,2.25059,27.001
1.16262,2.10772,-0.160455,1.02092,-1.63462,1.57042,1.38969,-0.375192,1.5319,1.5321,0.999926,0.00355613,0.00280437,0.0113013,0,0,0,0,0,0,0,0,0,0,0,0,0,0,0,0,0,1.17624,1.17624,0,0,0,0,0,0,0,0,0,0.00803469,2.25059,27.001
1.1626,2.10774,-0.160359,1.02097,-1.63461,1.57042,1.38969,-0.375144,1.53192,1.53225,0.999926,0.0036192,0.00285173,0.0112818,0,0,0,0,0,0,0,0,0,0,0,0,0,0,0,0,0,1.17624,1.17624,0,0,0,0,0,0,0,0,0,0.00803469,2.25059,27.001
1.16258,2.10775,-0.160277,1.02102,-1.6346,1.57043,1.38969,-0.375103,1.53194,1.53238,0.999926,0.00367316,0.00289226,0.0112649,0,0,0,0,0,0,0,0,0,0,0,0,0,0,0,0,0,1.17624,1.17624,0,0,0,0,0,0,0,0,0,0.00803469,2.25059,27.001
1.16256,2.10776,-0.16021,1.02105,-1.6346,1.57043,1.38968,-0.37507,1.53196,1.53248,0.999926,0.00371656,0.00292485,0.0112513,0,0,0,0,0,0,0,0,0,0,0,0,0,0,0,0,0,1.17624,1.17624,0,0,0,0,0,0,0,0,0,0.00803469,2.25059,27.001
1.16255,2.10777,-0.160162,1.02108,-1.63459,1.57043,1.38968,-0.375045,1.53197,1.53256,0.999925,0.00374839,0.00294877,0.0112413,0,0,0,0,0,0,0,0,0,0,0,0,0,0,0,0,0,1.17624,1.17624,0,0,0,0,0,0,0,0,0,0.00803469,2.25059,27.001
1.16255,2.10778,-0.160132,1.0211,-1.63459,1.57043,1.38968,-0.37503,1.53198,1.53261,0.999925,0.00376792,0.00296344,0.0112352,0,0,0,0,0,0,0,0,0,0,0,0,0,0,0,0,0,1.17624,1.17624,0,0,0,0,0,0,0,0,0,0.00803469,2.25059,27.001
1.16254,2.10778,-0.160122,1.0211,-1.63459,1.57043,1.38968,-0.375025,1.53198,1.53262,0.999925,0.00377463,0.00296848,0.0112331,0,0,0,0,0,0,0,0,0,0,0,0,0,0,0,0,0,1.17624,1.17624,0,0,0,0,0,0,0,0,0,0.00803469,2.25059,27.001

1.13585,2.13574,-0.150177,1.02143,-1.6551,1.57045,1.3579,-0.3,1.55,1.5422,1,-0.000398251,7.65303e-08,-0.000199053,0,0,0,0,0,0,0,0,0,0,0,0,0,0,0,0,0,0.0279863,0.0279866,0,0,0,0,0,0,0,0,0,0.0112933,2.18211,26.819
1.13956,2.14013,-0.145795,1.02144,-1.65949,1.57045,1.35722,-0.300024,1.54956,1.54686,1,-0.000398321,4.09596e-08,-0.000199061,0,0,0,0,0,0,0,0,0,0,0,0,0,0,0,0,0,0.0279863,0.0279866,0,0,0,0,0,0,0,0,0,0.0112933,2.18211,26.819
1.14326,2.14451,-0.141414,1.02146,-1.66388,1.57046,1.35653,-0.300042,1.5491,1.55152,1,-0.000398375,1.23646e-08,-0.000199067,0,0,0,0,0,0,0,0,0,0,0,0,0,0,0,0,0,0.0279863,0.0279866,0,0,0,0,0,0,0,0,0,0.0112933,2.18211,26.819
1.14696,2.1489,-0.137032,1.02147,-1.66828,1.57047,1.35585,-0.300054,1.54861,1.55616,1,-0.000398408,-6.9788e-09,-0.000199073,0,0,0,0,0,0,0,0,0,0,0,0,0,0,0,0,0,0.0279863,0.0279866,0,0,0,0,0,0,0,0,0,0.0112933,2.18211,26.819
1.15066,2.15329,-0.132651,1.02148,-1.67267,1.57047,1.35517,-0.300059,1.54809,1.5608,1,-0.00039842,-1.57123e-08,-0.000199076,0,0,0,0,0,0,0,0,0,0,0,0,0,0,0,0,0,0.0279863,0.0279866,0,0,0,0,0,0,0,0,0,0.0112933,2.18211,26.819
1.15437,2.15767,-0.128269,1.02149,-1.67706,1.57048,1.35448,-0.300058,1.54755,1.56543,1,-0.000398409,-1.30523e-08,-0.000199078,0,0,0,0,0,0,0,0,0,0,0,0,0,0,0,0,0,0.0279863,0.0279866,0,0,0,0,0,0,0,0,0,0.0112933,2.18211,26.819
1.15807,2.16206,-0.123887,1.02151,-1.68146,1.57049,1.3538,-0.30005,1.54698,1.57005,1,-0.000398375,7.55201e-10,-0.000199078,0,0,0,0,0,0,0,0,0,0,0,0,0,0,0,0,0,0.0279863,0.0279866,0,0,0,0,0,0,0,0,0,0.0112933,2.18211,26.819
1.16177,2.16645,-0.119506,1.02152,-1.68585,1.57049,1.35311,-0.300037,1.54639,1.57467,1,-0.000398319,2.4759e-08,-0.000199077,0,0,0,0,0,0,0,0,0,0,0,0,0,0,0,0,0,0.0279863,0.0279866,0,0,0,0,0,0,0,0,0,0.0112933,2.18211,26.819
1.16548,2.17083,-0.115124,1.02153,-1.69024,1.5705,1.35243,-0.300017,1.54577,1.57927,1,-0.000398245,5.74481e-08,-0.000199075,0,0,0,0,0,0,0,0,0,0,0,0,0,0,0,0,0,0.0279863,0.0279866,0,0,0,0,0,0,0,0,0,0.0112933,2.18211,26.819
1.16918,2.17522,-0.110743,1.02154,-1.69463,1.57051,1.35174,-0.299991,1.54513,1.58387,1,-0.000398154,9.71546e-08,-0.000199073,0,0,0,0,0,0,0,0,0,0,0,0,0,0,0,0,0,0.0279863,0.0279866,0,0,0,0,0,0,0,0,0,0.0112933,2.18211,26.819
1.1693,2.16737,-0.11506,1.02021,-1.68842,1.57049,1.35631,-0.309743,1.54311,1.57865,0.999999,-0.000159187,0.000149626,0.00150379,0,0,0,0,0,0,0,0,0,0,0,0,0,0,0,0,0,0.0279863,0.0279866,0,0,0,0,0,0,0,0,0,0.0112933,2.18211,26.819
1.16943,2.15953,-0.119378,1.01887,-1.6822,1.57047,1.36087,-0.319479,1.54097,1.57342,0.999995,7.65845e-05,0.000301302,0.0032067,0,0,0,0,0,0,0,0,0,0,0,0,0,0,0,0,0,0.0279863,0.0279866,0,0,0,0,0,0,0,0,0,0.0112933,2.18211,26.819
1.16955,2.15168,-0.123701,1.01752,-1.67598,1.57045,1.36544,-0.329198,1.53873,1.56818,0.999988,0.000307632,0.000454118,0.00490988,0,0,0,0,0,0,0,0,0,0,0,0,0,0,0,0,0,0.0279863,0.0279866,0,0,0,0,0,0,0,0,0,0.0112933,2.18211,26.819
1.16968,2.14384,-0.12803,1.01618,-1.66976,1.57043,1.37,-0.338898,1.53637,1.56292,0.999978,0.000532829,0.000607261,0.00661346,0,0,0,0,0,0,0,0,0,0,0,0,0,0,0,0,0,0.0279863,0.0279866,0,0,0,0,0,0,0,0,0,0.0112933,2.18211,26.819
1.1698,2.13599,-0.132365,1.01483,-1.66355,1.57041,1.37456,-0.348578,1.53391,1.55764,0.999965,0.000751486,0.000760143,0.00831742,0,0,0,0,0,0,0,0,0,0,0,0,0,0,0,0,0,0.0279863,0.0279866,0,0,0,0,0,0,0,0,0,0.0112933,2.18211,26.819
1.16993,2.12814,-0.136706,1.01347,-1.65733,1.5704,1.37913,-0.358236,1.53133,1.55234,0.999949,0.000963883,0.000912778,0.0100214,0,0,0,0,0,0,0,0,0,0,0,0,0,0,0,0,0,0.0279863,0.0279866,0,0,0,0,0,0,0,0,0,0.0112933,2.18211,26.819
1.17005,2.1203,-0.141054,1.01212,-1.65112,1.57038,1.38369,-0.367869,1.52865,1.54702,0.99993,0.00117026,0.00106508,0.0117249,0,0,0,0,0,0,0,0,0,0,0,0,0,0,0,0,0,0.0279863,0.0279866,0,0,0,0,0,0,0,0,0,0.0112933,2.18211,26.819
1.17018,2.11245,-0.145406,1.01076,-1.6449,1.57036,1.38826,-0.377474,1.52586,1.54169,0.999908,0.00137189,0.00121777,0.0134276,0,0,0,0,0,0,0,0,0,0,0,0,0,0,0,0,0,0.0279863,0.0279866,0,0,0,0,0,0,0,0,0,0.0112933,2.18211,26.819
1.1703,2.10461,-0.14976,1.0094,-1.63869,1.57034,1.39282,-0.387053,1.52297,1.53634,0.999883,0.00157034,0.00137201,0.01513,0,0,0,0,0,0,0,0,0,0,0,0,0,0,0,0,0,0.0279863,0.0279866,0,0,0,0,0,0,0,0,0,0.0112933,2.18211,26.819
1.17532,2.09627,-0.155463,1.0041,-1.6325,1.57039,1.39739,-0.404022,1.51697,1.52669,0.999809,-0.000398068,-7.7545e-06,0.0195285,0,0,0,0,0,0,0,0,0,0,0,0,0,0,0,0,0,0.0279863,0.0279866,0,0,0,0,0,0,0,0,0,0.0112933,2.18211,26.819
1.17029,2.10006,-0.154721,1.01314,-1.63247,1.57036,1.39728,-0.393791,1.52303,1.53379,0.999875,0.00357919,0.0028589,0.0151654,0,0,0,0,0,0,0,0,0,0,0,0,0,0,0,0,0,0.0279863,0.0279866,0,0,0,0,0,0,0,0,0,0.0112933,2.18211,26.819
1.17022,2.10011,-0.154605,1.0132,-1.63247,1.57034,1.39728,-0.393625,1.52309,1.53397,0.999875,0.00365728,0.00290378,0.0151039,0,0,0,0,0,0,0,0,0,0,0,0,0,0,0,0,0,0.0279863,0.0279866,0,0,0,0,0,0,0,0,0,0.0112933,2.18211,26.819
1.17015,2.10017,-0.154492,1.01327,-1.63247,1.57032,1.39728,-0.393465,1.52316,1.53414,0.999876,0.00373312,0.00294739,0.0150443,0,0,0,0,0,0,0,0,0,0,0,0,0,0,0,0,0,0.0279863,0.0279866,0,0,0,0,0,0,0,0,0,0.0112933,2.18211,26.819
1.17008,2.10021,-0.154386,1.01332,-1.63248,1.57031,1.39728,-0.393314,1.52322,1.53431,0.999876,0.00380451,0.0029885,0.0149884,0,0,0,0,0,0,0,0,0,0,0,0,0,0,0,0,0,0.0279863,0.0279866,0,0,0,0,0,0,0,0,0,0.0112933,2.18211,26.819
1.17003,2.10026,-0.154291,1.01338,-1.63248,1.57029,1.39728,-0.393178,1.52327,1.53446,0.999876,0.00386909,0.00302569,0.0149378,0,0,0,0,0,0,0,0,0,0,0,0,0,0,0,0,0,0.0279863,0.0279866,0,0,0,0,0,0,0,0,0,0.0112933,2.18211,26.819
1.16997,2.10029,-0.154209,1.01342,-1.63248,1.57028,1.39728,-0.39306,1.52332,1.53459,0.999877,0.00392469,0.0030577,0.0148941,0,0,0,0,0,0,0,0,0,0,0,0,0,0,0,0,0,0.0279863,0.0279866,0,0,0,0,0,0,0,0,0,0.0112933,2.18211,26.819
1.16993,2.10032,-0.154142,1.01346,-1.63248,1.57027,1.39728,-0.392965,1.52335,1.53469,0.999877,0.00396969,0.00308358,0.0148587,0,0,0,0,0,0,0,0,0,0,0,0,0,0,0,0,0,0.0279863,0.0279866,0,0,0,0,0,0,0,0,0,0.0112933,2.18211,26.819
1.1699,2.10034,-0.154093,1.01349,-1.63248,1.57026,1.39728,-0.392894,1.52338,1.53477,0.999877,0.00400283,0.00310263,0.0148325,0,0,0,0,0,0,0,0,0,0,0,0,0,0,0,0,0,0.0279863,0.0279866,0,0,0,0,0,0,0,0,0,0.0112933,2.18211,26.819
1.16988,2.10036,-0.154062,1.0135,-1.63248,1.57026,1.39728,-0.392851,1.5234,1.53482,0.999877,0.00402321,0.00311434,0.0148165,0,0,0,0,0,0,0,0,0,0,0,0,0,0,0,0,0,0.0279863,0.0279866,0,0,0,0,0,0,0,0,0,0.0112933,2.18211,26.819
1.16988,2.10036,-0.154052,1.01351,-1.63248,1.57025,1.39728,-0.392836,1.52341,1.53483,0.999877,0.00403023,0.00311837,0.0148109,0,0,0,0,0,0,0,0,0,0,0,0,0,0,0,0,0,0.0279863,0.0279866,0,0,0,0,0,0,0,0,0,0.0112933,2.18211,26.819

1.13585,2.13574,-0.150177,1.02143,-1.6551,1.57045,1.3579,-0.3,1.55,1.5422,1,-0.000398251,7.65303e-08,-0.000199053,0,0,0,0,0,0,0,0,0,0,0,0,0,0,0,0,0,11.2772,11.2772,0,0,0,0,0,0,0,0,0,0.0314934,2.08141,26.4345
1.14063,2.14139,-0.144529,1.02144,-1.66076,1.57046,1.35703,-0.30004,1.54943,1.54821,1,-0.000398333,4.37605e-08,-0.000199055,0,0,0,0,0,0,0,0,0,0,0,0,0,0,0,0,0,11.2772,11.2772,0,0,0,0,0,0,0,0,0,0.0314934,2.08141,26.4345
1.14541,2.14704,-0.138882,1.02146,-1.66642,1.57046,1.35615,-0.300069,1.54881,1.5542,1,-0.000398392,1.9978e-08,-0.000199057,0,0,0,0,0,0,0,0,0,0,0,0,0,0,0,0,0,11.2772,11.2772,0,0,0,0,0,0,0,0,0,0.0314934,2.08141,26.4345
1.15019,2.1527,-0.133235,1.02147,-1.67207,1.57047,1.35528,-0.300087,1.54815,1.56018,1,-0.000398427,5.25468e-09,-0.000199058,0,0,0,0,0,0,0,0,0,0,0,0,0,0,0,0,0,11.2772,11.2772,0,0,0,0,0,0,0,0,0,0.0314934,2.08141,26.4345
1.15496,2.15835,-0.127588,1.02148,-1.67773,1.57048,1.3544,-0.300095,1.54746,1.56614,1,-0.000398438,-3.3724e-10,-0.00019906,0,0,0,0,0,0,0,0,0,0,0,0,0,0,0,0,0,11.2772,11.2772,0,0,0,0,0,0,0,0,0,0.0314934,2.08141,26.4345
1.15974,2.164,-0.121941,1.0215,-1.68339,1.57049,1.35353,-0.300092,1.54671,1.57209,1,-0.000398425,3.27404e-09,-0.000199061,0,0,0,0,0,0,0,0,0,0,0,0,0,0,0,0,0,11.2772,11.2772,0,0,0,0,0,0,0,0,0,0.0314934,2.08141,26.4345
1.16452,2.16965,-0.116294,1.02151,-1.68905,1.5705,1.35265,-0.300079,1.54593,1.57803,1,-0.000398389,1.61602e-08,-0.000199063,0,0,0,0,0,0,0,0,0,0,0,0,0,0,0,0,0,11.2772,11.2772,0,0,0,0,0,0,0,0,0,0.0314934,2.08141,26.4345
1.16929,2.17531,-0.110647,1.02152,-1.69471,1.57051,1.35177,-0.300056,1.5451,1.58396,1,-0.000398329,3.83929e-08,-0.000199064,0,0,0,0,0,0,0,0,0,0,0,0,0,0,0,0,0,11.2772,11.2772,0,0,0,0,0,0,0,0,0,0.0314934,2.08141,26.4345
1.17407,2.18096,-0.104999,1.02154,-1.70037,1.57052,1.3509,-0.300023,1.54423,1.58986,1,-0.000398245,7.00434e-08,-0.000199066,0,0,0,0,0,0,0,0,0,0,0,0,0,0,0,0,0,11.2772,11.2772,0,0,0,0,0,0,0,0,0,0.0314934,2.08141,26.4345
1.17885,2.18661,-0.0993522,1.02155,-1.70602,1.57053,1.35002,-0.299979,1.54332,1.59576,1,-0.000398138,1.11183e-07,-0.000199068,0,0,0,0,0,0,0,0,0,0,0,0,0,0,0,0,0,11.2772,11.2772,0,0,0,0,0,0,0,0,0,0.0314934,2.08141,26.4345
1.17916,2.17641,-0.103688,1.02146,-1.69728,1.57051,1.3559,-0.313097,1.54104,1.5917,0.999996,0.00142219,0.00117175,0.00212116,0,0,0,0,0,0,0,0,0,0,0,0,0,0,0,0,0,11.2772,11.2772,0,0,0,0,0,0,0,0,0,0.0314934,2.08141,26.4345
1.17948,2.16621,-0.108023,1.02138,-1.68853,1.57049,1.36177,-0.326206,1.53859,1.58763,0.999982,0.00322325,0.00237318,0.00444128,0,0,0,0,0,0,0,0,0,0,0,0,0,0,0,0,0,11.2772,11.2772,0,0,0,0,0,0,0,0,0,0.0314934,2.08141,26.4345
1.1798,2.15601,-0.112358,1.02129,-1.67978,1.57047,1.36765,-0.339304,1.53597,1.58356,0.999958,0.00500467,0.00360414,0.00676124,0,0,0,0,0,0,0,0,0,0,0,0,0,0,0,0,0,11.2772,11.2772,0,0,0,0,0,0,0,0,0,0.0314934,2.08141,26.4345
1.18011,2.14581,-0.116693,1.02121,-1.67103,1.57045,1.37352,-0.352389,1.53317,1.57949,0.999924,0.00676607,0.0048644,0.00908101,0,0,0,0,0,0,0,0,0,0,0,0,0,0,0,0,0,11.2772,11.2772,0,0,0,0,0,0,0,0,0,0.0314934,2.08141,26.4345
1.18043,2.13561,-0.121029,1.02113,-1.66229,1.57043,1.3794,-0.365459,1.5302,1.57542,0.99988,0.00850709,0.0061537,0.0114005,0,0,0,0,0,0,0,0,0,0,0,0,0,0,0,0,0,11.2772,11.2772,0,0,0,0,0,0,0,0,0,0.0314934,2.08141,26.4345
1.18075,2.12541,-0.125364,1.02104,-1.65354,1.57041,1.38528,-0.37851,1.52705,1.57134,0.999826,0.0102274,0.00747178,0.0137198,0,0,0,0,0,0,0,0,0,0,0,0,0,0,0,0,0,11.2772,11.2772,0,0,0,0,0,0,0,0,0,0.0314934,2.08141,26.4345
1.18106,2.11521,-0.129699,1.02096,-1.64479,1.57039,1.39115,-0.391541,1.52373,1.56727,0.999761,0.0119265,0.00881839,0.0160387,0,0,0,0,0,0,0,0,0,0,0,0,0,0,0,0,0,11.2772,11.2772,0,0,0,0,0,0,0,0,0,0.0314934,2.08141,26.4345
1.18138,2.10501,-0.134034,1.02087,-1.63604,1.57037,1.39703,-0.404548,1.52024,1.56319,0.999687,0.0136042,0.0101933,0.0183572,0,0,0,0,0,0,0,0,0,0,0,0,0,0,0,0,0,11.2772,11.2772,0,0,0,0,0,0,0,0,0,0.0314934,2.08141,26.4345
1.18169,2.09481,-0.13837,1.02079,-1.6273,1.57035,1.4029,-0.417531,1.51657,1.5591,0.999603,0.0152601,0.0115961,0.0206753,0,0,0,0,0,0,0,0,0,0,0,0,0,0,0,0,0,11.2772,11.2772,0,0,0,0,0,0,0,0,0,0.0314934,2.08141,26.4345
1.18671,2.08488,-0.161909,0.999155,-1.62111,1.57037,1.40878,-0.434664,1.50748,1.51698,0.999682,-0.000398016,-9.99846e-06,0.0252224,0,0,0,0,0,0,0,0,0,0,0,0,0,0,0,0,0,11.2772,11.2772,0,0,0,0,0,0,0,0,0,0.0314934,2.08141,26.4345
1.15953,2.09129,-0.14333,1.02453,-1.62108,1.55897,1.40867,-0.386783,1.52816,1.55664,0.999716,0.0207101,0.00838765,0.00834199,0,0,0,0,0,0,0,0,0,0,0,0,0,0,0,0,0,11.2772,11.2772,0,0,0,0,0,0,0,0,0,0.0314934,2.08141,26.4345
1.15953,2.09129,-0.14333,1.02453,-1.62108,1.55897,1.40867,-0.386783,1.52816,1.55664,0.999716,0.0207098,0.00838739,0.00834257,0,0,0,0,0,0,0,0,0,0,0,0,0,0,0,0,0,11.2772,11.2772,0,0,0,0,0,0,0,0,0,0.0314934,2.08141,26.4345
1.15953,2.09129,-0.14333,1.02453,-1.62108,1.55897,1.40867,-0.386783,1.52816,1.55664,0.999716,0.0207095,0.00838714,0.00834309,0,0,0,0,0,0,0,0,0,0,0,0,0,0,0,0,0,11.2772,11.2772,0,0,0,0,0,0,0,0,0,0.0314934,2.08141,26.4345
1.15953,2.09129,-0.14333,1.02453,-1.62108,1.55897,1.40867,-0.386783,1.52816,1.55664,0.999716,0.0207092,0.00838691,0.00834356,0,0,0,0,0,0,0,0,0,0,0,0,0,0,0,0,0,11.2772,11.2772,0,0,0,0,0,0,0,0,0,0.0314934,2.08141,26.4345
1.15953,2.09129,-0.14333,1.02453,-1.62109,1.55897,1.40867,-0.386783,1.52816,1.55664,0.999716,0.0207089,0.0083867,0.00834396,0,0,0,0,0,0,0,0,0,0,0,0,0,0,0,0,0,11.2772,11.2772,0,0,0,0,0,0,0,0,0,0.0314934,2.08141,26.4345
