jianye0428/UNICAR_TrajOpt/src/pick_and_place/config/csvfile_3_position/position1/file_output_pick.csv
shoulder_lift_joint,shoulder_pan_joint,elbow_joint,wrist_2_joint,wrist_1_joint,wrist_3_joint,drehkranz_joint,x,y,z,q_w,q_x,q_y,q_z,collision_1,collision_2,collision_3,collision_4,collision_5,collision_6,collision_7,collision_8,collision_9,collision_10,collision_11,collision_12,collision_13,collision_14,collision_15,collision_16,collision_17,collision_18,collision_19,collision_20,collision_21,collision_22,collision_23,collision_24,collision_25,collision_26,collision_27,collision_28,joint_velocity_cost,pose_10,pose_extra_19
0,0,0,0,0,0,0,-0.408996,0.478457,1.5421,0.500463,0.500298,-0.499138,0.500099
0,0,0,0,0,0,0,-0.408996,0.478457,1.5421,0.500463,0.500298,-0.499138,0.500099
0,0,0,0,0,0,0,-0.408996,0.478457,1.5421,0.500463,0.500298,-0.499138,0.500099
0,0,0,0,0,0,0,-0.408996,0.478457,1.5421,0.500463,0.500298,-0.499138,0.500099
0,0,0,0,0,0,0,-0.408996,0.478457,1.5421,0.500463,0.500298,-0.499138,0.500099
0,0,0,0,0,0,0,-0.408996,0.478457,1.5421,0.500463,0.500298,-0.499138,0.500099
0,0,0,0,0,0,0,-0.408996,0.478457,1.5421,0.500463,0.500298,-0.499138,0.500099
0,0,0,0,0,0,0,-0.408996,0.478457,1.5421,0.500463,0.500298,-0.499138,0.500099
0,0,0,0,0,0,0,-0.408996,0.478457,1.5421,0.500463,0.500298,-0.499138,0.500099
0,0,0,0,0,0,0,-0.408996,0.478457,1.5421,0.500463,0.500298,-0.499138,0.500099
0,0,0,0,0,0,0,-0.408996,0.478457,1.5421,0.500463,0.500298,-0.499138,0.500099
0,0,0,0,0,0,0,-0.408996,0.478457,1.5421,0.500463,0.500298,-0.499138,0.500099
0,0,0,0,0,0,0,-0.408996,0.478457,1.5421,0.500463,0.500298,-0.499138,0.500099
0,0,0,0,0,0,0,-0.408996,0.478457,1.5421,0.500463,0.500298,-0.499138,0.500099
0,0,0,0,0,0,0,-0.408996,0.478457,1.5421,0.500463,0.500298,-0.499138,0.500099
0,0,0,0,0,0,0,-0.408996,0.478457,1.5421,0.500463,0.500298,-0.499138,0.500099
0,0,0,0,0,0,0,-0.408996,0.478457,1.5421,0.500463,0.500298,-0.499138,0.500099
0,0,0,0,0,0,0,-0.408996,0.478457,1.5421,0.500463,0.500298,-0.499138,0.500099
0,0,0,0,0,0,0,-0.408996,0.478457,1.5421,0.500463,0.500298,-0.499138,0.500099
0,0,0,0,0,0,0,-0.408996,0.478457,1.5421,0.500463,0.500298,-0.499138,0.500099
0,0,0,0,0,0,0,-0.408996,0.478457,1.5421,0.500463,0.500298,-0.499138,0.500099
0,0,0,0,0,0,0,-0.408996,0.478457,1.5421,0.500463,0.500298,-0.499138,0.500099
0,0,0,0,0,0,0,-0.408996,0.478457,1.5421,0.500463,0.500298,-0.499138,0.500099
0,0,0,0,0,0,0,-0.408996,0.478457,1.5421,0.500463,0.500298,-0.499138,0.500099
0,0,0,0,0,0,0,-0.408996,0.478457,1.5421,0.500463,0.500298,-0.499138,0.500099
0,0,0,0,0,0,0,-0.408996,0.478457,1.5421,0.500463,0.500298,-0.499138,0.500099
0,0,0,0,0,0,0,-0.408996,0.478457,1.5421,0.500463,0.500298,-0.499138,0.500099
0,0,0,0,0,0,0,-0.408996,0.478457,1.5421,0.500463,0.500298,-0.499138,0.500099
0,0,0,0,0,0,0,-0.408996,0.478457,1.5421,0.500463,0.500298,-0.499138,0.500099
0,0,0,0,0,0,0,-0.408996,0.478457,1.5421,0.500463,0.500298,-0.499138,0.500099

-4.38722e-22,4.19166e-22,4.11776e-22,4.47573e-22,4.53443e-22,-5.60917e-22,4.71053e-22,-0.408996,0.478457,1.5421,0.500463,0.500298,-0.499138,0.500099,0,0,0,0,0,0,0,0,0,0,0,0,0,0,0,0,0,0,0,0,0,0,0,0,0,0,0,0,0.035,49.5825,48.5825
-0.01,0.01,0.01,0.01,0.01,-0.01,0.01,-0.398398,0.491638,1.55904,0.515245,0.505175,-0.497631,0.481335,0,0,0,0,0,0,0,0,0,0,0,0,0,0,0,0,0,0,0,0,0,0,0,0,0,0,0,0,0.035,49.5825,48.5825
-0.02,0.02,0.02,0.02,0.02,-0.02,0.02,-0.38709,0.504539,1.57588,0.529549,0.509848,-0.496059,0.462123,0,0,0,0,0,0,0,0,0,0,0,0,0,0,0,0,0,0,0,0,0,0,0,0,0,0,0,0,0.035,49.5825,48.5825
-0.03,0.03,0.03,0.03,0.03,-0.03,0.03,-0.375085,0.517129,1.59262,0.543363,0.514315,-0.494418,0.442479,0,0,0,0,0,0,0,0,0,0,0,0,0,0,0,0,0,0,0,0,0,0,0,0,0,0,0,0,0.035,49.5825,48.5825
-0.04,0.04,0.04,0.04,0.04,-0.04,0.04,-0.362399,0.529381,1.60923,0.556672,0.518577,-0.492704,0.422418,0,0,0,0,0,0,0,0,0,0,0,0,0,0,0,0,0,0,0,0,0,0,0,0,0,0,0,0,0.035,49.5825,48.5825
-0.05,0.05,0.05,0.05,0.05,-0.05,0.05,-0.349048,0.541264,1.62573,0.569464,0.522632,-0.490914,0.401958,0,0,0,0,0,0,0,0,0,0,0,0,0,0,0,0,0,0,0,0,0,0,0,0,0,0,0,0,0.035,49.5825,48.5825
-0.06,0.06,0.06,0.06,0.06,-0.06,0.06,-0.335051,0.552752,1.64208,0.581727,0.526481,-0.489045,0.381113,0,0,0,0,0,0,0,0,0,0,0,0,0,0,0,0,0,0,0,0,0,0,0,0,0,0,0,0,0.035,49.5825,48.5825
-0.07,0.07,0.07,0.07,0.07,-0.07,0.07,-0.320428,0.563817,1.65829,0.593448,0.530123,-0.487093,0.359902,0,0,0,0,0,0,0,0,0,0,0,0,0,0,0,0,0,0,0,0,0,0,0,0,0,0,0,0,0.035,49.5825,48.5825
-0.08,0.08,0.08,0.08,0.08,-0.08,0.08,-0.305198,0.574433,1.67433,0.604617,0.533559,-0.485055,0.338342,0,0,0,0,0,0,0,0,0,0,0,0,0,0,0,0,0,0,0,0,0,0,0,0,0,0,0,0,0.035,49.5825,48.5825
-0.09,0.09,0.09,0.09,0.09,-0.09,0.09,-0.289384,0.584575,1.69021,0.615222,0.536788,-0.482928,0.316451,0,0,0,0,0,0,0,0,0,0,0,0,0,0,0,0,0,0,0,0,0,0,0,0,0,0,0,0,0.035,49.5825,48.5825
-0.1,0.1,0.1,0.1,0.1,-0.1,0.1,-0.273009,0.594221,1.70592,0.625255,0.53981,-0.480708,0.294246,0,0,0,0,0,0,0,0,0,0,0,0,0,0,0,0,0,0,0,0,0,0,0,0,0,0,0,0,0.035,49.5825,48.5825
-0.1,0.1,0.1,0.1,0.1,-0.1,0.1,-0.273009,0.594221,1.70592,0.625255,0.53981,-0.480708,0.294246,0,0,0,0,0,0,0,0,0,0,0,0,0,0,0,0,0,0,0,0,0,0,0,0,0,0,0,0,0.035,49.5825,48.5825
-0.1,0.1,0.1,0.1,0.1,-0.1,0.1,-0.273009,0.594221,1.70592,0.625255,0.53981,-0.480708,0.294246,0,0,0,0,0,0,0,0,0,0,0,0,0,0,0,0,0,0,0,0,0,0,0,0,0,0,0,0,0.035,49.5825,48.5825
-0.1,0.1,0.1,0.1,0.1,-0.1,0.1,-0.273009,0.594221,1.70592,0.625255,0.53981,-0.480708,0.294246,0,0,0,0,0,0,0,0,0,0,0,0,0,0,0,0,0,0,0,0,0,0,0,0,0,0,0,0,0.035,49.5825,48.5825
-0.1,0.1,0.1,0.1,0.1,-0.1,0.1,-0.273009,0.594221,1.70592,0.625255,0.53981,-0.480708,0.294246,0,0,0,0,0,0,0,0,0,0,0,0,0,0,0,0,0,0,0,0,0,0,0,0,0,0,0,0,0.035,49.5825,48.5825
-0.1,0.1,0.1,0.1,0.1,-0.1,0.1,-0.273009,0.594221,1.70592,0.625255,0.53981,-0.480708,0.294246,0,0,0,0,0,0,0,0,0,0,0,0,0,0,0,0,0,0,0,0,0,0,0,0,0,0,0,0,0.035,49.5825,48.5825
-0.1,0.1,0.1,0.1,0.1,-0.1,0.1,-0.273009,0.594221,1.70592,0.625255,0.53981,-0.480708,0.294246,0,0,0,0,0,0,0,0,0,0,0,0,0,0,0,0,0,0,0,0,0,0,0,0,0,0,0,0,0.035,49.5825,48.5825
-0.1,0.1,0.1,0.1,0.1,-0.1,0.1,-0.273009,0.594221,1.70592,0.625255,0.53981,-0.480708,0.294246,0,0,0,0,0,0,0,0,0,0,0,0,0,0,0,0,0,0,0,0,0,0,0,0,0,0,0,0,0.035,49.5825,48.5825
-0.1,0.1,0.1,0.1,0.1,-0.1,0.1,-0.273009,0.594221,1.70592,0.625255,0.53981,-0.480708,0.294246,0,0,0,0,0,0,0,0,0,0,0,0,0,0,0,0,0,0,0,0,0,0,0,0,0,0,0,0,0.035,49.5825,48.5825
-0.1,0.1,0.1,0.1,0.1,-0.1,0.1,-0.273009,0.594221,1.70592,0.625255,0.53981,-0.480708,0.294246,0,0,0,0,0,0,0,0,0,0,0,0,0,0,0,0,0,0,0,0,0,0,0,0,0,0,0,0,0.035,49.5825,48.5825
-0.1,0.1,0.1,0.1,0.1,-0.1,0.1,-0.273009,0.594221,1.70592,0.625255,0.53981,-0.480708,0.294246,0,0,0,0,0,0,0,0,0,0,0,0,0,0,0,0,0,0,0,0,0,0,0,0,0,0,0,0,0.035,49.5825,48.5825
-0.1,0.1,0.1,0.1,0.1,-0.1,0.1,-0.273009,0.594221,1.70592,0.625255,0.53981,-0.480708,0.294246,0,0,0,0,0,0,0,0,0,0,0,0,0,0,0,0,0,0,0,0,0,0,0,0,0,0,0,0,0.035,49.5825,48.5825
-0.1,0.1,0.1,0.1,0.1,-0.1,0.1,-0.273009,0.594221,1.70592,0.625255,0.53981,-0.480708,0.294246,0,0,0,0,0,0,0,0,0,0,0,0,0,0,0,0,0,0,0,0,0,0,0,0,0,0,0,0,0.035,49.5825,48.5825
-0.1,0.1,0.1,0.1,0.1,-0.1,0.1,-0.273009,0.594221,1.70592,0.625255,0.53981,-0.480708,0.294246,0,0,0,0,0,0,0,0,0,0,0,0,0,0,0,0,0,0,0,0,0,0,0,0,0,0,0,0,0.035,49.5825,48.5825
-0.1,0.1,0.1,0.1,0.1,-0.1,0.1,-0.273009,0.594221,1.70592,0.625255,0.53981,-0.480708,0.294246,0,0,0,0,0,0,0,0,0,0,0,0,0,0,0,0,0,0,0,0,0,0,0,0,0,0,0,0,0.035,49.5825,48.5825
-0.1,0.1,0.1,0.1,0.1,-0.1,0.1,-0.273009,0.594221,1.70592,0.625255,0.53981,-0.480708,0.294246,0,0,0,0,0,0,0,0,0,0,0,0,0,0,0,0,0,0,0,0,0,0,0,0,0,0,0,0,0.035,49.5825,48.5825
-0.1,0.1,0.1,0.1,0.1,-0.1,0.1,-0.273009,0.594221,1.70592,0.625255,0.53981,-0.480708,0.294246,0,0,0,0,0,0,0,0,0,0,0,0,0,0,0,0,0,0,0,0,0,0,0,0,0,0,0,0,0.035,49.5825,48.5825
-0.1,0.1,0.1,0.1,0.1,-0.1,0.1,-0.273009,0.594221,1.70592,0.625255,0.53981,-0.480708,0.294246,0,0,0,0,0,0,0,0,0,0,0,0,0,0,0,0,0,0,0,0,0,0,0,0,0,0,0,0,0.035,49.5825,48.5825
-0.1,0.1,0.1,0.1,0.1,-0.1,0.1,-0.273009,0.594221,1.70592,0.625255,0.53981,-0.480708,0.294246,0,0,0,0,0,0,0,0,0,0,0,0,0,0,0,0,0,0,0,0,0,0,0,0,0,0,0,0,0.035,49.5825,48.5825
-0.1,0.1,0.1,0.1,0.1,-0.1,0.1,-0.273009,0.594221,1.70592,0.625255,0.53981,-0.480708,0.294246,0,0,0,0,0,0,0,0,0,0,0,0,0,0,0,0,0,0,0,0,0,0,0,0,0,0,0,0,0.035,49.5825,48.5825

-1.32841e-21,1.29888e-21,1.43856e-21,1.43357e-21,1.35769e-21,-9.93758e-22,1.37057e-21,-0.408996,0.478457,1.5421,0.500463,0.500298,-0.499138,0.500099,0,0,0,0,0,0,0,0,0,0,0,0,0,0,0,0,0,0,0,0,0,0,0,0,0,0,0,0,0.191383,37.098,38.098
-0.025,0.025,0.025,0.025,0.025,-0.00881248,0.025,-0.38485,0.511131,1.5811,0.536548,0.512426,-0.489564,0.458108,0,0,0,0,0,0,0,0,0,0,0,0,0,0,0,0,0,0,0,0,0,0,0,0,0,0,0,0,0.191383,37.098,38.098
-0.05,0.05,0.05,0.05,0.05,-0.017625,0.05,-0.356797,0.542353,1.61997,0.569608,0.523914,-0.479653,0.413515,0,0,0,0,0,0,0,0,0,0,0,0,0,0,0,0,0,0,0,0,0,0,0,0,0,0,0,0,0.191383,37.098,38.098
-0.075,0.075,0.075,0.075,0.075,-0.0264374,0.075,-0.324975,0.571727,1.65861,0.599453,0.534755,-0.469393,0.366556,0,0,0,0,0,0,0,0,0,0,0,0,0,0,0,0,0,0,0,0,0,0,0,0,0,0,0,0,0.191383,37.098,38.098
-0.1,0.1,0.1,0.1,0.1,-0.0352499,0.1,-0.289564,0.598876,1.69689,0.625916,0.544947,-0.458768,0.317481,0,0,0,0,0,0,0,0,0,0,0,0,0,0,0,0,0,0,0,0,0,0,0,0,0,0,0,0,0.191383,37.098,38.098
-0.125,0.125,0.125,0.125,0.125,-0.0440624,0.125,-0.250781,0.623444,1.73471,0.648847,0.554486,-0.447765,0.266551,0,0,0,0,0,0,0,0,0,0,0,0,0,0,0,0,0,0,0,0,0,0,0,0,0,0,0,0,0.191383,37.098,38.098
-0.15,0.15,0.15,0.15,0.15,-0.0528749,0.15,-0.20888,0.645096,1.77197,0.668116,0.563373,-0.436372,0.214038,0,0,0,0,0,0,0,0,0,0,0,0,0,0,0,0,0,0,0,0,0,0,0,0,0,0,0,0,0.191383,37.098,38.098
-0.175,0.175,0.175,0.175,0.175,-0.0616873,0.175,-0.164147,0.66353,1.80857,0.683614,0.571608,-0.424576,0.160222,0,0,0,0,0,0,0,0,0,0,0,0,0,0,0,0,0,0,0,0,0,0,0,0,0,0,0,0,0.191383,37.098,38.098
-0.2,0.2,0.2,0.2,0.2,-0.0704998,0.2,-0.116897,0.678471,1.84442,0.695254,0.579196,-0.412367,0.105393,0,0,0,0,0,0,0,0,0,0,0,0,0,0,0,0,0,0,0,0,0,0,0,0,0,0,0,0,0.191383,37.098,38.098
-0.225,0.225,0.225,0.225,0.225,-0.0793123,0.225,-0.0674718,0.68968,1.87944,0.702971,0.586141,-0.399732,0.0498439,0,0,0,0,0,0,0,0,0,0,0,0,0,0,0,0,0,0,0,0,0,0,0,0,0,0,0,0,0.191383,37.098,38.098
-0.25,0.25,0.25,0.25,0.25,-0.0881248,0.25,-0.0162329,0.696953,1.91355,0.706723,0.592449,-0.386664,-0.00612694,0,0,0,0,0,0,0,0,0,0,0,0,0,0,0,0,0,0,0,0,0,0,0,0,0,0,0,0,0.191383,37.098,38.098
-0.25,0.25,0.25,0.25,0.25,-0.0881248,0.25,-0.0162329,0.696953,1.91355,0.706723,0.592449,-0.386664,-0.00612694,0,0,0,0,0,0,0,0,0,0,0,0,0,0,0,0,0,0,0,0,0,0,0,0,0,0,0,0,0.191383,37.098,38.098
-0.25,0.25,0.25,0.25,0.25,-0.0881248,0.25,-0.0162329,0.696953,1.91355,0.706723,0.592449,-0.386664,-0.00612694,0,0,0,0,0,0,0,0,0,0,0,0,0,0,0,0,0,0,0,0,0,0,0,0,0,0,0,0,0.191383,37.098,38.098
-0.25,0.25,0.25,0.25,0.25,-0.0881248,0.25,-0.0162329,0.696953,1.91355,0.706723,0.592449,-0.386664,-0.00612694,0,0,0,0,0,0,0,0,0,0,0,0,0,0,0,0,0,0,0,0,0,0,0,0,0,0,0,0,0.191383,37.098,38.098
-0.25,0.25,0.25,0.25,0.25,-0.0881248,0.25,-0.0162329,0.696953,1.91355,0.706723,0.592449,-0.386664,-0.00612694,0,0,0,0,0,0,0,0,0,0,0,0,0,0,0,0,0,0,0,0,0,0,0,0,0,0,0,0,0.191383,37.098,38.098
-0.25,0.25,0.25,0.25,0.25,-0.0881248,0.25,-0.0162329,0.696953,1.91355,0.706723,0.592449,-0.386664,-0.00612694,0,0,0,0,0,0,0,0,0,0,0,0,0,0,0,0,0,0,0,0,0,0,0,0,0,0,0,0,0.191383,37.098,38.098
-0.25,0.25,0.25,0.25,0.25,-0.0881248,0.25,-0.0162329,0.696953,1.91355,0.706723,0.592449,-0.386664,-0.00612694,0,0,0,0,0,0,0,0,0,0,0,0,0,0,0,0,0,0,0,0,0,0,0,0,0,0,0,0,0.191383,37.098,38.098
-0.25,0.25,0.25,0.25,0.25,-0.0881248,0.25,-0.0162329,0.696953,1.91355,0.706723,0.592449,-0.386664,-0.00612694,0,0,0,0,0,0,0,0,0,0,0,0,0,0,0,0,0,0,0,0,0,0,0,0,0,0,0,0,0.191383,37.098,38.098
-0.25,0.25,0.25,0.25,0.25,-0.0881248,0.25,-0.0162329,0.696953,1.91355,0.706723,0.592449,-0.386664,-0.00612694,0,0,0,0,0,0,0,0,0,0,0,0,0,0,0,0,0,0,0,0,0,0,0,0,0,0,0,0,0.191383,37.098,38.098
-0.25,0.25,0.25,0.25,0.25,-0.0881248,0.25,-0.0162329,0.696953,1.91355,0.706723,0.592449,-0.386664,-0.00612694,0,0,0,0,0,0,0,0,0,0,0,0,0,0,0,0,0,0,0,0,0,0,0,0,0,0,0,0,0.191383,37.098,38.098
-0.25,0.25,0.25,0.25,0.25,-0.0881248,0.25,-0.0162329,0.696953,1.91355,0.706723,0.592449,-0.386664,-0.00612694,0,0,0,0,0,0,0,0,0,0,0,0,0,0,0,0,0,0,0,0,0,0,0,0,0,0,0,0,0.191383,37.098,38.098
-0.25,0.25,0.25,0.25,0.25,-0.0881248,0.25,-0.0162329,0.696953,1.91355,0.706723,0.592449,-0.386664,-0.00612694,0,0,0,0,0,0,0,0,0,0,0,0,0,0,0,0,0,0,0,0,0,0,0,0,0,0,0,0,0.191383,37.098,38.098
-0.25,0.25,0.25,0.25,0.25,-0.0881248,0.25,-0.0162329,0.696953,1.91355,0.706723,0.592449,-0.386664,-0.00612694,0,0,0,0,0,0,0,0,0,0,0,0,0,0,0,0,0,0,0,0,0,0,0,0,0,0,0,0,0.191383,37.098,38.098
-0.25,0.25,0.25,0.25,0.25,-0.0881248,0.25,-0.0162329,0.696953,1.91355,0.706723,0.592449,-0.386664,-0.00612694,0,0,0,0,0,0,0,0,0,0,0,0,0,0,0,0,0,0,0,0,0,0,0,0,0,0,0,0,0.191383,37.098,38.098
-0.25,0.25,0.25,0.25,0.25,-0.0881248,0.25,-0.0162329,0.696953,1.91355,0.706723,0.592449,-0.386664,-0.00612694,0,0,0,0,0,0,0,0,0,0,0,0,0,0,0,0,0,0,0,0,0,0,0,0,0,0,0,0,0.191383,37.098,38.098
-0.25,0.25,0.25,0.25,0.25,-0.0881248,0.25,-0.0162329,0.696953,1.91355,0.706723,0.592449,-0.386664,-0.00612694,0,0,0,0,0,0,0,0,0,0,0,0,0,0,0,0,0,0,0,0,0,0,0,0,0,0,0,0,0.191383,37.098,38.098
-0.25,0.25,0.25,0.25,0.25,-0.0881248,0.25,-0.0162329,0.696953,1.91355,0.706723,0.592449,-0.386664,-0.00612694,0,0,0,0,0,0,0,0,0,0,0,0,0,0,0,0,0,0,0,0,0,0,0,0,0,0,0,0,0.191383,37.098,38.098
-0.25,0.25,0.25,0.25,0.25,-0.0881248,0.25,-0.0162329,0.696953,1.91355,0.706723,0.592449,-0.386664,-0.00612694,0,0,0,0,0,0,0,0,0,0,0,0,0,0,0,0,0,0,0,0,0,0,0,0,0,0,0,0,0.191383,37.098,38.098
-0.25,0.25,0.25,0.25,0.25,-0.0881248,0.25,-0.0162329,0.696953,1.91355,0.706723,0.592449,-0.386664,-0.00612694,0,0,0,0,0,0,0,0,0,0,0,0,0,0,0,0,0,0,0,0,0,0,0,0,0,0,0,0,0.191383,37.098,38.098
-0.25,0.25,0.25,0.25,0.25,-0.0881248,0.25,-0.0162329,0.696953,1.91355,0.706723,0.592449,-0.386664,-0.00612694,0,0,0,0,0,0,0,0,0,0,0,0,0,0,0,0,0,0,0,0,0,0,0,0,0,0,0,0,0.191383,37.098,38.098

-2.7391e-21,2.68651e-21,1.82548e-21,1.65328e-22,2.21035e-21,7.38942e-22,1.62826e-22,-0.408996,0.478457,1.5421,0.500463,0.500298,-0.499138,0.500099,0,0,0,0,0,0,0,0,0,0,0,0,0,0,0,0,0,0,0,0,0,0,0,0,0,0,0,0,0.374602,32.7505,32.6794
-0.0475,0.0475,0.0321251,0.0025,0.0387753,0.0136875,0.0025,-0.357309,0.539039,1.57305,0.541377,0.495855,-0.499042,0.46043,0,0,0,0,0,0,0,0,0,0,0,0,0,0,0,0,0,0,0,0,0,0,0,0,0,0,0,0,0.374602,32.7505,32.6794
-0.095,0.095,0.0642503,0.005,0.0775506,0.027375,0.005,-0.29807,0.593811,1.604,0.578433,0.492142,-0.498975,0.417416,0,0,0,0,0,0,0,0,0,0,0,0,0,0,0,0,0,0,0,0,0,0,0,0,0,0,0,0,0.374602,32.7505,32.6794
-0.1425,0.1425,0.0963754,0.0075,0.116326,0.0410626,0.0075,-0.231934,0.641852,1.63493,0.611358,0.489144,-0.499034,0.37141,0,0,0,0,0,0,0,0,0,0,0,0,0,0,0,0,0,0,0,0,0,0,0,0,0,0,0,0,0.374602,32.7505,32.6794
-0.19,0.19,0.128501,0.01,0.155101,0.0547501,0.01,-0.159667,0.682315,1.66583,0.63991,0.486835,-0.499315,0.322788,0,0,0,0,0,0,0,0,0,0,0,0,0,0,0,0,0,0,0,0,0,0,0,0,0,0,0,0,0.374602,32.7505,32.6794
-0.2375,0.2375,0.160626,0.0125,0.193876,0.0684376,0.0125,-0.0821425,0.714441,1.69667,0.66388,0.485178,-0.49991,0.271946,0,0,0,0,0,0,0,0,0,0,0,0,0,0,0,0,0,0,0,0,0,0,0,0,0,0,0,0,0.374602,32.7505,32.6794
-0.285,0.285,0.192751,0.015,0.232652,0.0821251,0.015,-0.000325889,0.737568,1.72742,0.683098,0.484127,-0.500907,0.219297,0,0,0,0,0,0,0,0,0,0,0,0,0,0,0,0,0,0,0,0,0,0,0,0,0,0,0,0,0.374602,32.7505,32.6794
-0.3325,0.3325,0.224876,0.0175,0.271427,0.0958127,0.0175,0.0847318,0.751148,1.75804,0.697425,0.483624,-0.502387,0.165266,0,0,0,0,0,0,0,0,0,0,0,0,0,0,0,0,0,0,0,0,0,0,0,0,0,0,0,0,0.374602,32.7505,32.6794
-0.38,0.38,0.257001,0.02,0.310202,0.1095,0.02,0.171908,0.754753,1.7885,0.706765,0.483604,-0.504427,0.11029,0,0,0,0,0,0,0,0,0,0,0,0,0,0,0,0,0,0,0,0,0,0,0,0,0,0,0,0,0.374602,32.7505,32.6794
-0.4275,0.4275,0.289126,0.0225,0.348978,0.123188,0.0225,0.260024,0.748091,1.81876,0.711056,0.483994,-0.507095,0.0548091,0,0,0,0,0,0,0,0,0,0,0,0,0,0,0,0,0,0,0,0,0,0,0,0,0,0,0,0,0.374602,32.7505,32.6794
-0.475,0.475,0.321251,0.025,0.387753,0.136875,0.025,0.347857,0.731008,1.84878,0.710279,0.484711,-0.510449,-0.000729251,0,0,0,0,0,0,0,0,0,0,0,0,0,0,0,0,0,0,0,0,0,0,0,0,0,0,0,0,0.374602,32.7505,32.6794
-0.475,0.475,0.308332,0.025,0.397447,0.136875,0.0282239,0.345378,0.734436,1.83838,0.710434,0.484605,-0.510334,-0.000747706,0,0,0,0,0,0,0,0,0,0,0,0,0,0,0,0,0,0,0,0,0,0,0,0,0,0,0,0,0.374602,32.7505,32.6794
-0.475,0.475,0.295413,0.025,0.407141,0.136875,0.0314479,0.342976,0.737756,1.82792,0.710588,0.484499,-0.51022,-0.00076666,0,0,0,0,0,0,0,0,0,0,0,0,0,0,0,0,0,0,0,0,0,0,0,0,0,0,0,0,0.374602,32.7505,32.6794
-0.475,0.475,0.282494,0.025,0.416835,0.136875,0.0346718,0.340652,0.740967,1.81742,0.710743,0.484392,-0.510106,-0.000786113,0,0,0,0,0,0,0,0,0,0,0,0,0,0,0,0,0,0,0,0,0,0,0,0,0,0,0,0,0.374602,32.7505,32.6794
-0.475,0.475,0.269575,0.025,0.426529,0.136875,0.0378958,0.338407,0.744069,1.80687,0.710897,0.484285,-0.509993,-0.000806064,0,0,0,0,0,0,0,0,0,0,0,0,0,0,0,0,0,0,0,0,0,0,0,0,0,0,0,0,0.374602,32.7505,32.6794
-0.475,0.475,0.256656,0.025,0.436224,0.136875,0.0411197,0.33624,0.747061,1.79627,0.711052,0.484178,-0.509879,-0.000826513,0,0,0,0,0,0,0,0,0,0,0,0,0,0,0,0,0,0,0,0,0,0,0,0,0,0,0,0,0.374602,32.7505,32.6794
-0.475,0.475,0.243737,0.025,0.445918,0.136875,0.0443437,0.334152,0.749943,1.78563,0.711206,0.48407,-0.509766,-0.00084746,0,0,0,0,0,0,0,0,0,0,0,0,0,0,0,0,0,0,0,0,0,0,0,0,0,0,0,0,0.374602,32.7505,32.6794
-0.475,0.475,0.230818,0.025,0.455612,0.136875,0.0475676,0.332144,0.752714,1.77495,0.71136,0.483962,-0.509654,-0.000868904,0,0,0,0,0,0,0,0,0,0,0,0,0,0,0,0,0,0,0,0,0,0,0,0,0,0,0,0,0.374602,32.7505,32.6794
-0.475,0.475,0.217899,0.025,0.465306,0.136875,0.0507916,0.330216,0.755374,1.76423,0.711514,0.483853,-0.509542,-0.000890846,0,0,0,0,0,0,0,0,0,0,0,0,0,0,0,0,0,0,0,0,0,0,0,0,0,0,0,0,0.374602,32.7505,32.6794
-0.475,0.475,0.20498,0.025,0.475,0.136875,0.0540155,0.328367,0.757923,1.75347,0.711668,0.483744,-0.50943,-0.000913286,0,0,0,0,0,0,0,0,0,0,0,0,0,0,0,0,0,0,0,0,0,0,0,0,0,0,0,0,0.374602,32.7505,32.6794
-0.475,0.475,0.20498,0.025,0.475,0.136875,0.0540155,0.328367,0.757923,1.75347,0.711668,0.483744,-0.50943,-0.000913286,0,0,0,0,0,0,0,0,0,0,0,0,0,0,0,0,0,0,0,0,0,0,0,0,0,0,0,0,0.374602,32.7505,32.6794
-0.475,0.475,0.20498,0.025,0.475,0.136875,0.0540155,0.328367,0.757923,1.75347,0.711668,0.483744,-0.50943,-0.000913286,0,0,0,0,0,0,0,0,0,0,0,0,0,0,0,0,0,0,0,0,0,0,0,0,0,0,0,0,0.374602,32.7505,32.6794
-0.475,0.475,0.20498,0.025,0.475,0.136875,0.0540155,0.328367,0.757923,1.75347,0.711668,0.483744,-0.50943,-0.000913286,0,0,0,0,0,0,0,0,0,0,0,0,0,0,0,0,0,0,0,0,0,0,0,0,0,0,0,0,0.374602,32.7505,32.6794
-0.475,0.475,0.20498,0.025,0.475,0.136875,0.0540155,0.328367,0.757923,1.75347,0.711668,0.483744,-0.50943,-0.000913286,0,0,0,0,0,0,0,0,0,0,0,0,0,0,0,0,0,0,0,0,0,0,0,0,0,0,0,0,0.374602,32.7505,32.6794
-0.475,0.475,0.20498,0.025,0.475,0.136875,0.0540155,0.328367,0.757923,1.75347,0.711668,0.483744,-0.50943,-0.000913286,0,0,0,0,0,0,0,0,0,0,0,0,0,0,0,0,0,0,0,0,0,0,0,0,0,0,0,0,0.374602,32.7505,32.6794
-0.475,0.475,0.20498,0.025,0.475,0.136875,0.0540155,0.328367,0.757923,1.75347,0.711668,0.483744,-0.50943,-0.000913286,0,0,0,0,0,0,0,0,0,0,0,0,0,0,0,0,0,0,0,0,0,0,0,0,0,0,0,0,0.374602,32.7505,32.6794
-0.475,0.475,0.20498,0.025,0.475,0.136875,0.0540155,0.328367,0.757923,1.75347,0.711668,0.483744,-0.50943,-0.000913286,0,0,0,0,0,0,0,0,0,0,0,0,0,0,0,0,0,0,0,0,0,0,0,0,0,0,0,0,0.374602,32.7505,32.6794
-0.475,0.475,0.20498,0.025,0.475,0.136875,0.0540155,0.328367,0.757923,1.75347,0.711668,0.483744,-0.50943,-0.000913286,0,0,0,0,0,0,0,0,0,0,0,0,0,0,0,0,0,0,0,0,0,0,0,0,0,0,0,0,0.374602,32.7505,32.6794
-0.475,0.475,0.20498,0.025,0.475,0.136875,0.0540155,0.328367,0.757923,1.75347,0.711668,0.483744,-0.50943,-0.000913286,0,0,0,0,0,0,0,0,0,0,0,0,0,0,0,0,0,0,0,0,0,0,0,0,0,0,0,0,0.374602,32.7505,32.6794
-0.475,0.475,0.20498,0.025,0.475,0.136875,0.0540155,0.328367,0.757923,1.75347,0.711668,0.483744,-0.50943,-0.000913286,0,0,0,0,0,0,0,0,0,0,0,0,0,0,0,0,0,0,0,0,0,0,0,0,0,0,0,0,0.374602,32.7505,32.6794

-2.33184e-21,4.6573e-21,6.85607e-22,2.0802e-21,3.14306e-22,2.73116e-21,1.71057e-21,-0.408996,0.478457,1.5421,0.500463,0.500298,-0.499138,0.500099,0,0,0,0,0,0,0,0,0,0,0,0,0,0,0,0,0,0,0,0,0,0,0,0,0,0,0,0,0.651737,28.545,28.2721
-0.0393262,0.08125,0.0107267,0.03625,0.00502529,0.0474375,0.0313387,-0.366426,0.567726,1.56068,0.54945,0.491896,-0.491473,0.463246,0,0,0,0,0,0,0,0,0,0,0,0,0,0,0,0,0,0,0,0,0,0,0,0,0,0,0,0,0.651737,28.545,28.2721
-0.0786524,0.1625,0.0214534,0.0725,0.0100506,0.094875,0.0626774,-0.311317,0.652793,1.58096,0.594059,0.485413,-0.483594,0.421432,0,0,0,0,0,0,0,0,0,0,0,0,0,0,0,0,0,0,0,0,0,0,0,0,0,0,0,0,0.651737,28.545,28.2721
-0.117979,0.24375,0.03218,0.10875,0.0150759,0.142313,0.0940161,-0.244024,0.73199,1.60299,0.633777,0.480831,-0.475739,0.375234,0,0,0,0,0,0,0,0,0,0,0,0,0,0,0,0,0,0,0,0,0,0,0,0,0,0,0,0,0.651737,28.545,28.2721
-0.157305,0.325,0.0429067,0.145,0.0201012,0.18975,0.125355,-0.165125,0.803656,1.62677,0.668164,0.478107,-0.468145,0.325285,0,0,0,0,0,0,0,0,0,0,0,0,0,0,0,0,0,0,0,0,0,0,0,0,0,0,0,0,0.651737,28.545,28.2721
-0.196631,0.40625,0.0536334,0.18125,0.0251265,0.237188,0.156693,-0.0754381,0.866165,1.65231,0.696866,0.477173,-0.46104,0.272259,0,0,0,0,0,0,0,0,0,0,0,0,0,0,0,0,0,0,0,0,0,0,0,0,0,0,0,0,0.651737,28.545,28.2721
-0.235957,0.4875,0.0643601,0.2175,0.0301517,0.284625,0.188032,0.0239827,0.91796,1.6796,0.719613,0.477937,-0.454644,0.216868,0,0,0,0,0,0,0,0,0,0,0,0,0,0,0,0,0,0,0,0,0,0,0,0,0,0,0,0,0.651737,28.545,28.2721
-0.275283,0.56875,0.0750867,0.25375,0.035177,0.332063,0.219371,0.131842,0.957597,1.70863,0.736225,0.480283,-0.449166,0.159844,0,0,0,0,0,0,0,0,0,0,0,0,0,0,0,0,0,0,0,0,0,0,0,0,0,0,0,0,0.651737,28.545,28.2721
-0.31461,0.65,0.0858134,0.29,0.0402023,0.3795,0.25071,0.246615,0.983782,1.73934,0.746614,0.484078,-0.4448,0.101929,0,0,0,0,0,0,0,0,0,0,0,0,0,0,0,0,0,0,0,0,0,0,0,0,0,0,0,0,0.651737,28.545,28.2721
-0.353936,0.73125,0.0965401,0.32625,0.0452276,0.426938,0.282048,0.366561,0.995411,1.7717,0.750781,0.489163,-0.441726,0.0438684,0,0,0,0,0,0,0,0,0,0,0,0,0,0,0,0,0,0,0,0,0,0,0,0,0,0,0,0,0.651737,28.545,28.2721
-0.393262,0.8125,0.107267,0.3625,0.0502529,0.474375,0.313387,0.489745,0.991613,1.80562,0.748821,0.495366,-0.440106,-0.0136062,0,0,0,0,0,0,0,0,0,0,0,0,0,0,0,0,0,0,0,0,0,0,0,0,0,0,0,0,0.651737,28.545,28.2721
-0.394948,0.8125,0.0960899,0.3625,0.059947,0.474375,0.312853,0.490188,0.993951,1.79499,0.749039,0.494363,-0.440863,-0.0136003,0,0,0,0,0,0,0,0,0,0,0,0,0,0,0,0,0,0,0,0,0,0,0,0,0,0,0,0,0.651737,28.545,28.2721
-0.396633,0.8125,0.084913,0.3625,0.0696411,0.474375,0.312318,0.490682,0.996182,1.78432,0.749257,0.493358,-0.441618,-0.0135947,0,0,0,0,0,0,0,0,0,0,0,0,0,0,0,0,0,0,0,0,0,0,0,0,0,0,0,0,0.651737,28.545,28.2721
-0.398319,0.8125,0.0737362,0.3625,0.0793353,0.474375,0.311784,0.491227,0.998304,1.77362,0.749475,0.492352,-0.442371,-0.0135893,0,0,0,0,0,0,0,0,0,0,0,0,0,0,0,0,0,0,0,0,0,0,0,0,0,0,0,0,0.651737,28.545,28.2721
-0.400004,0.8125,0.0625593,0.3625,0.0890294,0.474375,0.311249,0.491821,1.00032,1.76288,0.749692,0.491345,-0.443122,-0.0135841,0,0,0,0,0,0,0,0,0,0,0,0,0,0,0,0,0,0,0,0,0,0,0,0,0,0,0,0,0.651737,28.545,28.2721
-0.40169,0.8125,0.0513824,0.3625,0.0987235,0.474375,0.310715,0.492464,1.00222,1.75211,0.749909,0.490336,-0.443871,-0.0135792,0,0,0,0,0,0,0,0,0,0,0,0,0,0,0,0,0,0,0,0,0,0,0,0,0,0,0,0,0.651737,28.545,28.2721
-0.403375,0.8125,0.0402056,0.3625,0.108418,0.474375,0.31018,0.493157,1.00401,1.74131,0.750126,0.489326,-0.444619,-0.0135745,0,0,0,0,0,0,0,0,0,0,0,0,0,0,0,0,0,0,0,0,0,0,0,0,0,0,0,0,0.651737,28.545,28.2721
-0.405061,0.8125,0.0290287,0.3625,0.118112,0.474375,0.309646,0.493898,1.0057,1.73048,0.750343,0.488315,-0.445364,-0.0135701,0,0,0,0,0,0,0,0,0,0,0,0,0,0,0,0,0,0,0,0,0,0,0,0,0,0,0,0,0.651737,28.545,28.2721
-0.406747,0.8125,0.0178518,0.3625,0.127806,0.474375,0.309111,0.494688,1.00727,1.71963,0.75056,0.487302,-0.446107,-0.0135659,0,0,0,0,0,0,0,0,0,0,0,0,0,0,0,0,0,0,0,0,0,0,0,0,0,0,0,0,0.651737,28.545,28.2721
-0.408432,0.8125,0.00667497,0.3625,0.1375,0.474375,0.308577,0.495525,1.00873,1.70874,0.750777,0.486289,-0.446849,-0.013562,0,0,0,0,0,0,0,0,0,0,0,0,0,0,0,0,0,0,0,0,0,0,0,0,0,0,0,0,0.651737,28.545,28.2721
-0.408432,0.8125,0.00667497,0.3625,0.1375,0.474375,0.308577,0.495525,1.00873,1.70874,0.750777,0.486289,-0.446849,-0.013562,0,0,0,0,0,0,0,0,0,0,0,0,0,0,0,0,0,0,0,0,0,0,0,0,0,0,0,0,0.651737,28.545,28.2721
-0.408432,0.8125,0.00667497,0.3625,0.1375,0.474375,0.308577,0.495525,1.00873,1.70874,0.750777,0.486289,-0.446849,-0.013562,0,0,0,0,0,0,0,0,0,0,0,0,0,0,0,0,0,0,0,0,0,0,0,0,0,0,0,0,0.651737,28.545,28.2721
-0.408432,0.8125,0.00667497,0.3625,0.1375,0.474375,0.308577,0.495525,1.00873,1.70874,0.750777,0.486289,-0.446849,-0.013562,0,0,0,0,0,0,0,0,0,0,0,0,0,0,0,0,0,0,0,0,0,0,0,0,0,0,0,0,0.651737,28.545,28.2721
-0.408432,0.8125,0.00667497,0.3625,0.1375,0.474375,0.308577,0.495525,1.00873,1.70874,0.750777,0.486289,-0.446849,-0.013562,0,0,0,0,0,0,0,0,0,0,0,0,0,0,0,0,0,0,0,0,0,0,0,0,0,0,0,0,0.651737,28.545,28.2721
-0.408432,0.8125,0.00667497,0.3625,0.1375,0.474375,0.308577,0.495525,1.00873,1.70874,0.750777,0.486289,-0.446849,-0.013562,0,0,0,0,0,0,0,0,0,0,0,0,0,0,0,0,0,0,0,0,0,0,0,0,0,0,0,0,0.651737,28.545,28.2721
-0.408432,0.8125,0.00667497,0.3625,0.1375,0.474375,0.308577,0.495525,1.00873,1.70874,0.750777,0.486289,-0.446849,-0.013562,0,0,0,0,0,0,0,0,0,0,0,0,0,0,0,0,0,0,0,0,0,0,0,0,0,0,0,0,0.651737,28.545,28.2721
-0.408432,0.8125,0.00667497,0.3625,0.1375,0.474375,0.308577,0.495525,1.00873,1.70874,0.750777,0.486289,-0.446849,-0.013562,0,0,0,0,0,0,0,0,0,0,0,0,0,0,0,0,0,0,0,0,0,0,0,0,0,0,0,0,0.651737,28.545,28.2721
-0.408432,0.8125,0.00667497,0.3625,0.1375,0.474375,0.308577,0.495525,1.00873,1.70874,0.750777,0.486289,-0.446849,-0.013562,0,0,0,0,0,0,0,0,0,0,0,0,0,0,0,0,0,0,0,0,0,0,0,0,0,0,0,0,0.651737,28.545,28.2721
-0.408432,0.8125,0.00667497,0.3625,0.1375,0.474375,0.308577,0.495525,1.00873,1.70874,0.750777,0.486289,-0.446849,-0.013562,0,0,0,0,0,0,0,0,0,0,0,0,0,0,0,0,0,0,0,0,0,0,0,0,0,0,0,0,0.651737,28.545,28.2721
-0.408432,0.8125,0.00667497,0.3625,0.1375,0.474375,0.308577,0.495525,1.00873,1.70874,0.750777,0.486289,-0.446849,-0.013562,0,0,0,0,0,0,0,0,0,0,0,0,0,0,0,0,0,0,0,0,0,0,0,0,0,0,0,0,0.651737,28.545,28.2721

6.1089e-22,7.1839e-21,-7.59224e-22,4.97199e-21,-2.64201e-21,4.40141e-21,4.65898e-21,-0.408996,0.478457,1.5421,0.500463,0.500298,-0.499138,0.500099,0,0,0,0,0,0,0,0,0,0,0,0,0,0,0,0,0,0,0,0,0,0,0,0,0,0,0,0,1.98297,20.0543,19.7986
0.0112988,0.126926,-0.0141106,0.086875,-0.0455997,0.0818768,0.0819637,-0.399464,0.591977,1.55161,0.555382,0.499029,-0.471389,0.469375,0,0,0,0,0,0,0,0,0,0,0,0,0,0,0,0,0,0,0,0,0,0,0,0,0,0,0,0,1.98297,20.0543,19.7986
0.0225976,0.253852,-0.0282213,0.17375,-0.0911994,0.163754,0.163927,-0.375599,0.707038,1.56402,0.607132,0.49868,-0.442922,0.431891,0,0,0,0,0,0,0,0,0,0,0,0,0,0,0,0,0,0,0,0,0,0,0,0,0,0,0,0,1.98297,20.0543,19.7986
0.0338964,0.380777,-0.0423319,0.260625,-0.136799,0.245631,0.245891,-0.33692,0.821506,1.5793,0.654832,0.499248,-0.413858,0.388159,0,0,0,0,0,0,0,0,0,0,0,0,0,0,0,0,0,0,0,0,0,0,0,0,0,0,0,0,1.98297,20.0543,19.7986
0.0451952,0.507703,-0.0564425,0.3475,-0.182399,0.327507,0.327855,-0.283283,0.933143,1.59738,0.697695,0.500725,-0.384321,0.338813,0,0,0,0,0,0,0,0,0,0,0,0,0,0,0,0,0,0,0,0,0,0,0,0,0,0,0,0,1.98297,20.0543,19.7986
0.056494,0.634629,-0.0705532,0.434375,-0.227999,0.409384,0.409818,-0.214903,1.03966,1.61818,0.735043,0.503092,-0.354432,0.284583,0,0,0,0,0,0,0,0,0,0,0,0,0,0,0,0,0,0,0,0,0,0,0,0,0,0,0,0,1.98297,20.0543,19.7986
0.0677928,0.761555,-0.0846638,0.52125,-0.273598,0.491261,0.491782,-0.13237,1.13877,1.64157,0.766324,0.506326,-0.324313,0.226282,0,0,0,0,0,0,0,0,0,0,0,0,0,0,0,0,0,0,0,0,0,0,0,0,0,0,0,0,1.98297,20.0543,19.7986
0.0790916,0.88848,-0.0987745,0.608125,-0.319198,0.573138,0.573746,-0.036646,1.22827,1.66741,0.791114,0.510394,-0.294082,0.164782,0,0,0,0,0,0,0,0,0,0,0,0,0,0,0,0,0,0,0,0,0,0,0,0,0,0,0,0,1.98297,20.0543,19.7986
0.0903904,1.01541,-0.112885,0.695,-0.364798,0.655015,0.65571,0.0709396,1.3061,1.69554,0.809129,0.515257,-0.263856,0.100993,0,0,0,0,0,0,0,0,0,0,0,0,0,0,0,0,0,0,0,0,0,0,0,0,0,0,0,0,1.98297,20.0543,19.7986
0.101689,1.14233,-0.126996,0.781875,-0.410397,0.736892,0.737673,0.188714,1.37039,1.72576,0.820227,0.520869,-0.23375,0.0358429,0,0,0,0,0,0,0,0,0,0,0,0,0,0,0,0,0,0,0,0,0,0,0,0,0,0,0,0,1.98297,20.0543,19.7986
0.112988,1.26926,-0.141106,0.86875,-0.455997,0.818768,0.819637,0.314692,1.41954,1.75786,0.8244,0.527176,-0.203873,-0.0297488,0,0,0,0,0,0,0,0,0,0,0,0,0,0,0,0,0,0,0,0,0,0,0,0,0,0,0,0,1.98297,20.0543,19.7986
0.111302,1.26836,-0.150851,0.86875,-0.446303,0.819486,0.819103,0.31437,1.42182,1.74742,0.824486,0.527024,-0.203933,-0.0296553,0,0,0,0,0,0,0,0,0,0,0,0,0,0,0,0,0,0,0,0,0,0,0,0,0,0,0,0,1.98297,20.0543,19.7986
0.109617,1.26746,-0.160596,0.86875,-0.436609,0.820204,0.818568,0.314092,1.424,1.73695,0.824572,0.526871,-0.203994,-0.0295619,0,0,0,0,0,0,0,0,0,0,0,0,0,0,0,0,0,0,0,0,0,0,0,0,0,0,0,0,1.98297,20.0543,19.7986
0.107931,1.26655,-0.170341,0.86875,-0.426915,0.820921,0.818034,0.313858,1.42609,1.72645,0.824658,0.526719,-0.204054,-0.0294686,0,0,0,0,0,0,0,0,0,0,0,0,0,0,0,0,0,0,0,0,0,0,0,0,0,0,0,0,1.98297,20.0543,19.7986
0.106246,1.26565,-0.180086,0.86875,-0.417221,0.821639,0.817499,0.313668,1.42809,1.71593,0.824744,0.526567,-0.204114,-0.0293752,0,0,0,0,0,0,0,0,0,0,0,0,0,0,0,0,0,0,0,0,0,0,0,0,0,0,0,0,1.98297,20.0543,19.7986
0.10456,1.26475,-0.189831,0.86875,-0.407526,0.822356,0.816965,0.313521,1.43,1.70537,0.824829,0.526414,-0.204174,-0.0292819,0,0,0,0,0,0,0,0,0,0,0,0,0,0,0,0,0,0,0,0,0,0,0,0,0,0,0,0,1.98297,20.0543,19.7986
0.102875,1.26385,-0.199576,0.86875,-0.397832,0.823074,0.81643,0.313418,1.43181,1.69479,0.824915,0.526262,-0.204234,-0.0291887,0,0,0,0,0,0,0,0,0,0,0,0,0,0,0,0,0,0,0,0,0,0,0,0,0,0,0,0,1.98297,20.0543,19.7986
0.101189,1.26295,-0.209321,0.86875,-0.388138,0.823791,0.815896,0.313358,1.43353,1.68419,0.825,0.52611,-0.204293,-0.0290954,0,0,0,0,0,0,0,0,0,0,0,0,0,0,0,0,0,0,0,0,0,0,0,0,0,0,0,0,1.98297,20.0543,19.7986
0.0995034,1.26205,-0.219066,0.86875,-0.378444,0.824509,0.815361,0.313342,1.43516,1.67355,0.825086,0.525958,-0.204353,-0.0290022,0,0,0,0,0,0,0,0,0,0,0,0,0,0,0,0,0,0,0,0,0,0,0,0,0,0,0,0,1.98297,20.0543,19.7986
0.0978178,1.26115,-0.228811,0.86875,-0.36875,0.825226,0.814827,0.313368,1.43669,1.6629,0.825171,0.525806,-0.204412,-0.028909,0,0,0,0,0,0,0,0,0,0,0,0,0,0,0,0,0,0,0,0,0,0,0,0,0,0,0,0,1.98297,20.0543,19.7986
0.0978178,1.26115,-0.228811,0.86875,-0.36875,0.825226,0.814827,0.313368,1.43669,1.6629,0.825171,0.525806,-0.204412,-0.028909,0,0,0,0,0,0,0,0,0,0,0,0,0,0,0,0,0,0,0,0,0,0,0,0,0,0,0,0,1.98297,20.0543,19.7986
0.0978178,1.26115,-0.228811,0.86875,-0.36875,0.825226,0.814827,0.313368,1.43669,1.6629,0.825171,0.525806,-0.204412,-0.028909,0,0,0,0,0,0,0,0,0,0,0,0,0,0,0,0,0,0,0,0,0,0,0,0,0,0,0,0,1.98297,20.0543,19.7986
0.0978178,1.26115,-0.228811,0.86875,-0.36875,0.825226,0.814827,0.313368,1.43669,1.6629,0.825171,0.525806,-0.204412,-0.028909,0,0,0,0,0,0,0,0,0,0,0,0,0,0,0,0,0,0,0,0,0,0,0,0,0,0,0,0,1.98297,20.0543,19.7986
0.0978178,1.26115,-0.228811,0.86875,-0.36875,0.825226,0.814827,0.313368,1.43669,1.6629,0.825171,0.525806,-0.204412,-0.028909,0,0,0,0,0,0,0,0,0,0,0,0,0,0,0,0,0,0,0,0,0,0,0,0,0,0,0,0,1.98297,20.0543,19.7986
0.0978178,1.26115,-0.228811,0.86875,-0.36875,0.825226,0.814827,0.313368,1.43669,1.6629,0.825171,0.525806,-0.204412,-0.028909,0,0,0,0,0,0,0,0,0,0,0,0,0,0,0,0,0,0,0,0,0,0,0,0,0,0,0,0,1.98297,20.0543,19.7986
0.0978178,1.26115,-0.228811,0.86875,-0.36875,0.825226,0.814827,0.313368,1.43669,1.6629,0.825171,0.525806,-0.204412,-0.028909,0,0,0,0,0,0,0,0,0,0,0,0,0,0,0,0,0,0,0,0,0,0,0,0,0,0,0,0,1.98297,20.0543,19.7986
0.0978178,1.26115,-0.228811,0.86875,-0.36875,0.825226,0.814827,0.313368,1.43669,1.6629,0.825171,0.525806,-0.204412,-0.028909,0,0,0,0,0,0,0,0,0,0,0,0,0,0,0,0,0,0,0,0,0,0,0,0,0,0,0,0,1.98297,20.0543,19.7986
0.0978178,1.26115,-0.228811,0.86875,-0.36875,0.825226,0.814827,0.313368,1.43669,1.6629,0.825171,0.525806,-0.204412,-0.028909,0,0,0,0,0,0,0,0,0,0,0,0,0,0,0,0,0,0,0,0,0,0,0,0,0,0,0,0,1.98297,20.0543,19.7986
0.0978178,1.26115,-0.228811,0.86875,-0.36875,0.825226,0.814827,0.313368,1.43669,1.6629,0.825171,0.525806,-0.204412,-0.028909,0,0,0,0,0,0,0,0,0,0,0,0,0,0,0,0,0,0,0,0,0,0,0,0,0,0,0,0,1.98297,20.0543,19.7986
0.0978178,1.26115,-0.228811,0.86875,-0.36875,0.825226,0.814827,0.313368,1.43669,1.6629,0.825171,0.525806,-0.204412,-0.028909,0,0,0,0,0,0,0,0,0,0,0,0,0,0,0,0,0,0,0,0,0,0,0,0,0,0,0,0,1.98297,20.0543,19.7986

4.53611e-21,1.16706e-20,2.43918e-21,6.45666e-22,-6.94837e-21,7.63849e-21,8.42841e-21,-0.408996,0.478457,1.5421,0.500463,0.500298,-0.499138,0.500099,0,0,0,0,0,0,0,0,0,0,0,0,0,0,0,0,0,0,0,0,0,0,0,0,0,0,0,0,5.17352,11.3326,10.7828
0.0789225,0.202863,0.0405974,0.0109375,-0.121537,0.133254,0.14689,-0.381738,0.630396,1.54439,0.554805,0.484988,-0.46259,0.492938,0,0,0,0,0,0,0,0,0,0,0,0,0,0,0,0,0,0,0,0,0,0,0,0,0,0,0,0,5.17352,11.3326,10.7828
0.157845,0.405727,0.0811947,0.021875,-0.243074,0.266507,0.293781,-0.338114,0.77479,1.54362,0.616265,0.462992,-0.423922,0.475548,0,0,0,0,0,0,0,0,0,0,0,0,0,0,0,0,0,0,0,0,0,0,0,0,0,0,0,0,5.17352,11.3326,10.7828
0.236767,0.60859,0.121792,0.0328125,-0.364612,0.399761,0.440671,-0.279718,0.907581,1.54088,0.682432,0.434587,-0.383507,0.445358,0,0,0,0,0,0,0,0,0,0,0,0,0,0,0,0,0,0,0,0,0,0,0,0,0,0,0,0,5.17352,11.3326,10.7828
0.31569,0.811453,0.162389,0.04375,-0.486149,0.533015,0.587562,-0.209034,1.02518,1.53736,0.750199,0.400122,-0.341727,0.400408,0,0,0,0,0,0,0,0,0,0,0,0,0,0,0,0,0,0,0,0,0,0,0,0,0,0,0,0,5.17352,11.3326,10.7828
0.394612,1.01432,0.202987,0.0546875,-0.607686,0.666268,0.734452,-0.129292,1.12471,1.53431,0.815922,0.360016,-0.298966,0.339528,0,0,0,0,0,0,0,0,0,0,0,0,0,0,0,0,0,0,0,0,0,0,0,0,0,0,0,0,5.17352,11.3326,10.7828
0.473535,1.21718,0.243584,0.065625,-0.729223,0.799522,0.881342,-0.044258,1.2042,1.53293,0.875622,0.314753,-0.255599,0.262461,0,0,0,0,0,0,0,0,0,0,0,0,0,0,0,0,0,0,0,0,0,0,0,0,0,0,0,0,5.17352,11.3326,10.7828
0.552457,1.42004,0.284182,0.0765625,-0.85076,0.932776,1.02823,0.0420334,1.2627,1.53439,0.925215,0.264871,-0.211993,0.16994,0,0,0,0,0,0,0,0,0,0,0,0,0,0,0,0,0,0,0,0,0,0,0,0,0,0,0,0,5.17352,11.3326,10.7828
0.63138,1.62291,0.324779,0.0875,-0.972298,1.06603,1.17512,0.125574,1.30036,1.53973,0.960751,0.210963,-0.168502,0.0637105,0,0,0,0,0,0,0,0,0,0,0,0,0,0,0,0,0,0,0,0,0,0,0,0,0,0,0,0,5.17352,11.3326,10.7828
0.710302,1.82577,0.365376,0.0984375,-1.09383,1.19928,1.32201,0.20268,1.31832,1.54983,0.978664,0.153666,-0.125457,-0.0535096,0,0,0,0,0,0,0,0,0,0,0,0,0,0,0,0,0,0,0,0,0,0,0,0,0,0,0,0,5.17352,11.3326,10.7828
0.789225,2.02863,0.405974,0.109375,-1.21537,1.33254,1.4689,0.270259,1.31865,1.56539,0.976004,0.0936516,-0.0831667,-0.178128,0,0,0,0,0,0,0,0,0,0,0,0,0,0,0,0,0,0,0,0,0,0,0,0,0,0,0,0,5.17352,11.3326,10.7828
0.787306,2.02773,0.394114,0.109375,-1.20568,1.33331,1.46893,0.270333,1.32201,1.55577,0.976024,0.09249,-0.083405,-0.178512,0,0,0,0,0,0,0,0,0,0,0,0,0,0,0,0,0,0,0,0,0,0,0,0,0,0,0,0,5.17352,11.3326,10.7828
0.785387,2.02683,0.382253,0.109375,-1.19598,1.33408,1.46896,0.27045,1.32527,1.54609,0.976043,0.091328,-0.083642,-0.178897,0,0,0,0,0,0,0,0,0,0,0,0,0,0,0,0,0,0,0,0,0,0,0,0,0,0,0,0,5.17352,11.3326,10.7828
0.783468,2.02593,0.370393,0.109375,-1.18629,1.33485,1.46899,0.270609,1.32842,1.53636,0.97606,0.0901655,-0.0838779,-0.179282,0,0,0,0,0,0,0,0,0,0,0,0,0,0,0,0,0,0,0,0,0,0,0,0,0,0,0,0,5.17352,11.3326,10.7828
0.781549,2.02503,0.358533,0.109375,-1.1766,1.33562,1.46902,0.270811,1.33146,1.52658,0.976075,0.0890026,-0.0841125,-0.179668,0,0,0,0,0,0,0,0,0,0,0,0,0,0,0,0,0,0,0,0,0,0,0,0,0,0,0,0,5.17352,11.3326,10.7828
0.779629,2.02413,0.346673,0.109375,-1.1669,1.33639,1.46904,0.271056,1.3344,1.51674,0.976089,0.0878393,-0.0843459,-0.180054,0,0,0,0,0,0,0,0,0,0,0,0,0,0,0,0,0,0,0,0,0,0,0,0,0,0,0,0,5.17352,11.3326,10.7828
0.77771,2.02322,0.334813,0.109375,-1.15721,1.33716,1.46907,0.271343,1.33724,1.50685,0.976102,0.0866756,-0.0845781,-0.180442,0,0,0,0,0,0,0,0,0,0,0,0,0,0,0,0,0,0,0,0,0,0,0,0,0,0,0,0,5.17352,11.3326,10.7828
0.775791,2.02232,0.322953,0.109375,-1.14751,1.33793,1.4691,0.271672,1.33996,1.49692,0.976113,0.0855114,-0.0848091,-0.180829,0,0,0,0,0,0,0,0,0,0,0,0,0,0,0,0,0,0,0,0,0,0,0,0,0,0,0,0,5.17352,11.3326,10.7828
0.773872,2.02142,0.311093,0.109375,-1.13782,1.3387,1.46913,0.272043,1.34258,1.48693,0.976122,0.0843469,-0.0850388,-0.181218,0,0,0,0,0,0,0,0,0,0,0,0,0,0,0,0,0,0,0,0,0,0,0,0,0,0,0,0,5.17352,11.3326,10.7828
0.771953,2.02052,0.299233,0.109375,-1.12812,1.33946,1.46916,0.272457,1.34508,1.4769,0.97613,0.0831819,-0.0852673,-0.181607,0,0,0,0,0,0,0,0,0,0,0,0,0,0,0,0,0,0,0,0,0,0,0,0,0,0,0,0,5.17352,11.3326,10.7828
0.771953,2.02052,0.299233,0.109375,-1.12812,1.33946,1.46916,0.272457,1.34508,1.4769,0.97613,0.0831819,-0.0852673,-0.181607,0,0,0,0,0,0,0,0,0,0,0,0,0,0,0,0,0,0,0,0,0,0,0,0,0,0,0,0,5.17352,11.3326,10.7828
0.771953,2.02052,0.299233,0.109375,-1.12812,1.33946,1.46916,0.272457,1.34508,1.4769,0.97613,0.0831819,-0.0852673,-0.181607,0,0,0,0,0,0,0,0,0,0,0,0,0,0,0,0,0,0,0,0,0,0,0,0,0,0,0,0,5.17352,11.3326,10.7828
0.771953,2.02052,0.299233,0.109375,-1.12812,1.33946,1.46916,0.272457,1.34508,1.4769,0.97613,0.0831819,-0.0852673,-0.181607,0,0,0,0,0,0,0,0,0,0,0,0,0,0,0,0,0,0,0,0,0,0,0,0,0,0,0,0,5.17352,11.3326,10.7828
0.771953,2.02052,0.299233,0.109375,-1.12812,1.33946,1.46916,0.272457,1.34508,1.4769,0.97613,0.0831819,-0.0852673,-0.181607,0,0,0,0,0,0,0,0,0,0,0,0,0,0,0,0,0,0,0,0,0,0,0,0,0,0,0,0,5.17352,11.3326,10.7828
0.771953,2.02052,0.299233,0.109375,-1.12812,1.33946,1.46916,0.272457,1.34508,1.4769,0.97613,0.0831819,-0.0852673,-0.181607,0,0,0,0,0,0,0,0,0,0,0,0,0,0,0,0,0,0,0,0,0,0,0,0,0,0,0,0,5.17352,11.3326,10.7828
0.771953,2.02052,0.299233,0.109375,-1.12812,1.33946,1.46916,0.272457,1.34508,1.4769,0.97613,0.0831819,-0.0852673,-0.181607,0,0,0,0,0,0,0,0,0,0,0,0,0,0,0,0,0,0,0,0,0,0,0,0,0,0,0,0,5.17352,11.3326,10.7828
0.771953,2.02052,0.299233,0.109375,-1.12812,1.33946,1.46916,0.272457,1.34508,1.4769,0.97613,0.0831819,-0.0852673,-0.181607,0,0,0,0,0,0,0,0,0,0,0,0,0,0,0,0,0,0,0,0,0,0,0,0,0,0,0,0,5.17352,11.3326,10.7828
0.771953,2.02052,0.299233,0.109375,-1.12812,1.33946,1.46916,0.272457,1.34508,1.4769,0.97613,0.0831819,-0.0852673,-0.181607,0,0,0,0,0,0,0,0,0,0,0,0,0,0,0,0,0,0,0,0,0,0,0,0,0,0,0,0,5.17352,11.3326,10.7828
0.771953,2.02052,0.299233,0.109375,-1.12812,1.33946,1.46916,0.272457,1.34508,1.4769,0.97613,0.0831819,-0.0852673,-0.181607,0,0,0,0,0,0,0,0,0,0,0,0,0,0,0,0,0,0,0,0,0,0,0,0,0,0,0,0,5.17352,11.3326,10.7828
0.771953,2.02052,0.299233,0.109375,-1.12812,1.33946,1.46916,0.272457,1.34508,1.4769,0.97613,0.0831819,-0.0852673,-0.181607,0,0,0,0,0,0,0,0,0,0,0,0,0,0,0,0,0,0,0,0,0,0,0,0,0,0,0,0,5.17352,11.3326,10.7828

1.61267e-21,9.11441e-21,-1.69994e-21,7.23137e-21,-9.70273e-21,9.15051e-21,6.11442e-21,-0.408996,0.478457,1.5421,0.500463,0.500298,-0.499138,0.500099,0,0,0,0,0,0,0,0,0,0,0,0,0,0,0,0,0,0,0,0,0,0,0,0,0,0,0,0,5.40654,3.70524,3.13796
0.0300865,0.160499,-0.028211,0.124844,-0.16931,0.158719,0.105376,-0.427461,0.616813,1.52845,0.546396,0.472364,-0.465271,0.511709,0,0,0,0,0,0,0,0,0,0,0,0,0,0,0,0,0,0,0,0,0,0,0,0,0,0,0,0,5.40654,3.70524,3.13796
0.0601731,0.320998,-0.0564219,0.249687,-0.338619,0.317437,0.210752,-0.419818,0.757459,1.51407,0.601621,0.437971,-0.427037,0.513686,0,0,0,0,0,0,0,0,0,0,0,0,0,0,0,0,0,0,0,0,0,0,0,0,0,0,0,0,5.40654,3.70524,3.13796
0.0902596,0.481498,-0.0846329,0.374531,-0.507929,0.476156,0.316128,-0.386095,0.894295,1.50031,0.66386,0.397787,-0.384473,0.503226,0,0,0,0,0,0,0,0,0,0,0,0,0,0,0,0,0,0,0,0,0,0,0,0,0,0,0,0,5.40654,3.70524,3.13796
0.120346,0.641997,-0.112844,0.499375,-0.677238,0.634875,0.421504,-0.327943,1.02156,1.48867,0.730126,0.352561,-0.33769,0.478102,0,0,0,0,0,0,0,0,0,0,0,0,0,0,0,0,0,0,0,0,0,0,0,0,0,0,0,0,5.40654,3.70524,3.13796
0.150433,0.802496,-0.141055,0.624219,-0.846548,0.793593,0.52688,-0.24844,1.1343,1.48063,0.796872,0.30312,-0.286874,0.436825,0,0,0,0,0,0,0,0,0,0,0,0,0,0,0,0,0,0,0,0,0,0,0,0,0,0,0,0,5.40654,3.70524,3.13796
0.180519,0.962995,-0.169266,0.749062,-1.01586,0.952312,0.632256,-0.151758,1.22872,1.47758,0.860173,0.250349,-0.232288,0.378775,0,0,0,0,0,0,0,0,0,0,0,0,0,0,0,0,0,0,0,0,0,0,0,0,0,0,0,0,5.40654,3.70524,3.13796
0.210606,1.12349,-0.197477,0.873906,-1.18517,1.11103,0.737632,-0.0427304,1.30244,1.48076,0.915942,0.195179,-0.174265,0.304282,0,0,0,0,0,0,0,0,0,0,0,0,0,0,0,0,0,0,0,0,0,0,0,0,0,0,0,0,5.40654,3.70524,3.13796
0.240692,1.28399,-0.225688,0.99875,-1.35448,1.26975,0.843008,0.0736227,1.35453,1.49113,0.960157,0.138574,-0.113211,0.214659,0,0,0,0,0,0,0,0,0,0,0,0,0,0,0,0,0,0,0,0,0,0,0,0,0,0,0,0,5.40654,3.70524,3.13796
0.270779,1.44449,-0.253899,1.12359,-1.52379,1.42847,0.948384,0.192563,1.38548,1.50932,0.989097,0.0815155,-0.0495976,0.112175,0,0,0,0,0,0,0,0,0,0,0,0,0,0,0,0,0,0,0,0,0,0,0,0,0,0,0,0,5.40654,3.70524,3.13796
0.300865,1.60499,-0.28211,1.24844,-1.6931,1.58719,1.05376,0.310036,1.39691,1.53558,0.999559,0.0249841,0.0160443,-2.29495e-05,0,0,0,0,0,0,0,0,0,0,0,0,0,0,0,0,0,0,0,0,0,0,0,0,0,0,0,0,5.40654,3.70524,3.13796
0.298421,1.6016,-0.285525,1.24277,-1.68451,1.58657,1.0545,0.308976,1.39731,1.52857,0.999569,0.0248173,0.0157054,7.23975e-05,0,0,0,0,0,0,0,0,0,0,0,0,0,0,0,0,0,0,0,0,0,0,0,0,0,0,0,0,5.40654,3.70524,3.13796
0.295976,1.5982,-0.288941,1.23711,-1.67592,1.58595,1.05523,0.307924,1.39766,1.52154,0.999578,0.0246511,0.0153663,0.000167898,0,0,0,0,0,0,0,0,0,0,0,0,0,0,0,0,0,0,0,0,0,0,0,0,0,0,0,0,5.40654,3.70524,3.13796
0.293531,1.59481,-0.292356,1.23145,-1.66733,1.58534,1.05597,0.30688,1.39796,1.51451,0.999587,0.0244855,0.0150269,0.000263552,0,0,0,0,0,0,0,0,0,0,0,0,0,0,0,0,0,0,0,0,0,0,0,0,0,0,0,0,5.40654,3.70524,3.13796
0.291086,1.59142,-0.295772,1.22579,-1.65875,1.58472,1.05671,0.305845,1.3982,1.50746,0.999596,0.0243204,0.0146873,0.000359359,0,0,0,0,0,0,0,0,0,0,0,0,0,0,0,0,0,0,0,0,0,0,0,0,0,0,0,0,5.40654,3.70524,3.13796
0.288642,1.58802,-0.299188,1.22012,-1.65016,1.5841,1.05744,0.304818,1.39838,1.5004,0.999605,0.024156,0.0143473,0.00045532,0,0,0,0,0,0,0,0,0,0,0,0,0,0,0,0,0,0,0,0,0,0,0,0,0,0,0,0,5.40654,3.70524,3.13796
0.286197,1.58463,-0.302603,1.21446,-1.64157,1.58348,1.05818,0.303799,1.39852,1.49334,0.999614,0.0239922,0.0140071,0.000551434,0,0,0,0,0,0,0,0,0,0,0,0,0,0,0,0,0,0,0,0,0,0,0,0,0,0,0,0,5.40654,3.70524,3.13796
0.283752,1.58124,-0.306019,1.2088,-1.63298,1.58287,1.05892,0.302789,1.3986,1.48626,0.999622,0.0238289,0.0136666,0.000647701,0,0,0,0,0,0,0,0,0,0,0,0,0,0,0,0,0,0,0,0,0,0,0,0,0,0,0,0,5.40654,3.70524,3.13796
0.281307,1.57784,-0.309435,1.20313,-1.6244,1.58225,1.05965,0.301789,1.39862,1.47918,0.999631,0.0236663,0.0133258,0.000744121,0,0,0,0,0,0,0,0,0,0,0,0,0,0,0,0,0,0,0,0,0,0,0,0,0,0,0,0,5.40654,3.70524,3.13796
0.278863,1.57445,-0.31285,1.19747,-1.61581,1.58163,1.06039,0.300797,1.3986,1.47209,0.999639,0.0235042,0.0129848,0.000840694,0,0,0,0,0,0,0,0,0,0,0,0,0,0,0,0,0,0,0,0,0,0,0,0,0,0,0,0,5.40654,3.70524,3.13796
0.278863,1.57445,-0.31285,1.19747,-1.61581,1.58163,1.06039,0.300797,1.3986,1.47209,0.999639,0.0235042,0.0129848,0.000840694,0,0,0,0,0,0,0,0,0,0,0,0,0,0,0,0,0,0,0,0,0,0,0,0,0,0,0,0,5.40654,3.70524,3.13796
0.278863,1.57445,-0.31285,1.19747,-1.61581,1.58163,1.06039,0.300797,1.3986,1.47209,0.999639,0.0235042,0.0129848,0.000840694,0,0,0,0,0,0,0,0,0,0,0,0,0,0,0,0,0,0,0,0,0,0,0,0,0,0,0,0,5.40654,3.70524,3.13796
0.278863,1.57445,-0.31285,1.19747,-1.61581,1.58163,1.06039,0.300797,1.3986,1.47209,0.999639,0.0235042,0.0129848,0.000840694,0,0,0,0,0,0,0,0,0,0,0,0,0,0,0,0,0,0,0,0,0,0,0,0,0,0,0,0,5.40654,3.70524,3.13796
0.278863,1.57445,-0.31285,1.19747,-1.61581,1.58163,1.06039,0.300797,1.3986,1.47209,0.999639,0.0235042,0.0129848,0.000840694,0,0,0,0,0,0,0,0,0,0,0,0,0,0,0,0,0,0,0,0,0,0,0,0,0,0,0,0,5.40654,3.70524,3.13796
0.278863,1.57445,-0.31285,1.19747,-1.61581,1.58163,1.06039,0.300797,1.3986,1.47209,0.999639,0.0235042,0.0129848,0.000840694,0,0,0,0,0,0,0,0,0,0,0,0,0,0,0,0,0,0,0,0,0,0,0,0,0,0,0,0,5.40654,3.70524,3.13796
0.278863,1.57445,-0.31285,1.19747,-1.61581,1.58163,1.06039,0.300797,1.3986,1.47209,0.999639,0.0235042,0.0129848,0.000840694,0,0,0,0,0,0,0,0,0,0,0,0,0,0,0,0,0,0,0,0,0,0,0,0,0,0,0,0,5.40654,3.70524,3.13796
0.278863,1.57445,-0.31285,1.19747,-1.61581,1.58163,1.06039,0.300797,1.3986,1.47209,0.999639,0.0235042,0.0129848,0.000840694,0,0,0,0,0,0,0,0,0,0,0,0,0,0,0,0,0,0,0,0,0,0,0,0,0,0,0,0,5.40654,3.70524,3.13796
0.278863,1.57445,-0.31285,1.19747,-1.61581,1.58163,1.06039,0.300797,1.3986,1.47209,0.999639,0.0235042,0.0129848,0.000840694,0,0,0,0,0,0,0,0,0,0,0,0,0,0,0,0,0,0,0,0,0,0,0,0,0,0,0,0,5.40654,3.70524,3.13796
0.278863,1.57445,-0.31285,1.19747,-1.61581,1.58163,1.06039,0.300797,1.3986,1.47209,0.999639,0.0235042,0.0129848,0.000840694,0,0,0,0,0,0,0,0,0,0,0,0,0,0,0,0,0,0,0,0,0,0,0,0,0,0,0,0,5.40654,3.70524,3.13796
0.278863,1.57445,-0.31285,1.19747,-1.61581,1.58163,1.06039,0.300797,1.3986,1.47209,0.999639,0.0235042,0.0129848,0.000840694,0,0,0,0,0,0,0,0,0,0,0,0,0,0,0,0,0,0,0,0,0,0,0,0,0,0,0,0,5.40654,3.70524,3.13796

2.67375e-21,1.01553e-20,-7.31001e-22,6.84507e-21,-1.07266e-20,9.05895e-21,6.13723e-21,-0.408996,0.478457,1.5421,0.500463,0.500298,-0.499138,0.500099,0,0,0,0,0,0,0,0,0,0,0,0,0,0,0,0,0,0,0,0,0,0,0,0,0,0,0,0,6.04459,1.39786,1.0983
0.0471725,0.177462,-0.0188589,0.126851,-0.186395,0.156984,0.10544,-0.428168,0.625508,1.53732,0.545171,0.470792,-0.467235,0.512674,0,0,0,0,0,0,0,0,0,0,0,0,0,0,0,0,0,0,0,0,0,0,0,0,0,0,0,0,6.04459,1.39786,1.0983
0.0943449,0.354924,-0.0377178,0.253701,-0.372791,0.313968,0.21088,-0.420593,0.774615,1.53243,0.599637,0.434487,-0.430884,0.515747,0,0,0,0,0,0,0,0,0,0,0,0,0,0,0,0,0,0,0,0,0,0,0,0,0,0,0,0,6.04459,1.39786,1.0983
0.141517,0.532386,-0.0565768,0.380552,-0.559186,0.470953,0.31632,-0.386289,0.919076,1.52874,0.661582,0.392088,-0.390116,0.506345,0,0,0,0,0,0,0,0,0,0,0,0,0,0,0,0,0,0,0,0,0,0,0,0,0,0,0,0,6.04459,1.39786,1.0983
0.18869,0.709848,-0.0754357,0.507403,-0.745582,0.627937,0.42176,-0.327107,1.05253,1.52761,0.72797,0.344389,-0.34504,0.482082,0,0,0,0,0,0,0,0,0,0,0,0,0,0,0,0,0,0,0,0,0,0,0,0,0,0,0,0,6.04459,1.39786,1.0983
0.235862,0.887309,-0.0942946,0.634254,-0.931977,0.784921,0.5272,-0.246534,1.1695,1.53045,0.795161,0.292267,-0.295845,0.441334,0,0,0,0,0,0,0,0,0,0,0,0,0,0,0,0,0,0,0,0,0,0,0,0,0,0,0,0,6.04459,1.39786,1.0983
0.283035,1.06477,-0.113154,0.761104,-1.11837,0.941905,0.63264,-0.149321,1.26582,1.53852,0.859105,0.236662,-0.242797,0.383378,0,0,0,0,0,0,0,0,0,0,0,0,0,0,0,0,0,0,0,0,0,0,0,0,0,0,0,0,6.04459,1.39786,1.0983
0.330207,1.24223,-0.132012,0.887955,-1.30477,1.09889,0.73808,-0.0410068,1.3389,1.55292,0.915569,0.178564,-0.18624,0.308484,0,0,0,0,0,0,0,0,0,0,0,0,0,0,0,0,0,0,0,0,0,0,0,0,0,0,0,0,6.04459,1.39786,1.0983
0.37738,1.4197,-0.150871,1.01481,-1.49116,1.25587,0.84352,0.0726306,1.38788,1.57445,0.960371,0.118998,-0.126593,0.217946,0,0,0,0,0,0,0,0,0,0,0,0,0,0,0,0,0,0,0,0,0,0,0,0,0,0,0,0,6.04459,1.39786,1.0983
0.424552,1.59716,-0.16973,1.14166,-1.67756,1.41286,0.94896,0.186118,1.41355,1.60354,0.989631,0.0590051,-0.0643404,0.114062,0,0,0,0,0,0,0,0,0,0,0,0,0,0,0,0,0,0,0,0,0,0,0,0,0,0,0,0,6.04459,1.39786,1.0983
0.471725,1.77462,-0.188589,1.26851,-1.86395,1.56984,1.0544,0.294762,1.41805,1.64023,1,-0.000372516,-3.34541e-05,4.73183e-05,0,0,0,0,0,0,0,0,0,0,0,0,0,0,0,0,0,0,0,0,0,0,0,0,0,0,0,0,6.04459,1.39786,1.0983
0.468081,1.77136,-0.200379,1.27169,-1.85537,1.5699,1.05403,0.294646,1.42169,1.62952,1,-0.000388502,-3.85655e-06,3.62329e-05,0,0,0,0,0,0,0,0,0,0,0,0,0,0,0,0,0,0,0,0,0,0,0,0,0,0,0,0,6.04459,1.39786,1.0983
0.464437,1.76811,-0.212168,1.27488,-1.84678,1.56996,1.05367,0.294558,1.42521,1.61874,1,-0.000404458,2.57504e-05,2.5147e-05,0,0,0,0,0,0,0,0,0,0,0,0,0,0,0,0,0,0,0,0,0,0,0,0,0,0,0,0,6.04459,1.39786,1.0983
0.460793,1.76485,-0.223957,1.27806,-1.83819,1.57003,1.0533,0.294497,1.42862,1.60791,1,-0.000420384,5.53667e-05,1.40607e-05,0,0,0,0,0,0,0,0,0,0,0,0,0,0,0,0,0,0,0,0,0,0,0,0,0,0,0,0,6.04459,1.39786,1.0983
0.457149,1.76159,-0.235746,1.28124,-1.82961,1.57009,1.05294,0.294464,1.43192,1.59702,1,-0.000436279,8.49922e-05,2.97394e-06,0,0,0,0,0,0,0,0,0,0,0,0,0,0,0,0,0,0,0,0,0,0,0,0,0,0,0,0,6.04459,1.39786,1.0983
0.453505,1.75833,-0.247536,1.28443,-1.82102,1.57015,1.05258,0.294459,1.43511,1.58607,1,-0.000452144,0.000114627,-8.1132e-06,0,0,0,0,0,0,0,0,0,0,0,0,0,0,0,0,0,0,0,0,0,0,0,0,0,0,0,0,6.04459,1.39786,1.0983
0.449861,1.75508,-0.259325,1.28761,-1.81243,1.57021,1.05221,0.294481,1.43819,1.57507,1,-0.000467979,0.000144271,-1.92008e-05,0,0,0,0,0,0,0,0,0,0,0,0,0,0,0,0,0,0,0,0,0,0,0,0,0,0,0,0,6.04459,1.39786,1.0983
0.446217,1.75182,-0.271114,1.2908,-1.80384,1.57027,1.05185,0.294531,1.44115,1.56402,1,-0.000483784,0.000173924,-3.02887e-05,0,0,0,0,0,0,0,0,0,0,0,0,0,0,0,0,0,0,0,0,0,0,0,0,0,0,0,0,6.04459,1.39786,1.0983
0.442573,1.74856,-0.282904,1.29398,-1.79526,1.57033,1.05148,0.294609,1.444,1.55292,1,-0.000499558,0.000203586,-4.13771e-05,0,0,0,0,0,0,0,0,0,0,0,0,0,0,0,0,0,0,0,0,0,0,0,0,0,0,0,0,6.04459,1.39786,1.0983
0.438929,1.74531,-0.294693,1.29716,-1.78667,1.57039,1.05112,0.294714,1.44674,1.54177,1,-0.000515303,0.000233258,-5.24659e-05,0,0,0,0,0,0,0,0,0,0,0,0,0,0,0,0,0,0,0,0,0,0,0,0,0,0,0,0,6.04459,1.39786,1.0983
0.438929,1.74531,-0.294693,1.29716,-1.78667,1.57039,1.05112,0.294714,1.44674,1.54177,1,-0.000515303,0.000233258,-5.24659e-05,0,0,0,0,0,0,0,0,0,0,0,0,0,0,0,0,0,0,0,0,0,0,0,0,0,0,0,0,6.04459,1.39786,1.0983
0.438929,1.74531,-0.294693,1.29716,-1.78667,1.57039,1.05112,0.294714,1.44674,1.54177,1,-0.000515303,0.000233258,-5.24659e-05,0,0,0,0,0,0,0,0,0,0,0,0,0,0,0,0,0,0,0,0,0,0,0,0,0,0,0,0,6.04459,1.39786,1.0983
0.438929,1.74531,-0.294693,1.29716,-1.78667,1.57039,1.05112,0.294714,1.44674,1.54177,1,-0.000515303,0.000233258,-5.24659e-05,0,0,0,0,0,0,0,0,0,0,0,0,0,0,0,0,0,0,0,0,0,0,0,0,0,0,0,0,6.04459,1.39786,1.0983
0.438929,1.74531,-0.294693,1.29716,-1.78667,1.57039,1.05112,0.294714,1.44674,1.54177,1,-0.000515303,0.000233258,-5.24659e-05,0,0,0,0,0,0,0,0,0,0,0,0,0,0,0,0,0,0,0,0,0,0,0,0,0,0,0,0,6.04459,1.39786,1.0983
0.438929,1.74531,-0.294693,1.29716,-1.78667,1.57039,1.05112,0.294714,1.44674,1.54177,1,-0.000515303,0.000233258,-5.24659e-05,0,0,0,0,0,0,0,0,0,0,0,0,0,0,0,0,0,0,0,0,0,0,0,0,0,0,0,0,6.04459,1.39786,1.0983
0.438929,1.74531,-0.294693,1.29716,-1.78667,1.57039,1.05112,0.294714,1.44674,1.54177,1,-0.000515303,0.000233258,-5.24659e-05,0,0,0,0,0,0,0,0,0,0,0,0,0,0,0,0,0,0,0,0,0,0,0,0,0,0,0,0,6.04459,1.39786,1.0983
0.438929,1.74531,-0.294693,1.29716,-1.78667,1.57039,1.05112,0.294714,1.44674,1.54177,1,-0.000515303,0.000233258,-5.24659e-05,0,0,0,0,0,0,0,0,0,0,0,0,0,0,0,0,0,0,0,0,0,0,0,0,0,0,0,0,6.04459,1.39786,1.0983
0.438929,1.74531,-0.294693,1.29716,-1.78667,1.57039,1.05112,0.294714,1.44674,1.54177,1,-0.000515303,0.000233258,-5.24659e-05,0,0,0,0,0,0,0,0,0,0,0,0,0,0,0,0,0,0,0,0,0,0,0,0,0,0,0,0,6.04459,1.39786,1.0983
0.438929,1.74531,-0.294693,1.29716,-1.78667,1.57039,1.05112,0.294714,1.44674,1.54177,1,-0.000515303,0.000233258,-5.24659e-05,0,0,0,0,0,0,0,0,0,0,0,0,0,0,0,0,0,0,0,0,0,0,0,0,0,0,0,0,6.04459,1.39786,1.0983
0.438929,1.74531,-0.294693,1.29716,-1.78667,1.57039,1.05112,0.294714,1.44674,1.54177,1,-0.000515303,0.000233258,-5.24659e-05,0,0,0,0,0,0,0,0,0,0,0,0,0,0,0,0,0,0,0,0,0,0,0,0,0,0,0,0,6.04459,1.39786,1.0983

3.91519e-21,1.17753e-20,-1.63884e-21,8.48773e-21,-1.12459e-20,9.07191e-21,5.76935e-21,-0.408996,0.478457,1.5421,0.500463,0.500298,-0.499138,0.500099,0,0,0,0,0,0,0,0,0,0,0,0,0,0,0,0,0,0,0,0,0,0,0,0,0,0,0,0,7.23074,0.346664,0.174519
0.0675095,0.203091,-0.0319703,0.15248,-0.198893,0.157026,0.100197,-0.435877,0.642151,1.53707,0.545187,0.468315,-0.46969,0.512682,0,0,0,0,0,0,0,0,0,0,0,0,0,0,0,0,0,0,0,0,0,0,0,0,0,0,0,0,7.23074,0.346664,0.174519
0.135019,0.406182,-0.0639405,0.304959,-0.397787,0.314052,0.200395,-0.433727,0.809843,1.53259,0.599669,0.429903,-0.435404,0.515755,0,0,0,0,0,0,0,0,0,0,0,0,0,0,0,0,0,0,0,0,0,0,0,0,0,0,0,0,7.23074,0.346664,0.174519
0.202528,0.609272,-0.0959108,0.457439,-0.59668,0.471079,0.300592,-0.402167,0.973442,1.52973,0.661628,0.385842,-0.396218,0.506345,0,0,0,0,0,0,0,0,0,0,0,0,0,0,0,0,0,0,0,0,0,0,0,0,0,0,0,0,7.23074,0.346664,0.174519
0.270038,0.812363,-0.127881,0.609919,-0.795573,0.628105,0.400789,-0.343057,1.12516,1.52964,0.728027,0.336999,-0.352168,0.482065,0,0,0,0,0,0,0,0,0,0,0,0,0,0,0,0,0,0,0,0,0,0,0,0,0,0,0,0,7.23074,0.346664,0.174519
0.337547,1.01545,-0.159851,0.762398,-0.994467,0.785131,0.500987,-0.260273,1.25818,1.53344,0.795224,0.284321,-0.303385,0.441291,0,0,0,0,0,0,0,0,0,0,0,0,0,0,0,0,0,0,0,0,0,0,0,0,0,0,0,0,7.23074,0.346664,0.174519
0.405057,1.21854,-0.191822,0.914878,-1.19336,0.942157,0.601184,-0.159293,1.36719,1.54217,0.85917,0.228813,-0.250104,0.383301,0,0,0,0,0,0,0,0,0,0,0,0,0,0,0,0,0,0,0,0,0,0,0,0,0,0,0,0,7.23074,0.346664,0.174519
0.472566,1.42164,-0.223792,1.06736,-1.39225,1.09918,0.701382,-0.0466277,1.44878,1.55664,0.915628,0.17152,-0.192655,0.308367,0,0,0,0,0,0,0,0,0,0,0,0,0,0,0,0,0,0,0,0,0,0,0,0,0,0,0,0,7.23074,0.346664,0.174519
0.540076,1.62473,-0.255762,1.21984,-1.59115,1.25621,0.801579,0.0708228,1.50159,1.57739,0.960418,0.113512,-0.131463,0.217785,0,0,0,0,0,0,0,0,0,0,0,0,0,0,0,0,0,0,0,0,0,0,0,0,0,0,0,0,7.23074,0.346664,0.174519
0.607585,1.82782,-0.287732,1.37232,-1.79004,1.41324,0.901776,0.186429,1.52625,1.60459,0.989657,0.055862,-0.0670462,0.113856,0,0,0,0,0,0,0,0,0,0,0,0,0,0,0,0,0,0,0,0,0,0,0,0,0,0,0,0,7.23074,0.346664,0.174519
0.675095,2.03091,-0.319703,1.5248,-1.98893,1.57026,1.00197,0.294417,1.52517,1.63803,1,-0.000371249,-5.89347e-06,-0.000199067,0,0,0,0,0,0,0,0,0,0,0,0,0,0,0,0,0,0,0,0,0,0,0,0,0,0,0,0,7.23074,0.346664,0.174519
0.668179,2.02309,-0.328738,1.52285,-1.97796,1.57025,1.00287,0.294555,1.52724,1.62732,1,-0.000373578,-6.31508e-06,-0.000199067,0,0,0,0,0,0,0,0,0,0,0,0,0,0,0,0,0,0,0,0,0,0,0,0,0,0,0,0,7.23074,0.346664,0.174519
0.661264,2.01528,-0.337774,1.52091,-1.96699,1.57024,1.00377,0.294688,1.52919,1.61656,1,-0.000375858,-6.7465e-06,-0.000199068,0,0,0,0,0,0,0,0,0,0,0,0,0,0,0,0,0,0,0,0,0,0,0,0,0,0,0,0,7.23074,0.346664,0.174519
0.654348,2.00746,-0.346809,1.51896,-1.95602,1.57023,1.00468,0.294817,1.53101,1.60575,1,-0.000378089,-7.18799e-06,-0.000199068,0,0,0,0,0,0,0,0,0,0,0,0,0,0,0,0,0,0,0,0,0,0,0,0,0,0,0,0,7.23074,0.346664,0.174519
0.647433,1.99964,-0.355845,1.51702,-1.94505,1.57022,1.00558,0.294943,1.5327,1.59489,1,-0.00038027,-7.63978e-06,-0.000199068,0,0,0,0,0,0,0,0,0,0,0,0,0,0,0,0,0,0,0,0,0,0,0,0,0,0,0,0,7.23074,0.346664,0.174519
0.640517,1.99183,-0.36488,1.51507,-1.93408,1.5702,1.00648,0.295066,1.53428,1.58399,1,-0.000382403,-8.10213e-06,-0.000199069,0,0,0,0,0,0,0,0,0,0,0,0,0,0,0,0,0,0,0,0,0,0,0,0,0,0,0,0,7.23074,0.346664,0.174519
0.633601,1.98401,-0.373916,1.51313,-1.92311,1.57019,1.00738,0.295185,1.53572,1.57305,1,-0.000384486,-8.57527e-06,-0.000199069,0,0,0,0,0,0,0,0,0,0,0,0,0,0,0,0,0,0,0,0,0,0,0,0,0,0,0,0,7.23074,0.346664,0.174519
0.626686,1.9762,-0.382951,1.51119,-1.91214,1.57018,1.00828,0.295301,1.53704,1.56206,1,-0.000386521,-9.05946e-06,-0.000199069,0,0,0,0,0,0,0,0,0,0,0,0,0,0,0,0,0,0,0,0,0,0,0,0,0,0,0,0,7.23074,0.346664,0.174519
0.61977,1.96838,-0.391987,1.50924,-1.90116,1.57017,1.00918,0.295415,1.53824,1.55103,1,-0.000388507,-9.55493e-06,-0.000199069,0,0,0,0,0,0,0,0,0,0,0,0,0,0,0,0,0,0,0,0,0,0,0,0,0,0,0,0,7.23074,0.346664,0.174519
0.612854,1.96056,-0.401022,1.5073,-1.89019,1.57016,1.01008,0.295527,1.53931,1.53996,1,-0.000390444,-1.00619e-05,-0.000199069,0,0,0,0,0,0,0,0,0,0,0,0,0,0,0,0,0,0,0,0,0,0,0,0,0,0,0,0,7.23074,0.346664,0.174519
0.612854,1.96056,-0.401022,1.5073,-1.89019,1.57016,1.01008,0.295527,1.53931,1.53996,1,-0.000390444,-1.00619e-05,-0.000199069,0,0,0,0,0,0,0,0,0,0,0,0,0,0,0,0,0,0,0,0,0,0,0,0,0,0,0,0,7.23074,0.346664,0.174519
0.612854,1.96056,-0.401022,1.5073,-1.89019,1.57016,1.01008,0.295527,1.53931,1.53996,1,-0.000390444,-1.00619e-05,-0.000199069,0,0,0,0,0,0,0,0,0,0,0,0,0,0,0,0,0,0,0,0,0,0,0,0,0,0,0,0,7.23074,0.346664,0.174519
0.612854,1.96056,-0.401022,1.5073,-1.89019,1.57016,1.01008,0.295527,1.53931,1.53996,1,-0.000390444,-1.00619e-05,-0.000199069,0,0,0,0,0,0,0,0,0,0,0,0,0,0,0,0,0,0,0,0,0,0,0,0,0,0,0,0,7.23074,0.346664,0.174519
0.612854,1.96056,-0.401022,1.5073,-1.89019,1.57016,1.01008,0.295527,1.53931,1.53996,1,-0.000390444,-1.00619e-05,-0.000199069,0,0,0,0,0,0,0,0,0,0,0,0,0,0,0,0,0,0,0,0,0,0,0,0,0,0,0,0,7.23074,0.346664,0.174519
0.612854,1.96056,-0.401022,1.5073,-1.89019,1.57016,1.01008,0.295527,1.53931,1.53996,1,-0.000390444,-1.00619e-05,-0.000199069,0,0,0,0,0,0,0,0,0,0,0,0,0,0,0,0,0,0,0,0,0,0,0,0,0,0,0,0,7.23074,0.346664,0.174519
0.612854,1.96056,-0.401022,1.5073,-1.89019,1.57016,1.01008,0.295527,1.53931,1.53996,1,-0.000390444,-1.00619e-05,-0.000199069,0,0,0,0,0,0,0,0,0,0,0,0,0,0,0,0,0,0,0,0,0,0,0,0,0,0,0,0,7.23074,0.346664,0.174519
0.612854,1.96056,-0.401022,1.5073,-1.89019,1.57016,1.01008,0.295527,1.53931,1.53996,1,-0.000390444,-1.00619e-05,-0.000199069,0,0,0,0,0,0,0,0,0,0,0,0,0,0,0,0,0,0,0,0,0,0,0,0,0,0,0,0,7.23074,0.346664,0.174519
0.612854,1.96056,-0.401022,1.5073,-1.89019,1.57016,1.01008,0.295527,1.53931,1.53996,1,-0.000390444,-1.00619e-05,-0.000199069,0,0,0,0,0,0,0,0,0,0,0,0,0,0,0,0,0,0,0,0,0,0,0,0,0,0,0,0,7.23074,0.346664,0.174519
0.612854,1.96056,-0.401022,1.5073,-1.89019,1.57016,1.01008,0.295527,1.53931,1.53996,1,-0.000390444,-1.00619e-05,-0.000199069,0,0,0,0,0,0,0,0,0,0,0,0,0,0,0,0,0,0,0,0,0,0,0,0,0,0,0,0,7.23074,0.346664,0.174519
0.612854,1.96056,-0.401022,1.5073,-1.89019,1.57016,1.01008,0.295527,1.53931,1.53996,1,-0.000390444,-1.00619e-05,-0.000199069,0,0,0,0,0,0,0,0,0,0,0,0,0,0,0,0,0,0,0,0,0,0,0,0,0,0,0,0,7.23074,0.346664,0.174519

4.01248e-21,1.19491e-20,-1.51742e-21,8.20985e-21,-1.10619e-20,9.07359e-21,5.68393e-21,-0.408996,0.478457,1.5421,0.500463,0.500298,-0.499138,0.500099,0,0,0,0,0,0,0,0,0,0,0,0,0,0,0,0,0,0,0,0,0,0,0,0,0,0,0,0,7.22076,0.164622,0.00418848
0.0701858,0.206935,-0.0297,0.148635,-0.197322,0.157034,0.0990293,-0.433829,0.644412,1.53736,0.545187,0.467763,-0.470235,0.512687,0,0,0,0,0,0,0,0,0,0,0,0,0,0,0,0,0,0,0,0,0,0,0,0,0,0,0,0,7.22076,0.164622,0.00418848
0.140372,0.41387,-0.0594,0.297271,-0.394645,0.314069,0.198059,-0.429819,0.813984,1.53311,0.599668,0.428878,-0.436403,0.515765,0,0,0,0,0,0,0,0,0,0,0,0,0,0,0,0,0,0,0,0,0,0,0,0,0,0,0,0,7.22076,0.164622,0.00418848
0.210557,0.620805,-0.0891,0.445906,-0.591967,0.471103,0.297088,-0.396667,0.979074,1.53045,0.661628,0.384439,-0.397563,0.506358,0,0,0,0,0,0,0,0,0,0,0,0,0,0,0,0,0,0,0,0,0,0,0,0,0,0,0,0,7.22076,0.164622,0.00418848
0.280743,0.827741,-0.1188,0.594541,-0.789289,0.628138,0.396117,-0.336306,1.13191,1.53055,0.728027,0.335334,-0.353733,0.48208,0,0,0,0,0,0,0,0,0,0,0,0,0,0,0,0,0,0,0,0,0,0,0,0,0,0,0,0,7.22076,0.164622,0.00418848
0.350929,1.03468,-0.1485,0.743177,-0.986611,0.785172,0.495147,-0.252672,1.26571,1.53458,0.795225,0.282524,-0.305035,0.441306,0,0,0,0,0,0,0,0,0,0,0,0,0,0,0,0,0,0,0,0,0,0,0,0,0,0,0,0,7.22076,0.164622,0.00418848
0.421115,1.24161,-0.1782,0.891812,-1.18393,0.942206,0.594176,-0.151282,1.37523,1.54361,0.859171,0.22703,-0.251697,0.383316,0,0,0,0,0,0,0,0,0,0,0,0,0,0,0,0,0,0,0,0,0,0,0,0,0,0,0,0,7.22076,0.164622,0.00418848
0.491301,1.44855,-0.2079,1.04045,-1.38126,1.09924,0.693205,-0.0386614,1.45711,1.55849,0.91563,0.169912,-0.194046,0.308379,0,0,0,0,0,0,0,0,0,0,0,0,0,0,0,0,0,0,0,0,0,0,0,0,0,0,0,0,7.22076,0.164622,0.00418848
0.561486,1.65548,-0.2376,1.18908,-1.57858,1.25628,0.792235,0.0783102,1.51006,1.57979,0.96042,0.11225,-0.132515,0.217794,0,0,0,0,0,0,0,0,0,0,0,0,0,0,0,0,0,0,0,0,0,0,0,0,0,0,0,0,7.22076,0.164622,0.00418848
0.631672,1.86242,-0.2673,1.33772,-1.7759,1.41331,0.891264,0.193055,1.5348,1.60772,0.989658,0.0551256,-0.0676274,0.113861,0,0,0,0,0,0,0,0,0,0,0,0,0,0,0,0,0,0,0,0,0,0,0,0,0,0,0,0,7.22076,0.164622,0.00418848
0.701858,2.06935,-0.297,1.48635,-1.97322,1.57034,0.990293,0.29988,1.53376,1.6421,1,-0.000397505,3.29034e-07,-0.000199083,0,0,0,0,0,0,0,0,0,0,0,0,0,0,0,0,0,0,0,0,0,0,0,0,0,0,0,0,7.22076,0.164622,0.00418848
0.694916,2.06132,-0.307021,1.486,-1.96285,1.57033,0.991379,0.299902,1.53605,1.63119,1,-0.000397713,3.22061e-07,-0.000199083,0,0,0,0,0,0,0,0,0,0,0,0,0,0,0,0,0,0,0,0,0,0,0,0,0,0,0,0,7.22076,0.164622,0.00418848
0.687973,2.0533,-0.317042,1.48564,-1.95248,1.57032,0.992464,0.299917,1.53822,1.62023,1,-0.00039787,3.10087e-07,-0.000199083,0,0,0,0,0,0,0,0,0,0,0,0,0,0,0,0,0,0,0,0,0,0,0,0,0,0,0,0,7.22076,0.164622,0.00418848
0.681031,2.04527,-0.327062,1.48529,-1.94211,1.57031,0.993549,0.299926,1.54026,1.60922,1,-0.000397975,2.92867e-07,-0.000199083,0,0,0,0,0,0,0,0,0,0,0,0,0,0,0,0,0,0,0,0,0,0,0,0,0,0,0,0,7.22076,0.164622,0.00418848
0.674088,2.03724,-0.337083,1.48494,-1.93174,1.5703,0.994634,0.299929,1.54217,1.59816,1,-0.00039803,2.70157e-07,-0.000199083,0,0,0,0,0,0,0,0,0,0,0,0,0,0,0,0,0,0,0,0,0,0,0,0,0,0,0,0,7.22076,0.164622,0.00418848
0.667146,2.02921,-0.347104,1.48458,-1.92137,1.57028,0.99572,0.299926,1.54394,1.58706,1,-0.000398033,2.41715e-07,-0.000199083,0,0,0,0,0,0,0,0,0,0,0,0,0,0,0,0,0,0,0,0,0,0,0,0,0,0,0,0,7.22076,0.164622,0.00418848
0.660203,2.02119,-0.357125,1.48423,-1.911,1.57027,0.996805,0.299918,1.54559,1.5759,1,-0.000397986,2.07296e-07,-0.000199082,0,0,0,0,0,0,0,0,0,0,0,0,0,0,0,0,0,0,0,0,0,0,0,0,0,0,0,0,7.22076,0.164622,0.00418848
0.653261,2.01316,-0.367146,1.48387,-1.90062,1.57026,0.99789,0.299906,1.54711,1.5647,1,-0.000397887,1.66659e-07,-0.000199082,0,0,0,0,0,0,0,0,0,0,0,0,0,0,0,0,0,0,0,0,0,0,0,0,0,0,0,0,7.22076,0.164622,0.00418848
0.646319,2.00513,-0.377166,1.48352,-1.89025,1.57025,0.998976,0.299889,1.54849,1.55346,1,-0.000397738,1.19561e-07,-0.000199082,0,0,0,0,0,0,0,0,0,0,0,0,0,0,0,0,0,0,0,0,0,0,0,0,0,0,0,0,7.22076,0.164622,0.00418848
0.639376,1.9971,-0.387187,1.48316,-1.87988,1.57023,1.00006,0.299867,1.54975,1.54217,1,-0.000397537,6.57579e-08,-0.000199082,0,0,0,0,0,0,0,0,0,0,0,0,0,0,0,0,0,0,0,0,0,0,0,0,0,0,0,0,7.22076,0.164622,0.00418848
0.639376,1.9971,-0.387187,1.48316,-1.87988,1.57023,1.00006,0.299867,1.54975,1.54217,1,-0.000397537,6.57579e-08,-0.000199082,0,0,0,0,0,0,0,0,0,0,0,0,0,0,0,0,0,0,0,0,0,0,0,0,0,0,0,0,7.22076,0.164622,0.00418848
0.639376,1.9971,-0.387187,1.48316,-1.87988,1.57023,1.00006,0.299867,1.54975,1.54217,1,-0.000397537,6.57579e-08,-0.000199082,0,0,0,0,0,0,0,0,0,0,0,0,0,0,0,0,0,0,0,0,0,0,0,0,0,0,0,0,7.22076,0.164622,0.00418848
0.639376,1.9971,-0.387187,1.48316,-1.87988,1.57023,1.00006,0.299867,1.54975,1.54217,1,-0.000397537,6.57579e-08,-0.000199082,0,0,0,0,0,0,0,0,0,0,0,0,0,0,0,0,0,0,0,0,0,0,0,0,0,0,0,0,7.22076,0.164622,0.00418848
0.639376,1.9971,-0.387187,1.48316,-1.87988,1.57023,1.00006,0.299867,1.54975,1.54217,1,-0.000397537,6.57579e-08,-0.000199082,0,0,0,0,0,0,0,0,0,0,0,0,0,0,0,0,0,0,0,0,0,0,0,0,0,0,0,0,7.22076,0.164622,0.00418848
0.639376,1.9971,-0.387187,1.48316,-1.87988,1.57023,1.00006,0.299867,1.54975,1.54217,1,-0.000397537,6.57579e-08,-0.000199082,0,0,0,0,0,0,0,0,0,0,0,0,0,0,0,0,0,0,0,0,0,0,0,0,0,0,0,0,7.22076,0.164622,0.00418848
0.639376,1.9971,-0.387187,1.48316,-1.87988,1.57023,1.00006,0.299867,1.54975,1.54217,1,-0.000397537,6.57579e-08,-0.000199082,0,0,0,0,0,0,0,0,0,0,0,0,0,0,0,0,0,0,0,0,0,0,0,0,0,0,0,0,7.22076,0.164622,0.00418848
0.639376,1.9971,-0.387187,1.48316,-1.87988,1.57023,1.00006,0.299867,1.54975,1.54217,1,-0.000397537,6.57579e-08,-0.000199082,0,0,0,0,0,0,0,0,0,0,0,0,0,0,0,0,0,0,0,0,0,0,0,0,0,0,0,0,7.22076,0.164622,0.00418848
0.639376,1.9971,-0.387187,1.48316,-1.87988,1.57023,1.00006,0.299867,1.54975,1.54217,1,-0.000397537,6.57579e-08,-0.000199082,0,0,0,0,0,0,0,0,0,0,0,0,0,0,0,0,0,0,0,0,0,0,0,0,0,0,0,0,7.22076,0.164622,0.00418848
0.639376,1.9971,-0.387187,1.48316,-1.87988,1.57023,1.00006,0.299867,1.54975,1.54217,1,-0.000397537,6.57579e-08,-0.000199082,0,0,0,0,0,0,0,0,0,0,0,0,0,0,0,0,0,0,0,0,0,0,0,0,0,0,0,0,7.22076,0.164622,0.00418848
0.639376,1.9971,-0.387187,1.48316,-1.87988,1.57023,1.00006,0.299867,1.54975,1.54217,1,-0.000397537,6.57579e-08,-0.000199082,0,0,0,0,0,0,0,0,0,0,0,0,0,0,0,0,0,0,0,0,0,0,0,0,0,0,0,0,7.22076,0.164622,0.00418848

4.13484e-21,1.2074e-20,-1.61617e-21,8.25123e-21,-1.11246e-20,9.07134e-21,5.6773e-21,-0.408996,0.478457,1.5421,0.500463,0.500298,-0.499138,0.500099,0,0,0,0,0,0,0,0,0,0,0,0,0,0,0,0,0,0,0,0,0,0,0,0,0,0,0,0,7.2204,0.013848,0.00716406
0.0746207,0.212628,-0.0268449,0.142869,-0.194408,0.157043,0.0977712,-0.431108,0.647549,1.53731,0.545187,0.467168,-0.47082,0.512692,0,0,0,0,0,0,0,0,0,0,0,0,0,0,0,0,0,0,0,0,0,0,0,0,0,0,0,0,7.2204,0.013848,0.00716406
0.149241,0.425256,-0.0536898,0.285738,-0.388817,0.314086,0.195542,-0.424867,0.819691,1.53285,0.599669,0.427773,-0.437476,0.515774,0,0,0,0,0,0,0,0,0,0,0,0,0,0,0,0,0,0,0,0,0,0,0,0,0,0,0,0,7.2204,0.013848,0.00716406
0.223862,0.637885,-0.0805347,0.428606,-0.583225,0.471129,0.293314,-0.390088,0.986834,1.52988,0.661628,0.382927,-0.399004,0.50637,0,0,0,0,0,0,0,0,0,0,0,0,0,0,0,0,0,0,0,0,0,0,0,0,0,0,0,0,7.2204,0.013848,0.00716406
0.298483,0.850513,-0.10738,0.571475,-0.777634,0.628172,0.391085,-0.328784,1.14128,1.52963,0.728028,0.333537,-0.355408,0.482093,0,0,0,0,0,0,0,0,0,0,0,0,0,0,0,0,0,0,0,0,0,0,0,0,0,0,0,0,7.2204,0.013848,0.00716406
0.373104,1.06314,-0.134224,0.714344,-0.972042,0.785215,0.488856,-0.244933,1.27636,1.53335,0.795225,0.280585,-0.306799,0.441319,0,0,0,0,0,0,0,0,0,0,0,0,0,0,0,0,0,0,0,0,0,0,0,0,0,0,0,0,7.2204,0.013848,0.00716406
0.447724,1.27577,-0.161069,0.857213,-1.16645,0.942259,0.586627,-0.144045,1.38691,1.54215,0.859172,0.225108,-0.253398,0.383328,0,0,0,0,0,0,0,0,0,0,0,0,0,0,0,0,0,0,0,0,0,0,0,0,0,0,0,0,7.2204,0.013848,0.00716406
0.522345,1.4884,-0.187914,1.00008,-1.36086,1.0993,0.684398,-0.0325912,1.46971,1.55697,0.91563,0.168181,-0.195533,0.308389,0,0,0,0,0,0,0,0,0,0,0,0,0,0,0,0,0,0,0,0,0,0,0,0,0,0,0,0,7.2204,0.013848,0.00716406
0.596966,1.70103,-0.214759,1.14295,-1.55527,1.25634,0.782169,0.082653,1.52354,1.57843,0.960419,0.110898,-0.133638,0.217801,0,0,0,0,0,0,0,0,0,0,0,0,0,0,0,0,0,0,0,0,0,0,0,0,0,0,0,0,7.2204,0.013848,0.00716406
0.671587,1.91365,-0.241604,1.28582,-1.74968,1.41339,0.879941,0.195256,1.5492,1.60681,0.989658,0.0543492,-0.0682507,0.113864,0,0,0,0,0,0,0,0,0,0,0,0,0,0,0,0,0,0,0,0,0,0,0,0,0,0,0,0,7.2204,0.013848,0.00716406
0.746207,2.12628,-0.268449,1.42869,-1.94408,1.57043,0.977712,0.299702,1.54913,1.64199,1,-0.00039688,-1.10903e-08,-0.000199081,0,0,0,0,0,0,0,0,0,0,0,0,0,0,0,0,0,0,0,0,0,0,0,0,0,0,0,0,7.2204,0.013848,0.00716406
0.734817,2.11251,-0.278491,1.42833,-1.93369,1.57041,0.98009,0.299941,1.54984,1.63108,1,-0.000397621,5.10166e-08,-0.000199082,0,0,0,0,0,0,0,0,0,0,0,0,0,0,0,0,0,0,0,0,0,0,0,0,0,0,0,0,7.2204,0.013848,0.00716406
0.723426,2.09874,-0.288533,1.42798,-1.9233,1.57039,0.982468,0.300131,1.55039,1.62012,1,-0.000398213,1.02411e-07,-0.000199082,0,0,0,0,0,0,0,0,0,0,0,0,0,0,0,0,0,0,0,0,0,0,0,0,0,0,0,0,7.2204,0.013848,0.00716406
0.712035,2.08498,-0.298575,1.42762,-1.91291,1.57037,0.984847,0.300271,1.55077,1.6091,1,-0.000398653,1.42091e-07,-0.000199082,0,0,0,0,0,0,0,0,0,0,0,0,0,0,0,0,0,0,0,0,0,0,0,0,0,0,0,0,7.2204,0.013848,0.00716406
0.700644,2.07121,-0.308617,1.42727,-1.90253,1.57035,0.987225,0.300362,1.55098,1.59804,1,-0.000398943,1.69058e-07,-0.000199082,0,0,0,0,0,0,0,0,0,0,0,0,0,0,0,0,0,0,0,0,0,0,0,0,0,0,0,0,7.2204,0.013848,0.00716406
0.689253,2.05744,-0.318659,1.42692,-1.89214,1.57033,0.989603,0.300404,1.55102,1.58693,1,-0.000399083,1.82311e-07,-0.000199082,0,0,0,0,0,0,0,0,0,0,0,0,0,0,0,0,0,0,0,0,0,0,0,0,0,0,0,0,7.2204,0.013848,0.00716406
0.677862,2.04367,-0.328701,1.42656,-1.88175,1.57031,0.991981,0.300398,1.5509,1.57577,1,-0.000399073,1.80854e-07,-0.000199082,0,0,0,0,0,0,0,0,0,0,0,0,0,0,0,0,0,0,0,0,0,0,0,0,0,0,0,0,7.2204,0.013848,0.00716406
0.666471,2.0299,-0.338743,1.42621,-1.87136,1.57028,0.99436,0.300343,1.55062,1.56457,1,-0.000398912,1.63691e-07,-0.000199082,0,0,0,0,0,0,0,0,0,0,0,0,0,0,0,0,0,0,0,0,0,0,0,0,0,0,0,0,7.2204,0.013848,0.00716406
0.65508,2.01613,-0.348785,1.42585,-1.86097,1.57026,0.996738,0.300241,1.55016,1.55332,1,-0.000398602,1.29825e-07,-0.000199082,0,0,0,0,0,0,0,0,0,0,0,0,0,0,0,0,0,0,0,0,0,0,0,0,0,0,0,0,7.2204,0.013848,0.00716406
0.64369,2.00236,-0.358827,1.4255,-1.85058,1.57024,0.999116,0.300093,1.54955,1.54203,1,-0.000398141,7.82631e-08,-0.000199082,0,0,0,0,0,0,0,0,0,0,0,0,0,0,0,0,0,0,0,0,0,0,0,0,0,0,0,0,7.2204,0.013848,0.00716406
0.64369,2.00236,-0.358827,1.4255,-1.85058,1.57024,0.999116,0.300093,1.54955,1.54203,1,-0.000398141,7.82631e-08,-0.000199082,0,0,0,0,0,0,0,0,0,0,0,0,0,0,0,0,0,0,0,0,0,0,0,0,0,0,0,0,7.2204,0.013848,0.00716406
0.64369,2.00236,-0.358827,1.4255,-1.85058,1.57024,0.999116,0.300093,1.54955,1.54203,1,-0.000398141,7.82631e-08,-0.000199082,0,0,0,0,0,0,0,0,0,0,0,0,0,0,0,0,0,0,0,0,0,0,0,0,0,0,0,0,7.2204,0.013848,0.00716406
0.64369,2.00236,-0.358827,1.4255,-1.85058,1.57024,0.999116,0.300093,1.54955,1.54203,1,-0.000398141,7.82631e-08,-0.000199082,0,0,0,0,0,0,0,0,0,0,0,0,0,0,0,0,0,0,0,0,0,0,0,0,0,0,0,0,7.2204,0.013848,0.00716406
0.64369,2.00236,-0.358827,1.4255,-1.85058,1.57024,0.999116,0.300093,1.54955,1.54203,1,-0.000398141,7.82631e-08,-0.000199082,0,0,0,0,0,0,0,0,0,0,0,0,0,0,0,0,0,0,0,0,0,0,0,0,0,0,0,0,7.2204,0.013848,0.00716406
0.64369,2.00236,-0.358827,1.4255,-1.85058,1.57024,0.999116,0.300093,1.54955,1.54203,1,-0.000398141,7.82631e-08,-0.000199082,0,0,0,0,0,0,0,0,0,0,0,0,0,0,0,0,0,0,0,0,0,0,0,0,0,0,0,0,7.2204,0.013848,0.00716406
0.64369,2.00236,-0.358827,1.4255,-1.85058,1.57024,0.999116,0.300093,1.54955,1.54203,1,-0.000398141,7.82631e-08,-0.000199082,0,0,0,0,0,0,0,0,0,0,0,0,0,0,0,0,0,0,0,0,0,0,0,0,0,0,0,0,7.2204,0.013848,0.00716406
0.64369,2.00236,-0.358827,1.4255,-1.85058,1.57024,0.999116,0.300093,1.54955,1.54203,1,-0.000398141,7.82631e-08,-0.000199082,0,0,0,0,0,0,0,0,0,0,0,0,0,0,0,0,0,0,0,0,0,0,0,0,0,0,0,0,7.2204,0.013848,0.00716406
0.64369,2.00236,-0.358827,1.4255,-1.85058,1.57024,0.999116,0.300093,1.54955,1.54203,1,-0.000398141,7.82631e-08,-0.000199082,0,0,0,0,0,0,0,0,0,0,0,0,0,0,0,0,0,0,0,0,0,0,0,0,0,0,0,0,7.2204,0.013848,0.00716406
0.64369,2.00236,-0.358827,1.4255,-1.85058,1.57024,0.999116,0.300093,1.54955,1.54203,1,-0.000398141,7.82631e-08,-0.000199082,0,0,0,0,0,0,0,0,0,0,0,0,0,0,0,0,0,0,0,0,0,0,0,0,0,0,0,0,7.2204,0.013848,0.00716406
0.64369,2.00236,-0.358827,1.4255,-1.85058,1.57024,0.999116,0.300093,1.54955,1.54203,1,-0.000398141,7.82631e-08,-0.000199082,0,0,0,0,0,0,0,0,0,0,0,0,0,0,0,0,0,0,0,0,0,0,0,0,0,0,0,0,7.2204,0.013848,0.00716406

4.14642e-21,1.20767e-20,-1.59276e-21,8.19866e-21,-1.1102e-20,9.06514e-21,5.69261e-21,-0.408996,0.478457,1.5421,0.500463,0.500298,-0.499138,0.500099,0,0,0,0,0,0,0,0,0,0,0,0,0,0,0,0,0,0,0,0,0,0,0,0,0,0,0,0,7.21098,0.000189858,0.000160391
0.0749746,0.213106,-0.0263926,0.142004,-0.193996,0.157044,0.0976474,-0.43072,0.647799,1.53732,0.545187,0.46711,-0.470878,0.512693,0,0,0,0,0,0,0,0,0,0,0,0,0,0,0,0,0,0,0,0,0,0,0,0,0,0,0,0,7.21098,0.000189858,0.000160391
0.149949,0.426212,-0.0527852,0.284008,-0.387992,0.314088,0.195295,-0.424157,0.820109,1.53286,0.599669,0.427664,-0.437581,0.515775,0,0,0,0,0,0,0,0,0,0,0,0,0,0,0,0,0,0,0,0,0,0,0,0,0,0,0,0,7.21098,0.000189858,0.000160391
0.224924,0.639318,-0.0791778,0.426011,-0.581987,0.471132,0.292942,-0.389138,0.987351,1.52986,0.661628,0.382778,-0.399145,0.506371,0,0,0,0,0,0,0,0,0,0,0,0,0,0,0,0,0,0,0,0,0,0,0,0,0,0,0,0,7.21098,0.000189858,0.000160391
0.299898,0.852424,-0.10557,0.568015,-0.775983,0.628176,0.390589,-0.327689,1.14185,1.52959,0.728028,0.33336,-0.355573,0.482095,0,0,0,0,0,0,0,0,0,0,0,0,0,0,0,0,0,0,0,0,0,0,0,0,0,0,0,0,7.21098,0.000189858,0.000160391
0.374873,1.06553,-0.131963,0.710019,-0.969979,0.785219,0.488237,-0.243789,1.27694,1.53329,0.795225,0.280393,-0.306972,0.441321,0,0,0,0,0,0,0,0,0,0,0,0,0,0,0,0,0,0,0,0,0,0,0,0,0,0,0,0,7.21098,0.000189858,0.000160391
0.449847,1.27864,-0.158356,0.852023,-1.16397,0.942263,0.585884,-0.142947,1.38751,1.54209,0.859172,0.224917,-0.253565,0.383329,0,0,0,0,0,0,0,0,0,0,0,0,0,0,0,0,0,0,0,0,0,0,0,0,0,0,0,0,7.21098,0.000189858,0.000160391
0.524822,1.49174,-0.184748,0.994027,-1.35797,1.09931,0.683532,-0.0316206,1.47032,1.55691,0.91563,0.16801,-0.195678,0.30839,0,0,0,0,0,0,0,0,0,0,0,0,0,0,0,0,0,0,0,0,0,0,0,0,0,0,0,0,7.21098,0.000189858,0.000160391
0.599797,1.70485,-0.211141,1.13603,-1.55197,1.25635,0.781179,0.0834313,1.52421,1.57842,0.960419,0.110764,-0.133748,0.217801,0,0,0,0,0,0,0,0,0,0,0,0,0,0,0,0,0,0,0,0,0,0,0,0,0,0,0,0,7.21098,0.000189858,0.000160391
0.674771,1.91795,-0.237533,1.27803,-1.74596,1.4134,0.878826,0.195801,1.54994,1.60689,0.989658,0.0542714,-0.0683115,0.113864,0,0,0,0,0,0,0,0,0,0,0,0,0,0,0,0,0,0,0,0,0,0,0,0,0,0,0,0,7.21098,0.000189858,0.000160391
0.749746,2.13106,-0.263926,1.42004,-1.93996,1.57044,0.976474,0.299999,1.54999,1.6422,1,-0.000398076,8.04275e-08,-0.000199082,0,0,0,0,0,0,0,0,0,0,0,0,0,0,0,0,0,0,0,0,0,0,0,0,0,0,0,0,7.21098,0.000189858,0.000160391
0.738202,2.11704,-0.273976,1.41968,-1.92956,1.57042,0.978944,0.300204,1.55066,1.63128,1,-0.000398709,1.32001e-07,-0.00019908,0,0,0,0,0,0,0,0,0,0,0,0,0,0,0,0,0,0,0,0,0,0,0,0,0,0,0,0,7.21098,0.000189858,0.000160391
0.726658,2.10303,-0.284026,1.41933,-1.91916,1.5704,0.981415,0.300357,1.55117,1.62031,1,-0.000399185,1.73548e-07,-0.000199078,0,0,0,0,0,0,0,0,0,0,0,0,0,0,0,0,0,0,0,0,0,0,0,0,0,0,0,0,7.21098,0.000189858,0.000160391
0.715114,2.08902,-0.294076,1.41897,-1.90876,1.57037,0.983885,0.300458,1.55151,1.60929,1,-0.000399506,2.04037e-07,-0.000199077,0,0,0,0,0,0,0,0,0,0,0,0,0,0,0,0,0,0,0,0,0,0,0,0,0,0,0,0,7.21098,0.000189858,0.000160391
0.70357,2.075,-0.304126,1.41862,-1.89837,1.57035,0.986356,0.300508,1.55168,1.59823,1,-0.000399671,2.22437e-07,-0.000199075,0,0,0,0,0,0,0,0,0,0,0,0,0,0,0,0,0,0,0,0,0,0,0,0,0,0,0,0,7.21098,0.000189858,0.000160391
0.692026,2.06099,-0.314177,1.41827,-1.88797,1.57033,0.988826,0.300507,1.55168,1.58711,1,-0.00039968,2.27718e-07,-0.000199073,0,0,0,0,0,0,0,0,0,0,0,0,0,0,0,0,0,0,0,0,0,0,0,0,0,0,0,0,7.21098,0.000189858,0.000160391
0.680482,2.04697,-0.324227,1.41791,-1.87757,1.57031,0.991297,0.300455,1.55151,1.57595,1,-0.000399533,2.1885e-07,-0.000199071,0,0,0,0,0,0,0,0,0,0,0,0,0,0,0,0,0,0,0,0,0,0,0,0,0,0,0,0,7.21098,0.000189858,0.000160391
0.668938,2.03296,-0.334277,1.41756,-1.86717,1.57029,0.993767,0.300353,1.55117,1.56474,1,-0.000399231,1.94807e-07,-0.000199069,0,0,0,0,0,0,0,0,0,0,0,0,0,0,0,0,0,0,0,0,0,0,0,0,0,0,0,0,7.21098,0.000189858,0.000160391
0.657394,2.01894,-0.344327,1.4172,-1.85677,1.57027,0.996238,0.300202,1.55066,1.55349,1,-0.000398773,1.54562e-07,-0.000199067,0,0,0,0,0,0,0,0,0,0,0,0,0,0,0,0,0,0,0,0,0,0,0,0,0,0,0,0,7.21098,0.000189858,0.000160391
0.64585,2.00493,-0.354377,1.41685,-1.84637,1.57025,0.998708,0.300001,1.54999,1.5422,1,-0.00039816,9.70905e-08,-0.000199065,0,0,0,0,0,0,0,0,0,0,0,0,0,0,0,0,0,0,0,0,0,0,0,0,0,0,0,0,7.21098,0.000189858,0.000160391
0.64585,2.00493,-0.354377,1.41685,-1.84637,1.57025,0.998708,0.300001,1.54999,1.5422,1,-0.00039816,9.70905e-08,-0.000199065,0,0,0,0,0,0,0,0,0,0,0,0,0,0,0,0,0,0,0,0,0,0,0,0,0,0,0,0,7.21098,0.000189858,0.000160391
0.64585,2.00493,-0.354377,1.41685,-1.84637,1.57025,0.998708,0.300001,1.54999,1.5422,1,-0.00039816,9.70905e-08,-0.000199065,0,0,0,0,0,0,0,0,0,0,0,0,0,0,0,0,0,0,0,0,0,0,0,0,0,0,0,0,7.21098,0.000189858,0.000160391
0.64585,2.00493,-0.354377,1.41685,-1.84637,1.57025,0.998708,0.300001,1.54999,1.5422,1,-0.00039816,9.70905e-08,-0.000199065,0,0,0,0,0,0,0,0,0,0,0,0,0,0,0,0,0,0,0,0,0,0,0,0,0,0,0,0,7.21098,0.000189858,0.000160391
0.64585,2.00493,-0.354377,1.41685,-1.84637,1.57025,0.998708,0.300001,1.54999,1.5422,1,-0.00039816,9.70905e-08,-0.000199065,0,0,0,0,0,0,0,0,0,0,0,0,0,0,0,0,0,0,0,0,0,0,0,0,0,0,0,0,7.21098,0.000189858,0.000160391
0.64585,2.00493,-0.354377,1.41685,-1.84637,1.57025,0.998708,0.300001,1.54999,1.5422,1,-0.00039816,9.70905e-08,-0.000199065,0,0,0,0,0,0,0,0,0,0,0,0,0,0,0,0,0,0,0,0,0,0,0,0,0,0,0,0,7.21098,0.000189858,0.000160391
0.64585,2.00493,-0.354377,1.41685,-1.84637,1.57025,0.998708,0.300001,1.54999,1.5422,1,-0.00039816,9.70905e-08,-0.000199065,0,0,0,0,0,0,0,0,0,0,0,0,0,0,0,0,0,0,0,0,0,0,0,0,0,0,0,0,7.21098,0.000189858,0.000160391
0.64585,2.00493,-0.354377,1.41685,-1.84637,1.57025,0.998708,0.300001,1.54999,1.5422,1,-0.00039816,9.70905e-08,-0.000199065,0,0,0,0,0,0,0,0,0,0,0,0,0,0,0,0,0,0,0,0,0,0,0,0,0,0,0,0,7.21098,0.000189858,0.000160391
0.64585,2.00493,-0.354377,1.41685,-1.84637,1.57025,0.998708,0.300001,1.54999,1.5422,1,-0.00039816,9.70905e-08,-0.000199065,0,0,0,0,0,0,0,0,0,0,0,0,0,0,0,0,0,0,0,0,0,0,0,0,0,0,0,0,7.21098,0.000189858,0.000160391
0.64585,2.00493,-0.354377,1.41685,-1.84637,1.57025,0.998708,0.300001,1.54999,1.5422,1,-0.00039816,9.70905e-08,-0.000199065,0,0,0,0,0,0,0,0,0,0,0,0,0,0,0,0,0,0,0,0,0,0,0,0,0,0,0,0,7.21098,0.000189858,0.000160391
0.64585,2.00493,-0.354377,1.41685,-1.84637,1.57025,0.998708,0.300001,1.54999,1.5422,1,-0.00039816,9.70905e-08,-0.000199065,0,0,0,0,0,0,0,0,0,0,0,0,0,0,0,0,0,0,0,0,0,0,0,0,0,0,0,0,7.21098,0.000189858,0.000160391

4.15196e-21,1.20797e-20,-1.55904e-21,8.12245e-21,-1.10556e-20,9.06272e-21,5.69813e-21,-0.408996,0.478457,1.5421,0.500463,0.500298,-0.499138,0.500099,0,0,0,0,0,0,0,0,0,0,0,0,0,0,0,0,0,0,0,0,0,0,0,0,0,0,0,0,7.1839,0.000371451,0.000361501
0.0751449,0.213318,-0.0257418,0.140706,-0.193349,0.157044,0.0976059,-0.430205,0.647856,1.53732,0.545187,0.46709,-0.470897,0.512693,0,0,0,0,0,0,0,0,0,0,0,0,0,0,0,0,0,0,0,0,0,0,0,0,0,0,0,0,7.1839,0.000371451,0.000361501
0.15029,0.426635,-0.0514836,0.281413,-0.386698,0.314088,0.195212,-0.423239,0.820107,1.53282,0.599669,0.427627,-0.437616,0.515775,0,0,0,0,0,0,0,0,0,0,0,0,0,0,0,0,0,0,0,0,0,0,0,0,0,0,0,0,7.1839,0.000371451,0.000361501
0.225435,0.639953,-0.0772254,0.422119,-0.580047,0.471133,0.292818,-0.387954,0.987212,1.52977,0.661628,0.382728,-0.399193,0.506372,0,0,0,0,0,0,0,0,0,0,0,0,0,0,0,0,0,0,0,0,0,0,0,0,0,0,0,0,7.1839,0.000371451,0.000361501
0.30058,0.853271,-0.102967,0.562825,-0.773396,0.628177,0.390424,-0.326385,1.14154,1.52943,0.728028,0.333301,-0.355628,0.482095,0,0,0,0,0,0,0,0,0,0,0,0,0,0,0,0,0,0,0,0,0,0,0,0,0,0,0,0,7.1839,0.000371451,0.000361501
0.375725,1.06659,-0.128709,0.703532,-0.966746,0.785221,0.48803,-0.242507,1.27647,1.53306,0.795225,0.280329,-0.30703,0.441321,0,0,0,0,0,0,0,0,0,0,0,0,0,0,0,0,0,0,0,0,0,0,0,0,0,0,0,0,7.1839,0.000371451,0.000361501
0.45087,1.27991,-0.154451,0.844238,-1.16009,0.942265,0.585635,-0.141811,1.38693,1.54181,0.859172,0.224854,-0.253621,0.383329,0,0,0,0,0,0,0,0,0,0,0,0,0,0,0,0,0,0,0,0,0,0,0,0,0,0,0,0,7.1839,0.000371451,0.000361501
0.526015,1.49322,-0.180193,0.984945,-1.35344,1.09931,0.683241,-0.0307277,1.46972,1.55662,0.91563,0.167952,-0.195727,0.30839,0,0,0,0,0,0,0,0,0,0,0,0,0,0,0,0,0,0,0,0,0,0,0,0,0,0,0,0,7.1839,0.000371451,0.000361501
0.601159,1.70654,-0.205934,1.12565,-1.54679,1.25635,0.780847,0.0840248,1.52369,1.57816,0.960419,0.110719,-0.133785,0.217802,0,0,0,0,0,0,0,0,0,0,0,0,0,0,0,0,0,0,0,0,0,0,0,0,0,0,0,0,7.1839,0.000371451,0.000361501
0.676304,1.91986,-0.231676,1.26636,-1.74014,1.4134,0.878453,0.196083,1.54962,1.60672,0.989658,0.0542455,-0.0683318,0.113865,0,0,0,0,0,0,0,0,0,0,0,0,0,0,0,0,0,0,0,0,0,0,0,0,0,0,0,0,7.1839,0.000371451,0.000361501
0.751449,2.13318,-0.257418,1.40706,-1.93349,1.57044,0.976059,0.300003,1.54998,1.64219,1,-0.000398163,1.54719e-07,-0.000199014,0,0,0,0,0,0,0,0,0,0,0,0,0,0,0,0,0,0,0,0,0,0,0,0,0,0,0,0,7.1839,0.000371451,0.000361501
0.739883,2.11913,-0.267474,1.40671,-1.92309,1.57042,0.978544,0.30021,1.55066,1.63127,1,-0.000398791,1.95455e-07,-0.000199021,0,0,0,0,0,0,0,0,0,0,0,0,0,0,0,0,0,0,0,0,0,0,0,0,0,0,0,0,7.1839,0.000371451,0.000361501
0.728317,2.10507,-0.277529,1.40635,-1.91268,1.5704,0.981029,0.300363,1.55116,1.62031,1,-0.000399263,2.26398e-07,-0.000199028,0,0,0,0,0,0,0,0,0,0,0,0,0,0,0,0,0,0,0,0,0,0,0,0,0,0,0,0,7.1839,0.000371451,0.000361501
0.716751,2.09102,-0.287585,1.406,-1.90228,1.57038,0.983514,0.300465,1.5515,1.60929,1,-0.000399577,2.46513e-07,-0.000199035,0,0,0,0,0,0,0,0,0,0,0,0,0,0,0,0,0,0,0,0,0,0,0,0,0,0,0,0,7.1839,0.000371451,0.000361501
0.705186,2.07697,-0.297641,1.40565,-1.89188,1.57036,0.986,0.300514,1.55167,1.59822,1,-0.000399735,2.54763e-07,-0.000199042,0,0,0,0,0,0,0,0,0,0,0,0,0,0,0,0,0,0,0,0,0,0,0,0,0,0,0,0,7.1839,0.000371451,0.000361501
0.69362,2.06292,-0.307696,1.40529,-1.88147,1.57034,0.988485,0.300513,1.55167,1.58711,1,-0.000399737,2.50114e-07,-0.000199049,0,0,0,0,0,0,0,0,0,0,0,0,0,0,0,0,0,0,0,0,0,0,0,0,0,0,0,0,7.1839,0.000371451,0.000361501
0.682054,2.04887,-0.317752,1.40494,-1.87107,1.57031,0.99097,0.300461,1.5515,1.57595,1,-0.000399581,2.31534e-07,-0.000199056,0,0,0,0,0,0,0,0,0,0,0,0,0,0,0,0,0,0,0,0,0,0,0,0,0,0,0,0,7.1839,0.000371451,0.000361501
0.670488,2.03482,-0.327808,1.40458,-1.86066,1.57029,0.993455,0.300359,1.55116,1.56474,1,-0.000399269,1.97991e-07,-0.000199063,0,0,0,0,0,0,0,0,0,0,0,0,0,0,0,0,0,0,0,0,0,0,0,0,0,0,0,0,7.1839,0.000371451,0.000361501
0.658922,2.02077,-0.337863,1.40423,-1.85026,1.57027,0.99594,0.300206,1.55065,1.55349,1,-0.000398801,1.48453e-07,-0.000199069,0,0,0,0,0,0,0,0,0,0,0,0,0,0,0,0,0,0,0,0,0,0,0,0,0,0,0,0,7.1839,0.000371451,0.000361501
0.647356,2.00672,-0.347919,1.40387,-1.83986,1.57025,0.998425,0.300004,1.54998,1.54219,1,-0.000398177,8.18936e-08,-0.000199076,0,0,0,0,0,0,0,0,0,0,0,0,0,0,0,0,0,0,0,0,0,0,0,0,0,0,0,0,7.1839,0.000371451,0.000361501
0.647356,2.00672,-0.347919,1.40387,-1.83986,1.57025,0.998425,0.300004,1.54998,1.54219,1,-0.000398177,8.18936e-08,-0.000199076,0,0,0,0,0,0,0,0,0,0,0,0,0,0,0,0,0,0,0,0,0,0,0,0,0,0,0,0,7.1839,0.000371451,0.000361501
0.647356,2.00672,-0.347919,1.40387,-1.83986,1.57025,0.998425,0.300004,1.54998,1.54219,1,-0.000398177,8.18936e-08,-0.000199076,0,0,0,0,0,0,0,0,0,0,0,0,0,0,0,0,0,0,0,0,0,0,0,0,0,0,0,0,7.1839,0.000371451,0.000361501
0.647356,2.00672,-0.347919,1.40387,-1.83986,1.57025,0.998425,0.300004,1.54998,1.54219,1,-0.000398177,8.18936e-08,-0.000199076,0,0,0,0,0,0,0,0,0,0,0,0,0,0,0,0,0,0,0,0,0,0,0,0,0,0,0,0,7.1839,0.000371451,0.000361501
0.647356,2.00672,-0.347919,1.40387,-1.83986,1.57025,0.998425,0.300004,1.54998,1.54219,1,-0.000398177,8.18936e-08,-0.000199076,0,0,0,0,0,0,0,0,0,0,0,0,0,0,0,0,0,0,0,0,0,0,0,0,0,0,0,0,7.1839,0.000371451,0.000361501
0.647356,2.00672,-0.347919,1.40387,-1.83986,1.57025,0.998425,0.300004,1.54998,1.54219,1,-0.000398177,8.18936e-08,-0.000199076,0,0,0,0,0,0,0,0,0,0,0,0,0,0,0,0,0,0,0,0,0,0,0,0,0,0,0,0,7.1839,0.000371451,0.000361501
0.647356,2.00672,-0.347919,1.40387,-1.83986,1.57025,0.998425,0.300004,1.54998,1.54219,1,-0.000398177,8.18936e-08,-0.000199076,0,0,0,0,0,0,0,0,0,0,0,0,0,0,0,0,0,0,0,0,0,0,0,0,0,0,0,0,7.1839,0.000371451,0.000361501
0.647356,2.00672,-0.347919,1.40387,-1.83986,1.57025,0.998425,0.300004,1.54998,1.54219,1,-0.000398177,8.18936e-08,-0.000199076,0,0,0,0,0,0,0,0,0,0,0,0,0,0,0,0,0,0,0,0,0,0,0,0,0,0,0,0,7.1839,0.000371451,0.000361501
0.647356,2.00672,-0.347919,1.40387,-1.83986,1.57025,0.998425,0.300004,1.54998,1.54219,1,-0.000398177,8.18936e-08,-0.000199076,0,0,0,0,0,0,0,0,0,0,0,0,0,0,0,0,0,0,0,0,0,0,0,0,0,0,0,0,7.1839,0.000371451,0.000361501
0.647356,2.00672,-0.347919,1.40387,-1.83986,1.57025,0.998425,0.300004,1.54998,1.54219,1,-0.000398177,8.18936e-08,-0.000199076,0,0,0,0,0,0,0,0,0,0,0,0,0,0,0,0,0,0,0,0,0,0,0,0,0,0,0,0,7.1839,0.000371451,0.000361501
0.647356,2.00672,-0.347919,1.40387,-1.83986,1.57025,0.998425,0.300004,1.54998,1.54219,1,-0.000398177,8.18936e-08,-0.000199076,0,0,0,0,0,0,0,0,0,0,0,0,0,0,0,0,0,0,0,0,0,0,0,0,0,0,0,0,7.1839,0.000371451,0.000361501

4.17469e-21,1.2098e-20,-1.50117e-21,8.01766e-21,-1.10044e-20,9.06178e-21,5.70334e-21,-0.408996,0.478457,1.5421,0.500463,0.500298,-0.499138,0.500099,0,0,0,0,0,0,0,0,0,0,0,0,0,0,0,0,0,0,0,0,0,0,0,0,0,0,0,0,7.14457,0.000830152,0.000811921
0.0754238,0.213664,-0.0247622,0.13876,-0.192382,0.157045,0.0975382,-0.42943,0.647958,1.53732,0.545187,0.467058,-0.470928,0.512693,0,0,0,0,0,0,0,0,0,0,0,0,0,0,0,0,0,0,0,0,0,0,0,0,0,0,0,0,7.14457,0.000830152,0.000811921
0.150848,0.427329,-0.0495244,0.27752,-0.384765,0.31409,0.195076,-0.421856,0.820136,1.53277,0.599669,0.427568,-0.437674,0.515776,0,0,0,0,0,0,0,0,0,0,0,0,0,0,0,0,0,0,0,0,0,0,0,0,0,0,0,0,7.14457,0.000830152,0.000811921
0.226271,0.640993,-0.0742867,0.416281,-0.577147,0.471134,0.292615,-0.386166,0.987049,1.52963,0.661628,0.382646,-0.39927,0.506372,0,0,0,0,0,0,0,0,0,0,0,0,0,0,0,0,0,0,0,0,0,0,0,0,0,0,0,0,7.14457,0.000830152,0.000811921
0.301695,0.854657,-0.0990489,0.555041,-0.76953,0.628179,0.390153,-0.32441,1.14113,1.52919,0.728028,0.333203,-0.355717,0.482096,0,0,0,0,0,0,0,0,0,0,0,0,0,0,0,0,0,0,0,0,0,0,0,0,0,0,0,0,7.14457,0.000830152,0.000811921
0.377119,1.06832,-0.123811,0.693801,-0.961912,0.785224,0.487691,-0.240559,1.27583,1.53272,0.795225,0.280224,-0.307125,0.441322,0,0,0,0,0,0,0,0,0,0,0,0,0,0,0,0,0,0,0,0,0,0,0,0,0,0,0,0,7.14457,0.000830152,0.000811921
0.452543,1.28199,-0.148573,0.832561,-1.15429,0.942269,0.585229,-0.14008,1.38612,1.5414,0.859172,0.22475,-0.253712,0.38333,0,0,0,0,0,0,0,0,0,0,0,0,0,0,0,0,0,0,0,0,0,0,0,0,0,0,0,0,7.14457,0.000830152,0.000811921
0.527967,1.49565,-0.173336,0.971321,-1.34668,1.09931,0.682768,-0.0293602,1.46886,1.55619,0.91563,0.167858,-0.195806,0.308391,0,0,0,0,0,0,0,0,0,0,0,0,0,0,0,0,0,0,0,0,0,0,0,0,0,0,0,0,7.14457,0.000830152,0.000811921
0.60339,1.70931,-0.198098,1.11008,-1.53906,1.25636,0.780306,0.0849389,1.52294,1.57777,0.960419,0.110645,-0.133845,0.217802,0,0,0,0,0,0,0,0,0,0,0,0,0,0,0,0,0,0,0,0,0,0,0,0,0,0,0,0,7.14457,0.000830152,0.000811921
0.678814,1.92298,-0.22286,1.24884,-1.73144,1.4134,0.877844,0.196519,1.54915,1.60646,0.989658,0.0542034,-0.0683651,0.113865,0,0,0,0,0,0,0,0,0,0,0,0,0,0,0,0,0,0,0,0,0,0,0,0,0,0,0,0,7.14457,0.000830152,0.000811921
0.754238,2.13664,-0.247622,1.3876,-1.92382,1.57045,0.975382,0.300007,1.54995,1.64218,1,-0.000398224,7.98524e-08,-0.00019907,0,0,0,0,0,0,0,0,0,0,0,0,0,0,0,0,0,0,0,0,0,0,0,0,0,0,0,0,7.14457,0.000830152,0.000811921
0.742636,2.12253,-0.257687,1.38725,-1.91341,1.57043,0.977891,0.300215,1.55063,1.63126,1,-0.000398849,1.25928e-07,-0.000199072,0,0,0,0,0,0,0,0,0,0,0,0,0,0,0,0,0,0,0,0,0,0,0,0,0,0,0,0,7.14457,0.000830152,0.000811921
0.731034,2.10842,-0.267752,1.38689,-1.903,1.5704,0.9804,0.300371,1.55114,1.62029,1,-0.000399316,1.6258e-07,-0.000199075,0,0,0,0,0,0,0,0,0,0,0,0,0,0,0,0,0,0,0,0,0,0,0,0,0,0,0,0,7.14457,0.000830152,0.000811921
0.719433,2.09431,-0.277817,1.38654,-1.89258,1.57038,0.982908,0.300473,1.55148,1.60928,1,-0.000399625,1.88764e-07,-0.000199078,0,0,0,0,0,0,0,0,0,0,0,0,0,0,0,0,0,0,0,0,0,0,0,0,0,0,0,0,7.14457,0.000830152,0.000811921
0.707831,2.0802,-0.287882,1.38618,-1.88217,1.57036,0.985417,0.300524,1.55165,1.59821,1,-0.000399776,2.03439e-07,-0.00019908,0,0,0,0,0,0,0,0,0,0,0,0,0,0,0,0,0,0,0,0,0,0,0,0,0,0,0,0,7.14457,0.000830152,0.000811921
0.696229,2.06609,-0.297947,1.38583,-1.87176,1.57034,0.987926,0.300522,1.55165,1.5871,1,-0.000399769,2.05563e-07,-0.000199083,0,0,0,0,0,0,0,0,0,0,0,0,0,0,0,0,0,0,0,0,0,0,0,0,0,0,0,0,7.14457,0.000830152,0.000811921
0.684627,2.05198,-0.308011,1.38547,-1.86135,1.57032,0.990434,0.30047,1.55148,1.57593,1,-0.000399604,1.94095e-07,-0.000199085,0,0,0,0,0,0,0,0,0,0,0,0,0,0,0,0,0,0,0,0,0,0,0,0,0,0,0,0,7.14457,0.000830152,0.000811921
0.673026,2.03787,-0.318076,1.38512,-1.85093,1.5703,0.992943,0.300367,1.55114,1.56473,1,-0.000399281,1.67995e-07,-0.000199087,0,0,0,0,0,0,0,0,0,0,0,0,0,0,0,0,0,0,0,0,0,0,0,0,0,0,0,0,7.14457,0.000830152,0.000811921
0.661424,2.02376,-0.328141,1.38477,-1.84052,1.57028,0.995452,0.300213,1.55063,1.55348,1,-0.0003988,1.26227e-07,-0.000199089,0,0,0,0,0,0,0,0,0,0,0,0,0,0,0,0,0,0,0,0,0,0,0,0,0,0,0,0,7.14457,0.000830152,0.000811921
0.649822,2.00965,-0.338206,1.38441,-1.83011,1.57025,0.99796,0.300009,1.54995,1.54218,1,-0.000398162,6.77547e-08,-0.000199092,0,0,0,0,0,0,0,0,0,0,0,0,0,0,0,0,0,0,0,0,0,0,0,0,0,0,0,0,7.14457,0.000830152,0.000811921
0.649822,2.00965,-0.338206,1.38441,-1.83011,1.57025,0.99796,0.300009,1.54995,1.54218,1,-0.000398162,6.77547e-08,-0.000199092,0,0,0,0,0,0,0,0,0,0,0,0,0,0,0,0,0,0,0,0,0,0,0,0,0,0,0,0,7.14457,0.000830152,0.000811921
0.649822,2.00965,-0.338206,1.38441,-1.83011,1.57025,0.99796,0.300009,1.54995,1.54218,1,-0.000398162,6.77547e-08,-0.000199092,0,0,0,0,0,0,0,0,0,0,0,0,0,0,0,0,0,0,0,0,0,0,0,0,0,0,0,0,7.14457,0.000830152,0.000811921
0.649822,2.00965,-0.338206,1.38441,-1.83011,1.57025,0.99796,0.300009,1.54995,1.54218,1,-0.000398162,6.77547e-08,-0.000199092,0,0,0,0,0,0,0,0,0,0,0,0,0,0,0,0,0,0,0,0,0,0,0,0,0,0,0,0,7.14457,0.000830152,0.000811921
0.649822,2.00965,-0.338206,1.38441,-1.83011,1.57025,0.99796,0.300009,1.54995,1.54218,1,-0.000398162,6.77547e-08,-0.000199092,0,0,0,0,0,0,0,0,0,0,0,0,0,0,0,0,0,0,0,0,0,0,0,0,0,0,0,0,7.14457,0.000830152,0.000811921
0.649822,2.00965,-0.338206,1.38441,-1.83011,1.57025,0.99796,0.300009,1.54995,1.54218,1,-0.000398162,6.77547e-08,-0.000199092,0,0,0,0,0,0,0,0,0,0,0,0,0,0,0,0,0,0,0,0,0,0,0,0,0,0,0,0,7.14457,0.000830152,0.000811921
0.649822,2.00965,-0.338206,1.38441,-1.83011,1.57025,0.99796,0.300009,1.54995,1.54218,1,-0.000398162,6.77547e-08,-0.000199092,0,0,0,0,0,0,0,0,0,0,0,0,0,0,0,0,0,0,0,0,0,0,0,0,0,0,0,0,7.14457,0.000830152,0.000811921
0.649822,2.00965,-0.338206,1.38441,-1.83011,1.57025,0.99796,0.300009,1.54995,1.54218,1,-0.000398162,6.77547e-08,-0.000199092,0,0,0,0,0,0,0,0,0,0,0,0,0,0,0,0,0,0,0,0,0,0,0,0,0,0,0,0,7.14457,0.000830152,0.000811921
0.649822,2.00965,-0.338206,1.38441,-1.83011,1.57025,0.99796,0.300009,1.54995,1.54218,1,-0.000398162,6.77547e-08,-0.000199092,0,0,0,0,0,0,0,0,0,0,0,0,0,0,0,0,0,0,0,0,0,0,0,0,0,0,0,0,7.14457,0.000830152,0.000811921
0.649822,2.00965,-0.338206,1.38441,-1.83011,1.57025,0.99796,0.300009,1.54995,1.54218,1,-0.000398162,6.77547e-08,-0.000199092,0,0,0,0,0,0,0,0,0,0,0,0,0,0,0,0,0,0,0,0,0,0,0,0,0,0,0,0,7.14457,0.000830152,0.000811921
0.649822,2.00965,-0.338206,1.38441,-1.83011,1.57025,0.99796,0.300009,1.54995,1.54218,1,-0.000398162,6.77547e-08,-0.000199092,0,0,0,0,0,0,0,0,0,0,0,0,0,0,0,0,0,0,0,0,0,0,0,0,0,0,0,0,7.14457,0.000830152,0.000811921

4.1953e-21,1.21346e-20,-1.41986e-21,7.85664e-21,-1.09425e-20,9.08011e-21,5.69364e-21,-0.408996,0.478457,1.5421,0.500463,0.500298,-0.499138,0.500099,0,0,0,0,0,0,0,0,0,0,0,0,0,0,0,0,0,0,0,0,0,0,0,0,0,0,0,0,7.08861,0.00186429,0.00182243
0.0758975,0.214254,-0.0232853,0.135841,-0.19094,0.157046,0.0974225,-0.428261,0.648152,1.53733,0.545187,0.467003,-0.470982,0.512694,0,0,0,0,0,0,0,0,0,0,0,0,0,0,0,0,0,0,0,0,0,0,0,0,0,0,0,0,7.08861,0.00186429,0.00182243
0.151795,0.428508,-0.0465705,0.271682,-0.38188,0.314091,0.194845,-0.419764,0.820258,1.5327,0.599669,0.427466,-0.437772,0.515777,0,0,0,0,0,0,0,0,0,0,0,0,0,0,0,0,0,0,0,0,0,0,0,0,0,0,0,0,7.08861,0.00186429,0.00182243
0.227693,0.642761,-0.0698558,0.407523,-0.572819,0.471137,0.292267,-0.383453,0.986916,1.52944,0.661629,0.382507,-0.399402,0.506374,0,0,0,0,0,0,0,0,0,0,0,0,0,0,0,0,0,0,0,0,0,0,0,0,0,0,0,0,7.08861,0.00186429,0.00182243
0.30359,0.857015,-0.093141,0.543364,-0.763759,0.628183,0.38969,-0.321401,1.14065,1.52885,0.728028,0.333037,-0.355871,0.482097,0,0,0,0,0,0,0,0,0,0,0,0,0,0,0,0,0,0,0,0,0,0,0,0,0,0,0,0,7.08861,0.00186429,0.00182243
0.379488,1.07127,-0.116426,0.679204,-0.954699,0.785228,0.487112,-0.237579,1.275,1.53224,0.795225,0.280045,-0.307286,0.441324,0,0,0,0,0,0,0,0,0,0,0,0,0,0,0,0,0,0,0,0,0,0,0,0,0,0,0,0,7.08861,0.00186429,0.00182243
0.455385,1.28552,-0.139712,0.815045,-1.14564,0.942274,0.584535,-0.137416,1.38504,1.54082,0.859172,0.224572,-0.253867,0.383331,0,0,0,0,0,0,0,0,0,0,0,0,0,0,0,0,0,0,0,0,0,0,0,0,0,0,0,0,7.08861,0.00186429,0.00182243
0.531283,1.49978,-0.162997,0.950886,-1.33658,1.09932,0.681957,-0.0272385,1.46769,1.55557,0.91563,0.167698,-0.195942,0.308392,0,0,0,0,0,0,0,0,0,0,0,0,0,0,0,0,0,0,0,0,0,0,0,0,0,0,0,0,7.08861,0.00186429,0.00182243
0.60718,1.71403,-0.186282,1.08673,-1.52752,1.25637,0.77938,0.0863721,1.52189,1.57721,0.960419,0.11052,-0.133947,0.217803,0,0,0,0,0,0,0,0,0,0,0,0,0,0,0,0,0,0,0,0,0,0,0,0,0,0,0,0,7.08861,0.00186429,0.00182243
0.683078,1.92828,-0.209567,1.22257,-1.71846,1.41341,0.876802,0.197214,1.54848,1.60609,0.989658,0.0541314,-0.0684219,0.113865,0,0,0,0,0,0,0,0,0,0,0,0,0,0,0,0,0,0,0,0,0,0,0,0,0,0,0,0,7.08861,0.00186429,0.00182243
0.758975,2.14254,-0.232853,1.35841,-1.9094,1.57046,0.974225,0.300015,1.54988,1.64215,1,-0.00039815,2.6339e-08,-0.000199128,0,0,0,0,0,0,0,0,0,0,0,0,0,0,0,0,0,0,0,0,0,0,0,0,0,0,0,0,7.08861,0.00186429,0.00182243
0.747311,2.12832,-0.242933,1.35805,-1.89897,1.57043,0.976774,0.300227,1.55057,1.63123,1,-0.000398791,7.75811e-08,-0.000199123,0,0,0,0,0,0,0,0,0,0,0,0,0,0,0,0,0,0,0,0,0,0,0,0,0,0,0,0,7.08861,0.00186429,0.00182243
0.735647,2.11411,-0.253014,1.3577,-1.88854,1.57041,0.979323,0.300385,1.55108,1.62027,1,-0.000399271,1.19935e-07,-0.000199119,0,0,0,0,0,0,0,0,0,0,0,0,0,0,0,0,0,0,0,0,0,0,0,0,0,0,0,0,7.08861,0.00186429,0.00182243
0.723983,2.0999,-0.263094,1.35735,-1.87811,1.57039,0.981872,0.300489,1.55142,1.60925,1,-0.000399591,1.52345e-07,-0.000199114,0,0,0,0,0,0,0,0,0,0,0,0,0,0,0,0,0,0,0,0,0,0,0,0,0,0,0,0,7.08861,0.00186429,0.00182243
0.712318,2.08568,-0.273175,1.35699,-1.86768,1.57037,0.984421,0.300541,1.55159,1.59818,1,-0.000399751,1.73756e-07,-0.000199109,0,0,0,0,0,0,0,0,0,0,0,0,0,0,0,0,0,0,0,0,0,0,0,0,0,0,0,0,7.08861,0.00186429,0.00182243
0.700654,2.07147,-0.283255,1.35664,-1.85725,1.57035,0.986971,0.30054,1.55159,1.58707,1,-0.00039975,1.83113e-07,-0.000199104,0,0,0,0,0,0,0,0,0,0,0,0,0,0,0,0,0,0,0,0,0,0,0,0,0,0,0,0,7.08861,0.00186429,0.00182243
0.68899,2.05726,-0.293336,1.35628,-1.84683,1.57033,0.98952,0.300487,1.55142,1.57591,1,-0.000399588,1.79363e-07,-0.000199098,0,0,0,0,0,0,0,0,0,0,0,0,0,0,0,0,0,0,0,0,0,0,0,0,0,0,0,0,7.08861,0.00186429,0.00182243
0.677326,2.04304,-0.303417,1.35593,-1.8364,1.5703,0.992069,0.300382,1.55108,1.5647,1,-0.000399267,1.61455e-07,-0.000199093,0,0,0,0,0,0,0,0,0,0,0,0,0,0,0,0,0,0,0,0,0,0,0,0,0,0,0,0,7.08861,0.00186429,0.00182243
0.665661,2.02883,-0.313497,1.35557,-1.82597,1.57028,0.994618,0.300226,1.55057,1.55345,1,-0.000398786,1.28336e-07,-0.000199088,0,0,0,0,0,0,0,0,0,0,0,0,0,0,0,0,0,0,0,0,0,0,0,0,0,0,0,0,7.08861,0.00186429,0.00182243
0.653997,2.01462,-0.323578,1.35522,-1.81554,1.57026,0.997168,0.30002,1.54988,1.54216,1,-0.000398144,7.89598e-08,-0.000199083,0,0,0,0,0,0,0,0,0,0,0,0,0,0,0,0,0,0,0,0,0,0,0,0,0,0,0,0,7.08861,0.00186429,0.00182243
0.653997,2.01462,-0.323578,1.35522,-1.81554,1.57026,0.997168,0.30002,1.54988,1.54216,1,-0.000398144,7.89598e-08,-0.000199083,0,0,0,0,0,0,0,0,0,0,0,0,0,0,0,0,0,0,0,0,0,0,0,0,0,0,0,0,7.08861,0.00186429,0.00182243
0.653997,2.01462,-0.323578,1.35522,-1.81554,1.57026,0.997168,0.30002,1.54988,1.54216,1,-0.000398144,7.89598e-08,-0.000199083,0,0,0,0,0,0,0,0,0,0,0,0,0,0,0,0,0,0,0,0,0,0,0,0,0,0,0,0,7.08861,0.00186429,0.00182243
0.653997,2.01462,-0.323578,1.35522,-1.81554,1.57026,0.997168,0.30002,1.54988,1.54216,1,-0.000398144,7.89598e-08,-0.000199083,0,0,0,0,0,0,0,0,0,0,0,0,0,0,0,0,0,0,0,0,0,0,0,0,0,0,0,0,7.08861,0.00186429,0.00182243
0.653997,2.01462,-0.323578,1.35522,-1.81554,1.57026,0.997168,0.30002,1.54988,1.54216,1,-0.000398144,7.89598e-08,-0.000199083,0,0,0,0,0,0,0,0,0,0,0,0,0,0,0,0,0,0,0,0,0,0,0,0,0,0,0,0,7.08861,0.00186429,0.00182243
0.653997,2.01462,-0.323578,1.35522,-1.81554,1.57026,0.997168,0.30002,1.54988,1.54216,1,-0.000398144,7.89598e-08,-0.000199083,0,0,0,0,0,0,0,0,0,0,0,0,0,0,0,0,0,0,0,0,0,0,0,0,0,0,0,0,7.08861,0.00186429,0.00182243
0.653997,2.01462,-0.323578,1.35522,-1.81554,1.57026,0.997168,0.30002,1.54988,1.54216,1,-0.000398144,7.89598e-08,-0.000199083,0,0,0,0,0,0,0,0,0,0,0,0,0,0,0,0,0,0,0,0,0,0,0,0,0,0,0,0,7.08861,0.00186429,0.00182243
0.653997,2.01462,-0.323578,1.35522,-1.81554,1.57026,0.997168,0.30002,1.54988,1.54216,1,-0.000398144,7.89598e-08,-0.000199083,0,0,0,0,0,0,0,0,0,0,0,0,0,0,0,0,0,0,0,0,0,0,0,0,0,0,0,0,7.08861,0.00186429,0.00182243
0.653997,2.01462,-0.323578,1.35522,-1.81554,1.57026,0.997168,0.30002,1.54988,1.54216,1,-0.000398144,7.89598e-08,-0.000199083,0,0,0,0,0,0,0,0,0,0,0,0,0,0,0,0,0,0,0,0,0,0,0,0,0,0,0,0,7.08861,0.00186429,0.00182243
0.653997,2.01462,-0.323578,1.35522,-1.81554,1.57026,0.997168,0.30002,1.54988,1.54216,1,-0.000398144,7.89598e-08,-0.000199083,0,0,0,0,0,0,0,0,0,0,0,0,0,0,0,0,0,0,0,0,0,0,0,0,0,0,0,0,7.08861,0.00186429,0.00182243
0.653997,2.01462,-0.323578,1.35522,-1.81554,1.57026,0.997168,0.30002,1.54988,1.54216,1,-0.000398144,7.89598e-08,-0.000199083,0,0,0,0,0,0,0,0,0,0,0,0,0,0,0,0,0,0,0,0,0,0,0,0,0,0,0,0,7.08861,0.00186429,0.00182243

4.24856e-21,1.22043e-20,-1.28775e-21,7.60608e-21,-1.08037e-20,9.04629e-21,5.66608e-21,-0.408996,0.478457,1.5421,0.500463,0.500298,-0.499138,0.500099,0,0,0,0,0,0,0,0,0,0,0,0,0,0,0,0,0,0,0,0,0,0,0,0,0,0,0,0,7.01163,0.00418195,0.00408599
0.0767346,0.215298,-0.0210526,0.131462,-0.188793,0.157047,0.0972155,-0.426489,0.648538,1.53735,0.545187,0.466905,-0.471078,0.512695,0,0,0,0,0,0,0,0,0,0,0,0,0,0,0,0,0,0,0,0,0,0,0,0,0,0,0,0,7.01163,0.00418195,0.00408599
0.153469,0.430596,-0.0421052,0.262924,-0.377586,0.314095,0.194431,-0.416585,0.820622,1.53263,0.599669,0.427284,-0.437948,0.515778,0,0,0,0,0,0,0,0,0,0,0,0,0,0,0,0,0,0,0,0,0,0,0,0,0,0,0,0,7.01163,0.00418195,0.00408599
0.230204,0.645893,-0.0631579,0.394386,-0.566379,0.471142,0.291647,-0.379311,0.986968,1.5292,0.661629,0.382257,-0.399638,0.506376,0,0,0,0,0,0,0,0,0,0,0,0,0,0,0,0,0,0,0,0,0,0,0,0,0,0,0,0,7.01163,0.00418195,0.00408599
0.306938,0.861191,-0.0842105,0.525848,-0.755173,0.628189,0.388862,-0.316785,1.14023,1.5284,0.728028,0.33274,-0.356145,0.4821,0,0,0,0,0,0,0,0,0,0,0,0,0,0,0,0,0,0,0,0,0,0,0,0,0,0,0,0,7.01163,0.00418195,0.00408599
0.383673,1.07649,-0.105263,0.65731,-0.943966,0.785237,0.486078,-0.232974,1.27409,1.53159,0.795226,0.279724,-0.307574,0.441326,0,0,0,0,0,0,0,0,0,0,0,0,0,0,0,0,0,0,0,0,0,0,0,0,0,0,0,0,7.01163,0.00418195,0.00408599
0.460408,1.29179,-0.126316,0.788772,-1.13276,0.942284,0.583293,-0.133264,1.38373,1.54001,0.859172,0.224253,-0.254145,0.383334,0,0,0,0,0,0,0,0,0,0,0,0,0,0,0,0,0,0,0,0,0,0,0,0,0,0,0,0,7.01163,0.00418195,0.00408599
0.537142,1.50708,-0.147368,0.920234,-1.32155,1.09933,0.680509,-0.0238974,1.4662,1.5547,0.91563,0.167411,-0.196184,0.308394,0,0,0,0,0,0,0,0,0,0,0,0,0,0,0,0,0,0,0,0,0,0,0,0,0,0,0,0,7.01163,0.00418195,0.00408599
0.613877,1.72238,-0.168421,1.0517,-1.51035,1.25638,0.777724,0.0886601,1.52052,1.57641,0.960419,0.110296,-0.13413,0.217804,0,0,0,0,0,0,0,0,0,0,0,0,0,0,0,0,0,0,0,0,0,0,0,0,0,0,0,0,7.01163,0.00418195,0.00408599
0.690611,1.93768,-0.189474,1.18316,-1.69914,1.41343,0.87494,0.198344,1.54755,1.60554,0.989658,0.0540025,-0.0685231,0.113866,0,0,0,0,0,0,0,0,0,0,0,0,0,0,0,0,0,0,0,0,0,0,0,0,0,0,0,0,7.01163,0.00418195,0.00408599
0.767346,2.15298,-0.210526,1.31462,-1.88793,1.57047,0.972155,0.300028,1.54973,1.64208,1,-0.000398074,8.96757e-08,-0.000199079,0,0,0,0,0,0,0,0,0,0,0,0,0,0,0,0,0,0,0,0,0,0,0,0,0,0,0,0,7.01163,0.00418195,0.00408599
0.755568,2.13858,-0.220635,1.31426,-1.87747,1.57045,0.974778,0.300247,1.55043,1.63116,1,-0.000398739,1.31456e-07,-0.000199078,0,0,0,0,0,0,0,0,0,0,0,0,0,0,0,0,0,0,0,0,0,0,0,0,0,0,0,0,7.01163,0.00418195,0.00408599
0.743789,2.12418,-0.230743,1.31391,-1.86702,1.57043,0.9774,0.30041,1.55095,1.6202,1,-0.00039924,1.65351e-07,-0.000199077,0,0,0,0,0,0,0,0,0,0,0,0,0,0,0,0,0,0,0,0,0,0,0,0,0,0,0,0,7.01163,0.00418195,0.00408599
0.732011,2.10978,-0.240852,1.31356,-1.85656,1.57041,0.980022,0.300518,1.55129,1.60919,1,-0.000399576,1.90283e-07,-0.000199076,0,0,0,0,0,0,0,0,0,0,0,0,0,0,0,0,0,0,0,0,0,0,0,0,0,0,0,0,7.01163,0.00418195,0.00408599
0.720232,2.09537,-0.25096,1.3132,-1.8461,1.57038,0.982644,0.300572,1.55147,1.59812,1,-0.000399747,2.05172e-07,-0.000199074,0,0,0,0,0,0,0,0,0,0,0,0,0,0,0,0,0,0,0,0,0,0,0,0,0,0,0,0,7.01163,0.00418195,0.00408599
0.708454,2.08097,-0.261069,1.31285,-1.83565,1.57036,0.985267,0.300572,1.55147,1.58701,1,-0.000399753,2.08942e-07,-0.000199073,0,0,0,0,0,0,0,0,0,0,0,0,0,0,0,0,0,0,0,0,0,0,0,0,0,0,0,0,7.01163,0.00418195,0.00408599
0.696675,2.06657,-0.271177,1.31249,-1.82519,1.57034,0.987889,0.300518,1.55129,1.57585,1,-0.000399595,2.00515e-07,-0.000199072,0,0,0,0,0,0,0,0,0,0,0,0,0,0,0,0,0,0,0,0,0,0,0,0,0,0,0,0,7.01163,0.00418195,0.00408599
0.684897,2.05217,-0.281286,1.31214,-1.81473,1.57032,0.990511,0.300411,1.55094,1.56465,1,-0.000399272,1.78817e-07,-0.00019907,0,0,0,0,0,0,0,0,0,0,0,0,0,0,0,0,0,0,0,0,0,0,0,0,0,0,0,0,7.01163,0.00418195,0.00408599
0.673118,2.03777,-0.291394,1.31178,-1.80428,1.5703,0.993133,0.300252,1.55042,1.55339,1,-0.000398785,1.42774e-07,-0.000199069,0,0,0,0,0,0,0,0,0,0,0,0,0,0,0,0,0,0,0,0,0,0,0,0,0,0,0,0,7.01163,0.00418195,0.00408599
0.66134,2.02337,-0.301503,1.31143,-1.79382,1.57027,0.995756,0.30004,1.54973,1.5421,1,-0.000398133,9.1313e-08,-0.000199067,0,0,0,0,0,0,0,0,0,0,0,0,0,0,0,0,0,0,0,0,0,0,0,0,0,0,0,0,7.01163,0.00418195,0.00408599
0.66134,2.02337,-0.301503,1.31143,-1.79382,1.57027,0.995756,0.30004,1.54973,1.5421,1,-0.000398133,9.1313e-08,-0.000199067,0,0,0,0,0,0,0,0,0,0,0,0,0,0,0,0,0,0,0,0,0,0,0,0,0,0,0,0,7.01163,0.00418195,0.00408599
0.66134,2.02337,-0.301503,1.31143,-1.79382,1.57027,0.995756,0.30004,1.54973,1.5421,1,-0.000398133,9.1313e-08,-0.000199067,0,0,0,0,0,0,0,0,0,0,0,0,0,0,0,0,0,0,0,0,0,0,0,0,0,0,0,0,7.01163,0.00418195,0.00408599
0.66134,2.02337,-0.301503,1.31143,-1.79382,1.57027,0.995756,0.30004,1.54973,1.5421,1,-0.000398133,9.1313e-08,-0.000199067,0,0,0,0,0,0,0,0,0,0,0,0,0,0,0,0,0,0,0,0,0,0,0,0,0,0,0,0,7.01163,0.00418195,0.00408599
