jianye0428/UNICAR_TrajOpt/src/pick_and_place/config/csvfile_3_position/position1/file_output_place.csv
shoulder_lift_joint,shoulder_pan_joint,elbow_joint,wrist_2_joint,wrist_1_joint,wrist_3_joint,drehkranz_joint,x,y,z,q_w,q_x,q_y,q_z,collision_1,collision_2,collision_3,collision_4,collision_5,collision_6,collision_7,collision_8,collision_9,collision_10,collision_11,collision_12,collision_13,collision_14,collision_15,collision_16,collision_17,collision_18,collision_19,collision_20,collision_21,collision_22,collision_23,collision_24,collision_25,collision_26,collision_27,collision_28,joint_velocity_cost,pose_9,pose_extra_19
0.734491,2.11222,-0.173997,1.06604,-1.6759,1.57041,0.980063,0.3,1.55,1.5422,1,-0.000398163,7.9555e-08,-0.000199081
0.734491,2.11222,-0.173997,1.06604,-1.6759,1.57041,0.980063,0.3,1.55,1.5422,1,-0.000398163,7.9555e-08,-0.000199081
0.734491,2.11222,-0.173997,1.06604,-1.6759,1.57041,0.980063,0.3,1.55,1.5422,1,-0.000398163,7.9555e-08,-0.000199081
0.734491,2.11222,-0.173997,1.06604,-1.6759,1.57041,0.980063,0.3,1.55,1.5422,1,-0.000398163,7.9555e-08,-0.000199081
0.734491,2.11222,-0.173997,1.06604,-1.6759,1.57041,0.980063,0.3,1.55,1.5422,1,-0.000398163,7.9555e-08,-0.000199081
0.734491,2.11222,-0.173997,1.06604,-1.6759,1.57041,0.980063,0.3,1.55,1.5422,1,-0.000398163,7.9555e-08,-0.000199081
0.734491,2.11222,-0.173997,1.06604,-1.6759,1.57041,0.980063,0.3,1.55,1.5422,1,-0.000398163,7.9555e-08,-0.000199081
0.734491,2.11222,-0.173997,1.06604,-1.6759,1.57041,0.980063,0.3,1.55,1.5422,1,-0.000398163,7.9555e-08,-0.000199081
0.734491,2.11222,-0.173997,1.06604,-1.6759,1.57041,0.980063,0.3,1.55,1.5422,1,-0.000398163,7.9555e-08,-0.000199081
0.734491,2.11222,-0.173997,1.06604,-1.6759,1.57041,0.980063,0.3,1.55,1.5422,1,-0.000398163,7.9555e-08,-0.000199081
0.734491,2.11222,-0.173997,1.06604,-1.6759,1.57041,0.980063,0.3,1.55,1.5422,1,-0.000398163,7.9555e-08,-0.000199081
0.734491,2.11222,-0.173997,1.06604,-1.6759,1.57041,0.980063,0.3,1.55,1.5422,1,-0.000398163,7.9555e-08,-0.000199081
0.734491,2.11222,-0.173997,1.06604,-1.6759,1.57041,0.980063,0.3,1.55,1.5422,1,-0.000398163,7.9555e-08,-0.000199081
0.734491,2.11222,-0.173997,1.06604,-1.6759,1.57041,0.980063,0.3,1.55,1.5422,1,-0.000398163,7.9555e-08,-0.000199081
0.734491,2.11222,-0.173997,1.06604,-1.6759,1.57041,0.980063,0.3,1.55,1.5422,1,-0.000398163,7.9555e-08,-0.000199081
0.734491,2.11222,-0.173997,1.06604,-1.6759,1.57041,0.980063,0.3,1.55,1.5422,1,-0.000398163,7.9555e-08,-0.000199081
0.734491,2.11222,-0.173997,1.06604,-1.6759,1.57041,0.980063,0.3,1.55,1.5422,1,-0.000398163,7.9555e-08,-0.000199081
0.734491,2.11222,-0.173997,1.06604,-1.6759,1.57041,0.980063,0.3,1.55,1.5422,1,-0.000398163,7.9555e-08,-0.000199081
0.734491,2.11222,-0.173997,1.06604,-1.6759,1.57041,0.980063,0.3,1.55,1.5422,1,-0.000398163,7.9555e-08,-0.000199081
0.734491,2.11222,-0.173997,1.06604,-1.6759,1.57041,0.980063,0.3,1.55,1.5422,1,-0.000398163,7.9555e-08,-0.000199081
0.734491,2.11222,-0.173997,1.06604,-1.6759,1.57041,0.980063,0.3,1.55,1.5422,1,-0.000398163,7.9555e-08,-0.000199081
0.734491,2.11222,-0.173997,1.06604,-1.6759,1.57041,0.980063,0.3,1.55,1.5422,1,-0.000398163,7.9555e-08,-0.000199081
0.734491,2.11222,-0.173997,1.06604,-1.6759,1.57041,0.980063,0.3,1.55,1.5422,1,-0.000398163,7.9555e-08,-0.000199081
0.734491,2.11222,-0.173997,1.06604,-1.6759,1.57041,0.980063,0.3,1.55,1.5422,1,-0.000398163,7.9555e-08,-0.000199081
0.734491,2.11222,-0.173997,1.06604,-1.6759,1.57041,0.980063,0.3,1.55,1.5422,1,-0.000398163,7.9555e-08,-0.000199081
0.734491,2.11222,-0.173997,1.06604,-1.6759,1.57041,0.980063,0.3,1.55,1.5422,1,-0.000398163,7.9555e-08,-0.000199081
0.734491,2.11222,-0.173997,1.06604,-1.6759,1.57041,0.980063,0.3,1.55,1.5422,1,-0.000398163,7.9555e-08,-0.000199081
0.734491,2.11222,-0.173997,1.06604,-1.6759,1.57041,0.980063,0.3,1.55,1.5422,1,-0.000398163,7.9555e-08,-0.000199081
0.734491,2.11222,-0.173997,1.06604,-1.6759,1.57041,0.980063,0.3,1.55,1.5422,1,-0.000398163,7.9555e-08,-0.000199081
0.734491,2.11222,-0.173997,1.06604,-1.6759,1.57041,0.980063,0.3,1.55,1.5422,1,-0.000398163,7.9555e-08,-0.000199081

0.734491,2.11222,-0.173997,1.06604,-1.6759,1.57041,0.980063,0.3,1.55,1.5422,1,-0.000398163,7.9555e-08,-0.000199081,0,0,0,0,0,0,0,0,0,0,0,0,0,0,0,0,0,0,0,0,0,0,0,0,0,0,0,0,0.000853459,2.45247,15.6895
0.735407,2.11333,-0.172885,1.06632,-1.67701,1.57036,0.979867,0.3,1.54997,1.54358,1,-0.000255836,8.01015e-08,-0.000199085,0,0,0,0,0,0,0,0,0,0,0,0,0,0,0,0,0,0,0,0,0,0,0,0,0,0,0,0,0.000853459,2.45247,15.6895
0.736324,2.11444,-0.171774,1.0666,-1.67812,1.5703,0.979672,0.3,1.54994,1.54496,1,-0.000113507,2.50847e-08,-0.000199096,0,0,0,0,0,0,0,0,0,0,0,0,0,0,0,0,0,0,0,0,0,0,0,0,0,0,0,0,0.000853459,2.45247,15.6895
0.73724,2.11555,-0.170663,1.06688,-1.67923,1.57025,0.979477,0.299999,1.54991,1.54634,1,2.88226e-05,-8.54939e-08,-0.000199114,0,0,0,0,0,0,0,0,0,0,0,0,0,0,0,0,0,0,0,0,0,0,0,0,0,0,0,0,0.000853459,2.45247,15.6895
0.738156,2.11666,-0.169552,1.06716,-1.68034,1.5702,0.979282,0.299999,1.54987,1.54772,1,0.000171153,-2.51633e-07,-0.000199139,0,0,0,0,0,0,0,0,0,0,0,0,0,0,0,0,0,0,0,0,0,0,0,0,0,0,0,0,0.000853459,2.45247,15.6895
0.739072,2.11777,-0.168441,1.06744,-1.68146,1.57014,0.979087,0.299998,1.54984,1.5491,1,0.000313484,-4.7333e-07,-0.000199172,0,0,0,0,0,0,0,0,0,0,0,0,0,0,0,0,0,0,0,0,0,0,0,0,0,0,0,0,0.000853459,2.45247,15.6895
0.739988,2.11888,-0.16733,1.06772,-1.68257,1.57009,0.978892,0.299998,1.5498,1.55048,1,0.000455817,-7.50585e-07,-0.000199211,0,0,0,0,0,0,0,0,0,0,0,0,0,0,0,0,0,0,0,0,0,0,0,0,0,0,0,0,0.000853459,2.45247,15.6895
0.740904,2.11999,-0.166219,1.068,-1.68368,1.57004,0.978697,0.299997,1.54976,1.55185,1,0.00059815,-1.08339e-06,-0.000199258,0,0,0,0,0,0,0,0,0,0,0,0,0,0,0,0,0,0,0,0,0,0,0,0,0,0,0,0,0.000853459,2.45247,15.6895
0.74182,2.1211,-0.165108,1.06828,-1.68479,1.56998,0.978502,0.299996,1.54971,1.55323,1,0.000740484,-1.47176e-06,-0.000199313,0,0,0,0,0,0,0,0,0,0,0,0,0,0,0,0,0,0,0,0,0,0,0,0,0,0,0,0,0.000853459,2.45247,15.6895
0.742736,2.12222,-0.163997,1.06856,-1.6859,1.56993,0.978307,0.299995,1.54967,1.55461,1,0.000882819,-1.91567e-06,-0.000199374,0,0,0,0,0,0,0,0,0,0,0,0,0,0,0,0,0,0,0,0,0,0,0,0,0,0,0,0,0.000853459,2.45247,15.6895
0.740961,2.12218,-0.16596,1.06833,-1.68389,1.56999,0.977482,0.302533,1.5499,1.55236,0.999999,0.000786176,9.34782e-06,-0.000656305,0,0,0,0,0,0,0,0,0,0,0,0,0,0,0,0,0,0,0,0,0,0,0,0,0,0,0,0,0.000853459,2.45247,15.6895
0.739185,2.12214,-0.167923,1.0681,-1.68189,1.57005,0.976658,0.305074,1.55012,1.55012,0.999999,0.000689563,2.0859e-05,-0.00111324,0,0,0,0,0,0,0,0,0,0,0,0,0,0,0,0,0,0,0,0,0,0,0,0,0,0,0,0,0.000853459,2.45247,15.6895
0.737409,2.1221,-0.169886,1.06788,-1.67988,1.57011,0.975833,0.307618,1.55034,1.54787,0.999999,0.000592982,3.26178e-05,-0.00157018,0,0,0,0,0,0,0,0,0,0,0,0,0,0,0,0,0,0,0,0,0,0,0,0,0,0,0,0,0.000853459,2.45247,15.6895
0.735633,2.12207,-0.171849,1.06765,-1.67788,1.57018,0.975009,0.310164,1.55054,1.54562,0.999998,0.000496433,4.46241e-05,-0.00202713,0,0,0,0,0,0,0,0,0,0,0,0,0,0,0,0,0,0,0,0,0,0,0,0,0,0,0,0,0.000853459,2.45247,15.6895
0.733857,2.12203,-0.173812,1.06742,-1.67587,1.57024,0.974185,0.312712,1.55074,1.54336,0.999997,0.000399915,5.68779e-05,-0.00248408,0,0,0,0,0,0,0,0,0,0,0,0,0,0,0,0,0,0,0,0,0,0,0,0,0,0,0,0,0.000853459,2.45247,15.6895
0.732081,2.12199,-0.175775,1.06719,-1.67386,1.5703,0.97336,0.315263,1.55093,1.54111,0.999996,0.000303431,6.93791e-05,-0.00294104,0,0,0,0,0,0,0,0,0,0,0,0,0,0,0,0,0,0,0,0,0,0,0,0,0,0,0,0,0.000853459,2.45247,15.6895
0.730305,2.12195,-0.177738,1.06697,-1.67186,1.57036,0.972536,0.317817,1.55111,1.53886,0.999994,0.000206979,8.21277e-05,-0.003398,0,0,0,0,0,0,0,0,0,0,0,0,0,0,0,0,0,0,0,0,0,0,0,0,0,0,0,0,0.000853459,2.45247,15.6895
0.728529,2.12192,-0.179701,1.06674,-1.66985,1.57042,0.971711,0.320373,1.55128,1.5366,0.999993,0.000110561,9.51236e-05,-0.00385497,0,0,0,0,0,0,0,0,0,0,0,0,0,0,0,0,0,0,0,0,0,0,0,0,0,0,0,0,0.000853459,2.45247,15.6895
0.726753,2.12188,-0.181664,1.06651,-1.66785,1.57049,0.970887,0.322931,1.55144,1.53434,0.999991,1.41774e-05,0.000108367,-0.00431194,0,0,0,0,0,0,0,0,0,0,0,0,0,0,0,0,0,0,0,0,0,0,0,0,0,0,0,0,0.000853459,2.45247,15.6895
0.724491,2.12222,-0.183997,1.06605,-1.6659,1.57043,0.970063,0.326737,1.55142,1.53147,0.999986,-0.000398119,2.06784e-06,-0.00519905,0,0,0,0,0,0,0,0,0,0,0,0,0,0,0,0,0,0,0,0,0,0,0,0,0,0,0,0,0.000853459,2.45247,15.6895
0.726229,2.12087,-0.182673,1.06689,-1.6659,1.57086,0.970063,0.32229,1.55197,1.53362,0.999993,0.000625759,0.000412482,-0.00365976,0,0,0,0,0,0,0,0,0,0,0,0,0,0,0,0,0,0,0,0,0,0,0,0,0,0,0,0,0.000853459,2.45247,15.6895
0.726229,2.12087,-0.182673,1.06689,-1.6659,1.57086,0.970063,0.32229,1.55197,1.53362,0.999993,0.000625759,0.000412482,-0.00365976,0,0,0,0,0,0,0,0,0,0,0,0,0,0,0,0,0,0,0,0,0,0,0,0,0,0,0,0,0.000853459,2.45247,15.6895
0.726229,2.12087,-0.182673,1.06689,-1.6659,1.57086,0.970063,0.32229,1.55197,1.53362,0.999993,0.000625759,0.000412482,-0.00365976,0,0,0,0,0,0,0,0,0,0,0,0,0,0,0,0,0,0,0,0,0,0,0,0,0,0,0,0,0.000853459,2.45247,15.6895
0.726229,2.12087,-0.182673,1.06689,-1.6659,1.57086,0.970063,0.32229,1.55197,1.53362,0.999993,0.000625759,0.000412482,-0.00365976,0,0,0,0,0,0,0,0,0,0,0,0,0,0,0,0,0,0,0,0,0,0,0,0,0,0,0,0,0.000853459,2.45247,15.6895
0.726229,2.12087,-0.182673,1.06689,-1.6659,1.57086,0.970063,0.32229,1.55197,1.53362,0.999993,0.000625759,0.000412482,-0.00365976,0,0,0,0,0,0,0,0,0,0,0,0,0,0,0,0,0,0,0,0,0,0,0,0,0,0,0,0,0.000853459,2.45247,15.6895
0.726229,2.12087,-0.182673,1.06689,-1.6659,1.57086,0.970063,0.32229,1.55197,1.53362,0.999993,0.000625759,0.000412482,-0.00365976,0,0,0,0,0,0,0,0,0,0,0,0,0,0,0,0,0,0,0,0,0,0,0,0,0,0,0,0,0.000853459,2.45247,15.6895
0.726229,2.12087,-0.182673,1.06689,-1.6659,1.57086,0.970063,0.32229,1.55197,1.53362,0.999993,0.000625759,0.000412482,-0.00365976,0,0,0,0,0,0,0,0,0,0,0,0,0,0,0,0,0,0,0,0,0,0,0,0,0,0,0,0,0.000853459,2.45247,15.6895
0.726229,2.12087,-0.182673,1.06689,-1.6659,1.57086,0.970063,0.32229,1.55197,1.53362,0.999993,0.000625759,0.000412482,-0.00365976,0,0,0,0,0,0,0,0,0,0,0,0,0,0,0,0,0,0,0,0,0,0,0,0,0,0,0,0,0.000853459,2.45247,15.6895
0.726229,2.12087,-0.182673,1.06689,-1.6659,1.57086,0.970063,0.32229,1.55197,1.53362,0.999993,0.000625759,0.000412482,-0.00365976,0,0,0,0,0,0,0,0,0,0,0,0,0,0,0,0,0,0,0,0,0,0,0,0,0,0,0,0,0.000853459,2.45247,15.6895
0.726229,2.12087,-0.182673,1.06689,-1.6659,1.57086,0.970063,0.32229,1.55197,1.53362,0.999993,0.000625759,0.000412482,-0.00365976,0,0,0,0,0,0,0,0,0,0,0,0,0,0,0,0,0,0,0,0,0,0,0,0,0,0,0,0,0.000853459,2.45247,15.6895

0.734491,2.11222,-0.173997,1.06604,-1.6759,1.57041,0.980063,0.3,1.55,1.5422,1,-0.000398163,7.9555e-08,-0.000199081,0,0,0,0,0,0,0,0,0,0,0,0,0,0,0,0,0,0,0,0,0,0,0,0,0,0,0,0,0.00457039,2.31017,15.3809
0.736781,2.11499,-0.171219,1.06685,-1.67868,1.57026,0.979574,0.300002,1.54995,1.54573,1,1.4009e-05,1.06037e-06,-0.000198956,0,0,0,0,0,0,0,0,0,0,0,0,0,0,0,0,0,0,0,0,0,0,0,0,0,0,0,0,0.00457039,2.31017,15.3809
0.73907,2.11777,-0.168441,1.06766,-1.68146,1.5701,0.979085,0.300003,1.54989,1.54925,1,0.000426188,1.63809e-06,-0.000198891,0,0,0,0,0,0,0,0,0,0,0,0,0,0,0,0,0,0,0,0,0,0,0,0,0,0,0,0,0.00457039,2.31017,15.3809
0.74136,2.12055,-0.165663,1.06847,-1.68423,1.56995,0.978596,0.300003,1.54981,1.55277,1,0.000838374,1.81273e-06,-0.000198886,0,0,0,0,0,0,0,0,0,0,0,0,0,0,0,0,0,0,0,0,0,0,0,0,0,0,0,0,0.00457039,2.31017,15.3809
0.743649,2.12333,-0.162885,1.06928,-1.68701,1.5698,0.978107,0.300003,1.54972,1.55629,0.999999,0.00125057,1.58434e-06,-0.000198942,0,0,0,0,0,0,0,0,0,0,0,0,0,0,0,0,0,0,0,0,0,0,0,0,0,0,0,0,0.00457039,2.31017,15.3809
0.745938,2.1261,-0.160108,1.07009,-1.68979,1.56964,0.977618,0.300002,1.54962,1.5598,0.999999,0.00166276,9.52939e-07,-0.000199058,0,0,0,0,0,0,0,0,0,0,0,0,0,0,0,0,0,0,0,0,0,0,0,0,0,0,0,0,0.00457039,2.31017,15.3809
0.748228,2.12888,-0.15733,1.0709,-1.69257,1.56949,0.977129,0.3,1.54951,1.56331,0.999998,0.00207497,-8.14335e-08,-0.000199234,0,0,0,0,0,0,0,0,0,0,0,0,0,0,0,0,0,0,0,0,0,0,0,0,0,0,0,0,0.00457039,2.31017,15.3809
0.750517,2.13166,-0.154552,1.07171,-1.69534,1.56934,0.97664,0.299998,1.54938,1.56682,0.999997,0.00248717,-1.51874e-06,-0.00019947,0,0,0,0,0,0,0,0,0,0,0,0,0,0,0,0,0,0,0,0,0,0,0,0,0,0,0,0,0.00457039,2.31017,15.3809
0.752806,2.13444,-0.151774,1.07253,-1.69812,1.56919,0.976151,0.299994,1.54923,1.57032,0.999996,0.00289939,-3.35896e-06,-0.000199767,0,0,0,0,0,0,0,0,0,0,0,0,0,0,0,0,0,0,0,0,0,0,0,0,0,0,0,0,0.00457039,2.31017,15.3809
0.755096,2.13722,-0.148997,1.07334,-1.7009,1.56903,0.975662,0.29999,1.54908,1.57382,0.999994,0.00331161,-5.60205e-06,-0.000200124,0,0,0,0,0,0,0,0,0,0,0,0,0,0,0,0,0,0,0,0,0,0,0,0,0,0,0,0,0.00457039,2.31017,15.3809
0.750535,2.13472,-0.151938,1.07111,-1.69646,1.56917,0.973602,0.303808,1.54877,1.56935,0.999996,0.00294059,-1.19089e-05,-0.0001998,0,0,0,0,0,0,0,0,0,0,0,0,0,0,0,0,0,0,0,0,0,0,0,0,0,0,0,0,0.00457039,2.31017,15.3809
0.745975,2.13222,-0.154879,1.06888,-1.69202,1.56931,0.971542,0.307627,1.54842,1.56488,0.999997,0.00256958,-1.66872e-05,-0.000199524,0,0,0,0,0,0,0,0,0,0,0,0,0,0,0,0,0,0,0,0,0,0,0,0,0,0,0,0,0.00457039,2.31017,15.3809
0.741415,2.12972,-0.15782,1.06665,-1.68758,1.56945,0.969482,0.311448,1.54805,1.5604,0.999998,0.00219856,-1.99368e-05,-0.000199295,0,0,0,0,0,0,0,0,0,0,0,0,0,0,0,0,0,0,0,0,0,0,0,0,0,0,0,0,0.00457039,2.31017,15.3809
0.736854,2.12722,-0.160762,1.06442,-1.68314,1.56958,0.967422,0.315269,1.54765,1.55592,0.999998,0.00182755,-2.16579e-05,-0.000199115,0,0,0,0,0,0,0,0,0,0,0,0,0,0,0,0,0,0,0,0,0,0,0,0,0,0,0,0,0.00457039,2.31017,15.3809
0.732294,2.12472,-0.163703,1.06219,-1.67869,1.56972,0.965362,0.319091,1.54721,1.55143,0.999999,0.00145656,-2.18505e-05,-0.000198983,0,0,0,0,0,0,0,0,0,0,0,0,0,0,0,0,0,0,0,0,0,0,0,0,0,0,0,0,0.00457039,2.31017,15.3809
0.727733,2.12222,-0.166644,1.05996,-1.67425,1.56986,0.963302,0.322914,1.54675,1.54694,0.999999,0.00108557,-2.05147e-05,-0.000198899,0,0,0,0,0,0,0,0,0,0,0,0,0,0,0,0,0,0,0,0,0,0,0,0,0,0,0,0,0.00457039,2.31017,15.3809
0.723173,2.11972,-0.169586,1.05773,-1.66981,1.57,0.961242,0.326737,1.54625,1.54244,1,0.000714606,-1.76507e-05,-0.000198864,0,0,0,0,0,0,0,0,0,0,0,0,0,0,0,0,0,0,0,0,0,0,0,0,0,0,0,0,0.00457039,2.31017,15.3809
0.718612,2.11722,-0.172527,1.0555,-1.66537,1.57013,0.959182,0.33056,1.54572,1.53794,1,0.000343666,-1.32585e-05,-0.000198876,0,0,0,0,0,0,0,0,0,0,0,0,0,0,0,0,0,0,0,0,0,0,0,0,0,0,0,0,0.00457039,2.31017,15.3809
0.714052,2.11472,-0.175468,1.05328,-1.66093,1.57027,0.957122,0.334384,1.54517,1.53343,1,-2.72447e-05,-7.3383e-06,-0.000198936,0,0,0,0,0,0,0,0,0,0,0,0,0,0,0,0,0,0,0,0,0,0,0,0,0,0,0,0,0.00457039,2.31017,15.3809
0.709491,2.11222,-0.17841,1.05105,-1.65649,1.57041,0.955063,0.338208,1.54458,1.52893,1,-0.000398121,1.0976e-07,-0.000199045,0,0,0,0,0,0,0,0,0,0,0,0,0,0,0,0,0,0,0,0,0,0,0,0,0,0,0,0,0.00457039,2.31017,15.3809
0.711229,2.11216,-0.178197,1.05189,-1.65647,1.57042,0.955063,0.335416,1.54535,1.52976,1,0.000130241,9.42814e-05,0.000699599,0,0,0,0,0,0,0,0,0,0,0,0,0,0,0,0,0,0,0,0,0,0,0,0,0,0,0,0,0.00457039,2.31017,15.3809
0.711268,2.11213,-0.178091,1.05195,-1.65646,1.57042,0.955063,0.335318,1.54537,1.52993,1,0.00021842,0.000111204,0.000733828,0,0,0,0,0,0,0,0,0,0,0,0,0,0,0,0,0,0,0,0,0,0,0,0,0,0,0,0,0.00457039,2.31017,15.3809
0.711268,2.11213,-0.178091,1.05195,-1.65646,1.57042,0.955063,0.335318,1.54537,1.52993,1,0.00021842,0.000111204,0.000733828,0,0,0,0,0,0,0,0,0,0,0,0,0,0,0,0,0,0,0,0,0,0,0,0,0,0,0,0,0.00457039,2.31017,15.3809
0.711268,2.11213,-0.178091,1.05195,-1.65646,1.57042,0.955063,0.335318,1.54537,1.52993,1,0.00021842,0.000111204,0.000733828,0,0,0,0,0,0,0,0,0,0,0,0,0,0,0,0,0,0,0,0,0,0,0,0,0,0,0,0,0.00457039,2.31017,15.3809
0.711268,2.11213,-0.178091,1.05195,-1.65646,1.57042,0.955063,0.335318,1.54537,1.52993,1,0.00021842,0.000111204,0.000733828,0,0,0,0,0,0,0,0,0,0,0,0,0,0,0,0,0,0,0,0,0,0,0,0,0,0,0,0,0.00457039,2.31017,15.3809
0.711268,2.11213,-0.178091,1.05195,-1.65646,1.57042,0.955063,0.335318,1.54537,1.52993,1,0.00021842,0.000111204,0.000733828,0,0,0,0,0,0,0,0,0,0,0,0,0,0,0,0,0,0,0,0,0,0,0,0,0,0,0,0,0.00457039,2.31017,15.3809
0.711268,2.11213,-0.178091,1.05195,-1.65646,1.57042,0.955063,0.335318,1.54537,1.52993,1,0.00021842,0.000111204,0.000733828,0,0,0,0,0,0,0,0,0,0,0,0,0,0,0,0,0,0,0,0,0,0,0,0,0,0,0,0,0.00457039,2.31017,15.3809
0.711268,2.11213,-0.178091,1.05195,-1.65646,1.57042,0.955063,0.335318,1.54537,1.52993,1,0.00021842,0.000111204,0.000733828,0,0,0,0,0,0,0,0,0,0,0,0,0,0,0,0,0,0,0,0,0,0,0,0,0,0,0,0,0.00457039,2.31017,15.3809
0.711268,2.11213,-0.178091,1.05195,-1.65646,1.57042,0.955063,0.335318,1.54537,1.52993,1,0.00021842,0.000111204,0.000733828,0,0,0,0,0,0,0,0,0,0,0,0,0,0,0,0,0,0,0,0,0,0,0,0,0,0,0,0,0.00457039,2.31017,15.3809
0.711268,2.11213,-0.178091,1.05195,-1.65646,1.57042,0.955063,0.335318,1.54537,1.52993,1,0.00021842,0.000111204,0.000733828,0,0,0,0,0,0,0,0,0,0,0,0,0,0,0,0,0,0,0,0,0,0,0,0,0,0,0,0,0.00457039,2.31017,15.3809

0.734491,2.11222,-0.173997,1.06604,-1.6759,1.57041,0.980063,0.3,1.55,1.5422,1,-0.000398163,7.9555e-08,-0.000199081,0,0,0,0,0,0,0,0,0,0,0,0,0,0,0,0,0,0,0,0,0,0,0,0,0,0,0,0,0.00464898,2.30784,15.3747
0.736803,2.11502,-0.171194,1.06683,-1.6787,1.57026,0.979568,0.300002,1.54994,1.54574,1,1.27058e-06,1.60562e-06,-0.000198858,0,0,0,0,0,0,0,0,0,0,0,0,0,0,0,0,0,0,0,0,0,0,0,0,0,0,0,0,0.00464898,2.30784,15.3747
0.739114,2.11783,-0.168391,1.06761,-1.68151,1.57012,0.979072,0.300004,1.54987,1.54927,1,0.000400712,2.73626e-06,-0.00019869,0,0,0,0,0,0,0,0,0,0,0,0,0,0,0,0,0,0,0,0,0,0,0,0,0,0,0,0,0.00464898,2.30784,15.3747
0.741425,2.12063,-0.165588,1.0684,-1.68431,1.56997,0.978577,0.300005,1.54979,1.5528,1,0.000800161,3.47151e-06,-0.000198579,0,0,0,0,0,0,0,0,0,0,0,0,0,0,0,0,0,0,0,0,0,0,0,0,0,0,0,0,0.00464898,2.30784,15.3747
0.743737,2.12344,-0.162785,1.06918,-1.68711,1.56982,0.978082,0.300005,1.54969,1.55633,0.999999,0.00119962,3.81138e-06,-0.000198524,0,0,0,0,0,0,0,0,0,0,0,0,0,0,0,0,0,0,0,0,0,0,0,0,0,0,0,0,0.00464898,2.30784,15.3747
0.746048,2.12624,-0.159982,1.06997,-1.68991,1.56967,0.977587,0.300004,1.54958,1.55985,0.999999,0.00159908,3.7559e-06,-0.000198524,0,0,0,0,0,0,0,0,0,0,0,0,0,0,0,0,0,0,0,0,0,0,0,0,0,0,0,0,0.00464898,2.30784,15.3747
0.74836,2.12905,-0.157179,1.07075,-1.69272,1.56953,0.977092,0.300003,1.54946,1.56337,0.999998,0.00199855,3.30507e-06,-0.000198581,0,0,0,0,0,0,0,0,0,0,0,0,0,0,0,0,0,0,0,0,0,0,0,0,0,0,0,0,0.00464898,2.30784,15.3747
0.750671,2.13186,-0.154376,1.07154,-1.69552,1.56938,0.976597,0.300001,1.54932,1.56689,0.999997,0.00239802,2.45892e-06,-0.000198694,0,0,0,0,0,0,0,0,0,0,0,0,0,0,0,0,0,0,0,0,0,0,0,0,0,0,0,0,0.00464898,2.30784,15.3747
0.752982,2.13466,-0.151573,1.07233,-1.69832,1.56923,0.976102,0.299997,1.54917,1.5704,0.999996,0.0027975,1.21763e-06,-0.000198863,0,0,0,0,0,0,0,0,0,0,0,0,0,0,0,0,0,0,0,0,0,0,0,0,0,0,0,0,0.00464898,2.30784,15.3747
0.755294,2.13747,-0.14877,1.07311,-1.70112,1.56909,0.975607,0.299994,1.549,1.57391,0.999995,0.00319698,-4.1895e-07,-0.000199088,0,0,0,0,0,0,0,0,0,0,0,0,0,0,0,0,0,0,0,0,0,0,0,0,0,0,0,0,0.00464898,2.30784,15.3747
0.75069,2.13494,-0.151739,1.0709,-1.69663,1.56922,0.97353,0.303846,1.5487,1.56942,0.999996,0.00284469,-5.89173e-06,-0.000199191,0,0,0,0,0,0,0,0,0,0,0,0,0,0,0,0,0,0,0,0,0,0,0,0,0,0,0,0,0.00464898,2.30784,15.3747
0.746086,2.13244,-0.154707,1.06868,-1.69214,1.56935,0.971453,0.30773,1.54837,1.56493,0.999997,0.00249298,-9.83106e-06,-0.000212191,0,0,0,0,0,0,0,0,0,0,0,0,0,0,0,0,0,0,0,0,0,0,0,0,0,0,0,0,0.00464898,2.30784,15.3747
0.741482,2.12994,-0.157674,1.06647,-1.68765,1.56948,0.969376,0.311616,1.548,1.56044,0.999998,0.00214239,-1.20578e-05,-0.000225188,0,0,0,0,0,0,0,0,0,0,0,0,0,0,0,0,0,0,0,0,0,0,0,0,0,0,0,0,0.00464898,2.30784,15.3747
0.736878,2.12744,-0.160639,1.06425,-1.68316,1.56961,0.967299,0.315502,1.5476,1.55595,0.999998,0.00179285,-1.25896e-05,-0.000238189,0,0,0,0,0,0,0,0,0,0,0,0,0,0,0,0,0,0,0,0,0,0,0,0,0,0,0,0,0.00464898,2.30784,15.3747
0.732274,2.12494,-0.163605,1.06204,-1.67867,1.56975,0.965222,0.319389,1.54718,1.55145,0.999999,0.00144294,-1.17017e-05,-0.000251228,0,0,0,0,0,0,0,0,0,0,0,0,0,0,0,0,0,0,0,0,0,0,0,0,0,0,0,0,0.00464898,2.30784,15.3747
0.72767,2.12244,-0.166575,1.05982,-1.67417,1.56988,0.963145,0.323277,1.54672,1.54694,0.999999,0.00108943,-9.97598e-06,-0.000264318,0,0,0,0,0,0,0,0,0,0,0,0,0,0,0,0,0,0,0,0,0,0,0,0,0,0,0,0,0.00464898,2.30784,15.3747
0.723067,2.11994,-0.169555,1.0576,-1.66968,1.57001,0.961068,0.327164,1.54623,1.5424,1,0.000727662,-8.20959e-06,-0.000277217,0,0,0,0,0,0,0,0,0,0,0,0,0,0,0,0,0,0,0,0,0,0,0,0,0,0,0,0,0.00464898,2.30784,15.3747
0.718465,2.11744,-0.172549,1.05537,-1.66519,1.57014,0.958992,0.33105,1.54571,1.53785,1,0.000354681,-6.79849e-06,-0.000289557,0,0,0,0,0,0,0,0,0,0,0,0,0,0,0,0,0,0,0,0,0,0,0,0,0,0,0,0,0.00464898,2.30784,15.3747
0.713865,2.11494,-0.175556,1.05313,-1.66071,1.57028,0.956915,0.334934,1.54515,1.53326,1,-2.94191e-05,-5.53295e-06,-0.00030109,0,0,0,0,0,0,0,0,0,0,0,0,0,0,0,0,0,0,0,0,0,0,0,0,0,0,0,0,0.00464898,2.30784,15.3747
0.709266,2.11244,-0.178571,1.05089,-1.65619,1.57041,0.954838,0.338816,1.54457,1.52866,1,-0.00040796,-1.52881e-06,-0.000312215,0,0,0,0,0,0,0,0,0,0,0,0,0,0,0,0,0,0,0,0,0,0,0,0,0,0,0,0,0.00464898,2.30784,15.3747
0.711004,2.11238,-0.178422,1.05166,-1.65624,1.57041,0.954838,0.33603,1.54532,1.52936,1,1.98731e-05,7.19563e-05,0.000586847,0,0,0,0,0,0,0,0,0,0,0,0,0,0,0,0,0,0,0,0,0,0,0,0,0,0,0,0,0.00464898,2.30784,15.3747
0.711043,2.11235,-0.178316,1.05172,-1.65624,1.57041,0.954838,0.335933,1.54534,1.52953,1,0.000104805,8.68354e-05,0.000621041,0,0,0,0,0,0,0,0,0,0,0,0,0,0,0,0,0,0,0,0,0,0,0,0,0,0,0,0,0.00464898,2.30784,15.3747
0.711048,2.11235,-0.178281,1.05175,-1.65624,1.57041,0.954838,0.33592,1.54534,1.52959,1,0.000138406,9.29113e-05,0.000625135,0,0,0,0,0,0,0,0,0,0,0,0,0,0,0,0,0,0,0,0,0,0,0,0,0,0,0,0,0.00464898,2.30784,15.3747
0.711054,2.11234,-0.178255,1.05178,-1.65623,1.57041,0.954838,0.335905,1.54535,1.52964,1,0.000164176,9.78079e-05,0.000630087,0,0,0,0,0,0,0,0,0,0,0,0,0,0,0,0,0,0,0,0,0,0,0,0,0,0,0,0,0.00464898,2.30784,15.3747
0.711062,2.11234,-0.178242,1.05179,-1.65623,1.57041,0.954838,0.335887,1.54536,1.52966,1,0.000178143,0.000100909,0.000636082,0,0,0,0,0,0,0,0,0,0,0,0,0,0,0,0,0,0,0,0,0,0,0,0,0,0,0,0,0.00464898,2.30784,15.3747
0.711069,2.11233,-0.178242,1.0518,-1.65623,1.57042,0.954839,0.335869,1.54536,1.52967,1,0.000181973,0.000102403,0.000642452,0,0,0,0,0,0,0,0,0,0,0,0,0,0,0,0,0,0,0,0,0,0,0,0,0,0,0,0,0.00464898,2.30784,15.3747
0.711076,2.11233,-0.178248,1.0518,-1.65623,1.57042,0.954839,0.335852,1.54536,1.52967,1,0.000180143,0.000102884,0.000648154,0,0,0,0,0,0,0,0,0,0,0,0,0,0,0,0,0,0,0,0,0,0,0,0,0,0,0,0,0.00464898,2.30784,15.3747
0.711081,2.11233,-0.178255,1.0518,-1.65623,1.57042,0.954839,0.335839,1.54536,1.52966,1,0.000176489,0.000102875,0.000652447,0,0,0,0,0,0,0,0,0,0,0,0,0,0,0,0,0,0,0,0,0,0,0,0,0,0,0,0,0.00464898,2.30784,15.3747
0.711084,2.11232,-0.17826,1.0518,-1.65623,1.57042,0.954839,0.335832,1.54537,1.52965,1,0.000173634,0.000102764,0.000655038,0,0,0,0,0,0,0,0,0,0,0,0,0,0,0,0,0,0,0,0,0,0,0,0,0,0,0,0,0.00464898,2.30784,15.3747
0.711085,2.11232,-0.178261,1.0518,-1.65623,1.57042,0.954839,0.335829,1.54537,1.52965,1,0.000172598,0.000102716,0.000655912,0,0,0,0,0,0,0,0,0,0,0,0,0,0,0,0,0,0,0,0,0,0,0,0,0,0,0,0,0.00464898,2.30784,15.3747

0.734491,2.11222,-0.173997,1.06604,-1.6759,1.57041,0.980063,0.3,1.55,1.5422,1,-0.000398163,7.9555e-08,-0.000199081,0,0,0,0,0,0,0,0,0,0,0,0,0,0,0,0,0,0,0,0,0,0,0,0,0,0,0,0,0.00476604,2.30461,15.3656
0.736833,2.11506,-0.171156,1.06679,-1.67874,1.57027,0.97956,0.300003,1.54993,1.54575,1,-1.77998e-05,1.69932e-06,-0.00019887,0,0,0,0,0,0,0,0,0,0,0,0,0,0,0,0,0,0,0,0,0,0,0,0,0,0,0,0,0.00476604,2.30461,15.3656
0.739174,2.1179,-0.168315,1.06754,-1.68158,1.57013,0.979057,0.300006,1.54985,1.5493,1,0.000362565,2.93534e-06,-0.00019871,0,0,0,0,0,0,0,0,0,0,0,0,0,0,0,0,0,0,0,0,0,0,0,0,0,0,0,0,0.00476604,2.30461,15.3656
0.741515,2.12074,-0.165475,1.06829,-1.68442,1.56999,0.978555,0.300007,1.54975,1.55284,1,0.000742923,3.78574e-06,-0.000198603,0,0,0,0,0,0,0,0,0,0,0,0,0,0,0,0,0,0,0,0,0,0,0,0,0,0,0,0,0.00476604,2.30461,15.3656
0.743856,2.12359,-0.162634,1.06903,-1.68726,1.56985,0.978052,0.300008,1.54964,1.55639,0.999999,0.00112327,4.24935e-06,-0.000198551,0,0,0,0,0,0,0,0,0,0,0,0,0,0,0,0,0,0,0,0,0,0,0,0,0,0,0,0,0.00476604,2.30461,15.3656
0.746198,2.12643,-0.159794,1.06978,-1.6901,1.56971,0.977549,0.300008,1.54952,1.55992,0.999999,0.00150359,4.32564e-06,-0.000198552,0,0,0,0,0,0,0,0,0,0,0,0,0,0,0,0,0,0,0,0,0,0,0,0,0,0,0,0,0.00476604,2.30461,15.3656
0.748539,2.12927,-0.156954,1.07053,-1.69294,1.56957,0.977047,0.300008,1.54938,1.56346,0.999998,0.00188391,4.0154e-06,-0.000198607,0,0,0,0,0,0,0,0,0,0,0,0,0,0,0,0,0,0,0,0,0,0,0,0,0,0,0,0,0.00476604,2.30461,15.3656
0.75088,2.13212,-0.154113,1.07128,-1.69578,1.56943,0.976544,0.300006,1.54923,1.56699,0.999997,0.00226421,3.31959e-06,-0.000198715,0,0,0,0,0,0,0,0,0,0,0,0,0,0,0,0,0,0,0,0,0,0,0,0,0,0,0,0,0.00476604,2.30461,15.3656
0.753221,2.13496,-0.151273,1.07203,-1.69862,1.56929,0.976042,0.300003,1.54906,1.57051,0.999996,0.0026445,2.23942e-06,-0.000198875,0,0,0,0,0,0,0,0,0,0,0,0,0,0,0,0,0,0,0,0,0,0,0,0,0,0,0,0,0.00476604,2.30461,15.3656
0.755563,2.1378,-0.148432,1.07277,-1.70146,1.56916,0.975539,0.3,1.54888,1.57404,0.999995,0.00302477,7.72913e-07,-0.000199086,0,0,0,0,0,0,0,0,0,0,0,0,0,0,0,0,0,0,0,0,0,0,0,0,0,0,0,0,0.00476604,2.30461,15.3656
0.750899,2.13528,-0.151453,1.07057,-1.6969,1.56929,0.973435,0.303939,1.54859,1.5695,0.999996,0.00268584,-1.94353e-06,-0.000215499,0,0,0,0,0,0,0,0,0,0,0,0,0,0,0,0,0,0,0,0,0,0,0,0,0,0,0,0,0.00476604,2.30461,15.3656
0.746235,2.13278,-0.154475,1.06836,-1.69234,1.56942,0.971331,0.307909,1.54827,1.56496,0.999997,0.00234543,-3.56106e-06,-0.000244522,0,0,0,0,0,0,0,0,0,0,0,0,0,0,0,0,0,0,0,0,0,0,0,0,0,0,0,0,0.00476604,2.30461,15.3656
0.741572,2.13028,-0.157502,1.06615,-1.68778,1.56955,0.969227,0.311881,1.54791,1.56041,0.999998,0.0020017,-4.38746e-06,-0.000273823,0,0,0,0,0,0,0,0,0,0,0,0,0,0,0,0,0,0,0,0,0,0,0,0,0,0,0,0,0.00476604,2.30461,15.3656
0.736907,2.12778,-0.160536,1.06394,-1.68322,1.56968,0.967123,0.315856,1.54752,1.55585,0.999999,0.00165274,-4.7721e-06,-0.000303558,0,0,0,0,0,0,0,0,0,0,0,0,0,0,0,0,0,0,0,0,0,0,0,0,0,0,0,0,0.00476604,2.30461,15.3656
0.732243,2.12528,-0.163578,1.06172,-1.67865,1.56981,0.96502,0.319833,1.54711,1.55126,0.999999,0.00129651,-5.02269e-06,-0.000333628,0,0,0,0,0,0,0,0,0,0,0,0,0,0,0,0,0,0,0,0,0,0,0,0,0,0,0,0,0.00476604,2.30461,15.3656
0.727579,2.12278,-0.16663,1.05949,-1.67409,1.56995,0.962916,0.32381,1.54665,1.54665,0.999999,0.000933735,-4.93514e-06,-0.000363737,0,0,0,0,0,0,0,0,0,0,0,0,0,0,0,0,0,0,0,0,0,0,0,0,0,0,0,0,0.00476604,2.30461,15.3656
0.722915,2.12028,-0.16969,1.05727,-1.66953,1.57008,0.960812,0.327787,1.54617,1.54203,1,0.000563829,-4.58176e-06,-0.00039367,0,0,0,0,0,0,0,0,0,0,0,0,0,0,0,0,0,0,0,0,0,0,0,0,0,0,0,0,0.00476604,2.30461,15.3656
0.718252,2.11778,-0.172758,1.05503,-1.66498,1.57021,0.958708,0.331764,1.54565,1.53739,1,0.000187421,-3.82963e-06,-0.00042315,0,0,0,0,0,0,0,0,0,0,0,0,0,0,0,0,0,0,0,0,0,0,0,0,0,0,0,0,0.00476604,2.30461,15.3656
0.71359,2.11528,-0.175834,1.0528,-1.66042,1.57034,0.956604,0.33574,1.5451,1.53273,1,-0.000195318,-2.62585e-06,-0.000452077,0,0,0,0,0,0,0,0,0,0,0,0,0,0,0,0,0,0,0,0,0,0,0,0,0,0,0,0,0.00476604,2.30461,15.3656
0.708928,2.11278,-0.178906,1.05056,-1.65586,1.57047,0.9545,0.339716,1.54452,1.52807,1,-0.000576526,1.96224e-07,-0.000481213,0,0,0,0,0,0,0,0,0,0,0,0,0,0,0,0,0,0,0,0,0,0,0,0,0,0,0,0,0.00476604,2.30461,15.3656
0.710667,2.11272,-0.178759,1.05132,-1.65591,1.57047,0.954501,0.33693,1.54527,1.52877,1,-0.000150695,7.21575e-05,0.000418155,0,0,0,0,0,0,0,0,0,0,0,0,0,0,0,0,0,0,0,0,0,0,0,0,0,0,0,0,0.00476604,2.30461,15.3656
0.710705,2.11269,-0.178653,1.05139,-1.6559,1.57047,0.954501,0.336835,1.54528,1.52894,1,-6.71088e-05,8.54984e-05,0.000452345,0,0,0,0,0,0,0,0,0,0,0,0,0,0,0,0,0,0,0,0,0,0,0,0,0,0,0,0,0.00476604,2.30461,15.3656
0.710711,2.11268,-0.178615,1.05141,-1.6559,1.57047,0.954501,0.336821,1.54529,1.529,1,-3.25349e-05,9.02349e-05,0.000457149,0,0,0,0,0,0,0,0,0,0,0,0,0,0,0,0,0,0,0,0,0,0,0,0,0,0,0,0,0.00476604,2.30461,15.3656
0.710718,2.11268,-0.178578,1.05144,-1.6559,1.57046,0.954501,0.336807,1.54529,1.52906,1,-1.39026e-06,9.43851e-05,0.000462161,0,0,0,0,0,0,0,0,0,0,0,0,0,0,0,0,0,0,0,0,0,0,0,0,0,0,0,0,0.00476604,2.30461,15.3656
0.710724,2.11268,-0.178544,1.05146,-1.6559,1.57046,0.954501,0.336791,1.5453,1.52912,1,2.55445e-05,9.79185e-05,0.000467656,0,0,0,0,0,0,0,0,0,0,0,0,0,0,0,0,0,0,0,0,0,0,0,0,0,0,0,0,0.00476604,2.30461,15.3656
0.710732,2.11267,-0.178514,1.05147,-1.6559,1.57046,0.954501,0.336774,1.5453,1.52916,1,4.89834e-05,0.000101009,0.000473761,0,0,0,0,0,0,0,0,0,0,0,0,0,0,0,0,0,0,0,0,0,0,0,0,0,0,0,0,0.00476604,2.30461,15.3656
0.710739,2.11267,-0.17849,1.05149,-1.6559,1.57046,0.954501,0.336758,1.54531,1.5292,1,6.79705e-05,0.000103523,0.000479458,0,0,0,0,0,0,0,0,0,0,0,0,0,0,0,0,0,0,0,0,0,0,0,0,0,0,0,0,0.00476604,2.30461,15.3656
0.710744,2.11266,-0.178472,1.0515,-1.6559,1.57046,0.954501,0.336747,1.54531,1.52923,1,8.18086e-05,0.000105356,0.000483744,0,0,0,0,0,0,0,0,0,0,0,0,0,0,0,0,0,0,0,0,0,0,0,0,0,0,0,0,0.00476604,2.30461,15.3656
0.710747,2.11266,-0.178461,1.0515,-1.6559,1.57046,0.954501,0.336739,1.54531,1.52925,1,9.0051e-05,0.000106439,0.00048633,0,0,0,0,0,0,0,0,0,0,0,0,0,0,0,0,0,0,0,0,0,0,0,0,0,0,0,0,0.00476604,2.30461,15.3656
0.710748,2.11266,-0.178457,1.0515,-1.6559,1.57046,0.954501,0.336737,1.54531,1.52925,1,9.27919e-05,0.000106791,0.000487203,0,0,0,0,0,0,0,0,0,0,0,0,0,0,0,0,0,0,0,0,0,0,0,0,0,0,0,0,0.00476604,2.30461,15.3656

0.734491,2.11222,-0.173997,1.06604,-1.6759,1.57041,0.980063,0.3,1.55,1.5422,1,-0.000398163,7.9555e-08,-0.000199081,0,0,0,0,0,0,0,0,0,0,0,0,0,0,0,0,0,0,0,0,0,0,0,0,0,0,0,0,0.00494604,2.29987,15.352
0.736878,2.11511,-0.1711,1.06673,-1.6788,1.57028,0.979549,0.300004,1.54991,1.54577,1,-4.65258e-05,1.59594e-06,-0.000198911,0,0,0,0,0,0,0,0,0,0,0,0,0,0,0,0,0,0,0,0,0,0,0,0,0,0,0,0,0.00494604,2.29987,15.352
0.739265,2.11801,-0.168203,1.06743,-1.68169,1.57015,0.979036,0.300007,1.54981,1.54934,1,0.00030512,2.75133e-06,-0.000198784,0,0,0,0,0,0,0,0,0,0,0,0,0,0,0,0,0,0,0,0,0,0,0,0,0,0,0,0,0.00494604,2.29987,15.352
0.741652,2.12091,-0.165306,1.06812,-1.68459,1.57002,0.978523,0.300009,1.54969,1.55291,1,0.000656773,3.54575e-06,-0.000198699,0,0,0,0,0,0,0,0,0,0,0,0,0,0,0,0,0,0,0,0,0,0,0,0,0,0,0,0,0.00494604,2.29987,15.352
0.744039,2.12381,-0.16241,1.06881,-1.68749,1.5699,0.97801,0.30001,1.54956,1.55647,0.999999,0.00100843,3.97925e-06,-0.000198658,0,0,0,0,0,0,0,0,0,0,0,0,0,0,0,0,0,0,0,0,0,0,0,0,0,0,0,0,0.00494604,2.29987,15.352
0.746425,2.12671,-0.159513,1.0695,-1.69038,1.56977,0.977496,0.30001,1.54942,1.56003,0.999999,0.0013601,4.05185e-06,-0.000198659,0,0,0,0,0,0,0,0,0,0,0,0,0,0,0,0,0,0,0,0,0,0,0,0,0,0,0,0,0.00494604,2.29987,15.352
0.748812,2.12961,-0.156616,1.07019,-1.69328,1.56964,0.976983,0.300009,1.54926,1.56358,0.999999,0.00171178,3.76361e-06,-0.000198703,0,0,0,0,0,0,0,0,0,0,0,0,0,0,0,0,0,0,0,0,0,0,0,0,0,0,0,0,0.00494604,2.29987,15.352
0.751199,2.13251,-0.15372,1.07088,-1.69618,1.56951,0.97647,0.300007,1.54909,1.56713,0.999998,0.00206346,3.11455e-06,-0.00019879,0,0,0,0,0,0,0,0,0,0,0,0,0,0,0,0,0,0,0,0,0,0,0,0,0,0,0,0,0.00494604,2.29987,15.352
0.753586,2.13541,-0.150823,1.07158,-1.69907,1.56938,0.975957,0.300004,1.5489,1.57068,0.999997,0.00241515,2.10471e-06,-0.00019892,0,0,0,0,0,0,0,0,0,0,0,0,0,0,0,0,0,0,0,0,0,0,0,0,0,0,0,0,0.00494604,2.29987,15.352
0.755973,2.13831,-0.147926,1.07227,-1.70197,1.56925,0.975444,0.3,1.5487,1.57423,0.999996,0.00276684,7.34099e-07,-0.000199093,0,0,0,0,0,0,0,0,0,0,0,0,0,0,0,0,0,0,0,0,0,0,0,0,0,0,0,0,0.00494604,2.29987,15.352
0.751217,2.13578,-0.151059,1.07006,-1.69731,1.56938,0.973299,0.304073,1.54843,1.56957,0.999997,0.00242219,-3.39829e-06,-0.000240827,0,0,0,0,0,0,0,0,0,0,0,0,0,0,0,0,0,0,0,0,0,0,0,0,0,0,0,0,0.00494604,2.29987,15.352
0.746462,2.13328,-0.154194,1.06785,-1.69264,1.56952,0.971154,0.308177,1.54812,1.56491,0.999998,0.00207644,-6.28502e-06,-0.00029515,0,0,0,0,0,0,0,0,0,0,0,0,0,0,0,0,0,0,0,0,0,0,0,0,0,0,0,0,0.00494604,2.29987,15.352
0.741707,2.13078,-0.157331,1.06564,-1.68798,1.56965,0.969009,0.312283,1.54778,1.56024,0.999998,0.00172824,-8.13992e-06,-0.000349707,0,0,0,0,0,0,0,0,0,0,0,0,0,0,0,0,0,0,0,0,0,0,0,0,0,0,0,0,0.00494604,2.29987,15.352
0.736951,2.12828,-0.160472,1.06343,-1.68332,1.56978,0.966864,0.316392,1.54741,1.55556,0.999999,0.00137594,-9.25898e-06,-0.000404637,0,0,0,0,0,0,0,0,0,0,0,0,0,0,0,0,0,0,0,0,0,0,0,0,0,0,0,0,0.00494604,2.29987,15.352
0.732196,2.12578,-0.163618,1.06121,-1.67866,1.56991,0.964719,0.320503,1.547,1.55086,0.999999,0.00101894,-9.70049e-06,-0.000459808,0,0,0,0,0,0,0,0,0,0,0,0,0,0,0,0,0,0,0,0,0,0,0,0,0,0,0,0,0.00494604,2.29987,15.352
0.72744,2.12328,-0.166769,1.05899,-1.67399,1.57004,0.962574,0.324615,1.54655,1.54615,1,0.000657032,-9.44933e-06,-0.000515009,0,0,0,0,0,0,0,0,0,0,0,0,0,0,0,0,0,0,0,0,0,0,0,0,0,0,0,0,0.00494604,2.29987,15.352
0.722685,2.12078,-0.169925,1.05676,-1.66933,1.57017,0.960429,0.328728,1.54608,1.54143,1,0.000290227,-8.46924e-06,-0.000570069,0,0,0,0,0,0,0,0,0,0,0,0,0,0,0,0,0,0,0,0,0,0,0,0,0,0,0,0,0.00494604,2.29987,15.352
0.71793,2.11828,-0.173085,1.05453,-1.66467,1.5703,0.958284,0.332841,1.54556,1.53669,1,-8.08317e-05,-6.59258e-06,-0.000624845,0,0,0,0,0,0,0,0,0,0,0,0,0,0,0,0,0,0,0,0,0,0,0,0,0,0,0,0,0.00494604,2.29987,15.352
0.713176,2.11578,-0.176248,1.05229,-1.66001,1.57043,0.956139,0.336953,1.54502,1.53194,1,-0.000456025,-3.75123e-06,-0.000679359,0,0,0,0,0,0,0,0,0,0,0,0,0,0,0,0,0,0,0,0,0,0,0,0,0,0,0,0,0.00494604,2.29987,15.352
0.708422,2.11329,-0.179412,1.05005,-1.65535,1.57056,0.953994,0.341067,1.54443,1.52718,0.999999,-0.000833373,4.00795e-07,-0.000734266,0,0,0,0,0,0,0,0,0,0,0,0,0,0,0,0,0,0,0,0,0,0,0,0,0,0,0,0,0.00494604,2.29987,15.352
0.71016,2.11322,-0.179265,1.05082,-1.6554,1.57055,0.953994,0.338282,1.54518,1.52788,1,-0.000407347,7.10028e-05,0.000165117,0,0,0,0,0,0,0,0,0,0,0,0,0,0,0,0,0,0,0,0,0,0,0,0,0,0,0,0,0.00494604,2.29987,15.352
0.710199,2.11319,-0.17916,1.05088,-1.6554,1.57055,0.953995,0.338187,1.5452,1.52804,1,-0.000323711,8.38485e-05,0.000199285,0,0,0,0,0,0,0,0,0,0,0,0,0,0,0,0,0,0,0,0,0,0,0,0,0,0,0,0,0.00494604,2.29987,15.352
0.710205,2.11319,-0.179084,1.05092,-1.6554,1.57055,0.953995,0.338173,1.54521,1.52816,1,-0.000263635,9.26843e-05,0.000204049,0,0,0,0,0,0,0,0,0,0,0,0,0,0,0,0,0,0,0,0,0,0,0,0,0,0,0,0,0.00494604,2.29987,15.352
0.710211,2.11319,-0.179011,1.05096,-1.65539,1.57055,0.953995,0.338159,1.54521,1.52828,1,-0.000205914,0.000101182,0.000209018,0,0,0,0,0,0,0,0,0,0,0,0,0,0,0,0,0,0,0,0,0,0,0,0,0,0,0,0,0.00494604,2.29987,15.352
0.710218,2.11318,-0.178944,1.051,-1.65539,1.57054,0.953995,0.338143,1.54522,1.52839,1,-0.00015284,0.000109001,0.000214474,0,0,0,0,0,0,0,0,0,0,0,0,0,0,0,0,0,0,0,0,0,0,0,0,0,0,0,0,0.00494604,2.29987,15.352
0.710226,2.11318,-0.178885,1.05104,-1.65539,1.57054,0.953995,0.338126,1.54522,1.52848,1,-0.000106493,0.000115831,0.000220546,0,0,0,0,0,0,0,0,0,0,0,0,0,0,0,0,0,0,0,0,0,0,0,0,0,0,0,0,0.00494604,2.29987,15.352
0.710233,2.11317,-0.178837,1.05106,-1.65539,1.57054,0.953995,0.33811,1.54523,1.52856,1,-6.86476e-05,0.000121409,0.000226218,0,0,0,0,0,0,0,0,0,0,0,0,0,0,0,0,0,0,0,0,0,0,0,0,0,0,0,0,0.00494604,2.29987,15.352
0.710238,2.11317,-0.178802,1.05109,-1.65539,1.57054,0.953995,0.338098,1.54523,1.52861,1,-4.07201e-05,0.000125521,0.000230485,0,0,0,0,0,0,0,0,0,0,0,0,0,0,0,0,0,0,0,0,0,0,0,0,0,0,0,0,0.00494604,2.29987,15.352
0.710241,2.11317,-0.17878,1.0511,-1.65539,1.57054,0.953995,0.338091,1.54523,1.52865,1,-2.37348e-05,0.000128017,0.000233058,0,0,0,0,0,0,0,0,0,0,0,0,0,0,0,0,0,0,0,0,0,0,0,0,0,0,0,0,0.00494604,2.29987,15.352
0.710242,2.11317,-0.178772,1.0511,-1.65539,1.57054,0.953995,0.338088,1.54524,1.52866,1,-1.79784e-05,0.00012886,0.000233927,0,0,0,0,0,0,0,0,0,0,0,0,0,0,0,0,0,0,0,0,0,0,0,0,0,0,0,0,0.00494604,2.29987,15.352

0.734491,2.11222,-0.173997,1.06604,-1.6759,1.57041,0.980063,0.3,1.55,1.5422,1,-0.000398163,7.9555e-08,-0.000199081,0,0,0,0,0,0,0,0,0,0,0,0,0,0,0,0,0,0,0,0,0,0,0,0,0,0,0,0,0.00494604,2.29987,15.352
0.736878,2.11511,-0.1711,1.06673,-1.6788,1.57028,0.979549,0.300004,1.54991,1.54577,1,-4.65258e-05,1.59594e-06,-0.000198911,0,0,0,0,0,0,0,0,0,0,0,0,0,0,0,0,0,0,0,0,0,0,0,0,0,0,0,0,0.00494604,2.29987,15.352
0.739265,2.11801,-0.168203,1.06743,-1.68169,1.57015,0.979036,0.300007,1.54981,1.54934,1,0.00030512,2.75133e-06,-0.000198784,0,0,0,0,0,0,0,0,0,0,0,0,0,0,0,0,0,0,0,0,0,0,0,0,0,0,0,0,0.00494604,2.29987,15.352
0.741652,2.12091,-0.165306,1.06812,-1.68459,1.57002,0.978523,0.300009,1.54969,1.55291,1,0.000656773,3.54575e-06,-0.000198699,0,0,0,0,0,0,0,0,0,0,0,0,0,0,0,0,0,0,0,0,0,0,0,0,0,0,0,0,0.00494604,2.29987,15.352
0.744039,2.12381,-0.16241,1.06881,-1.68749,1.5699,0.97801,0.30001,1.54956,1.55647,0.999999,0.00100843,3.97925e-06,-0.000198658,0,0,0,0,0,0,0,0,0,0,0,0,0,0,0,0,0,0,0,0,0,0,0,0,0,0,0,0,0.00494604,2.29987,15.352
0.746425,2.12671,-0.159513,1.0695,-1.69038,1.56977,0.977496,0.30001,1.54942,1.56003,0.999999,0.0013601,4.05185e-06,-0.000198659,0,0,0,0,0,0,0,0,0,0,0,0,0,0,0,0,0,0,0,0,0,0,0,0,0,0,0,0,0.00494604,2.29987,15.352
0.748812,2.12961,-0.156616,1.07019,-1.69328,1.56964,0.976983,0.300009,1.54926,1.56358,0.999999,0.00171178,3.76361e-06,-0.000198703,0,0,0,0,0,0,0,0,0,0,0,0,0,0,0,0,0,0,0,0,0,0,0,0,0,0,0,0,0.00494604,2.29987,15.352
0.751199,2.13251,-0.15372,1.07088,-1.69618,1.56951,0.97647,0.300007,1.54909,1.56713,0.999998,0.00206346,3.11455e-06,-0.00019879,0,0,0,0,0,0,0,0,0,0,0,0,0,0,0,0,0,0,0,0,0,0,0,0,0,0,0,0,0.00494604,2.29987,15.352
0.753586,2.13541,-0.150823,1.07158,-1.69907,1.56938,0.975957,0.300004,1.5489,1.57068,0.999997,0.00241515,2.10471e-06,-0.00019892,0,0,0,0,0,0,0,0,0,0,0,0,0,0,0,0,0,0,0,0,0,0,0,0,0,0,0,0,0.00494604,2.29987,15.352
0.755973,2.13831,-0.147926,1.07227,-1.70197,1.56925,0.975444,0.3,1.5487,1.57423,0.999996,0.00276684,7.34099e-07,-0.000199093,0,0,0,0,0,0,0,0,0,0,0,0,0,0,0,0,0,0,0,0,0,0,0,0,0,0,0,0,0.00494604,2.29987,15.352
0.751217,2.13578,-0.151059,1.07006,-1.69731,1.56938,0.973299,0.304073,1.54843,1.56957,0.999997,0.00242219,-3.39829e-06,-0.000240827,0,0,0,0,0,0,0,0,0,0,0,0,0,0,0,0,0,0,0,0,0,0,0,0,0,0,0,0,0.00494604,2.29987,15.352
0.746462,2.13328,-0.154194,1.06785,-1.69264,1.56952,0.971154,0.308177,1.54812,1.56491,0.999998,0.00207644,-6.28502e-06,-0.00029515,0,0,0,0,0,0,0,0,0,0,0,0,0,0,0,0,0,0,0,0,0,0,0,0,0,0,0,0,0.00494604,2.29987,15.352
0.741707,2.13078,-0.157331,1.06564,-1.68798,1.56965,0.969009,0.312283,1.54778,1.56024,0.999998,0.00172824,-8.13992e-06,-0.000349707,0,0,0,0,0,0,0,0,0,0,0,0,0,0,0,0,0,0,0,0,0,0,0,0,0,0,0,0,0.00494604,2.29987,15.352
0.736951,2.12828,-0.160472,1.06343,-1.68332,1.56978,0.966864,0.316392,1.54741,1.55556,0.999999,0.00137594,-9.25898e-06,-0.000404637,0,0,0,0,0,0,0,0,0,0,0,0,0,0,0,0,0,0,0,0,0,0,0,0,0,0,0,0,0.00494604,2.29987,15.352
0.732196,2.12578,-0.163618,1.06121,-1.67866,1.56991,0.964719,0.320503,1.547,1.55086,0.999999,0.00101894,-9.70049e-06,-0.000459808,0,0,0,0,0,0,0,0,0,0,0,0,0,0,0,0,0,0,0,0,0,0,0,0,0,0,0,0,0.00494604,2.29987,15.352
0.72744,2.12328,-0.166769,1.05899,-1.67399,1.57004,0.962574,0.324615,1.54655,1.54615,1,0.000657032,-9.44933e-06,-0.000515009,0,0,0,0,0,0,0,0,0,0,0,0,0,0,0,0,0,0,0,0,0,0,0,0,0,0,0,0,0.00494604,2.29987,15.352
0.722685,2.12078,-0.169925,1.05676,-1.66933,1.57017,0.960429,0.328728,1.54608,1.54143,1,0.000290227,-8.46924e-06,-0.000570069,0,0,0,0,0,0,0,0,0,0,0,0,0,0,0,0,0,0,0,0,0,0,0,0,0,0,0,0,0.00494604,2.29987,15.352
0.71793,2.11828,-0.173085,1.05453,-1.66467,1.5703,0.958284,0.332841,1.54556,1.53669,1,-8.08317e-05,-6.59258e-06,-0.000624845,0,0,0,0,0,0,0,0,0,0,0,0,0,0,0,0,0,0,0,0,0,0,0,0,0,0,0,0,0.00494604,2.29987,15.352
0.713176,2.11578,-0.176248,1.05229,-1.66001,1.57043,0.956139,0.336953,1.54502,1.53194,1,-0.000456025,-3.75123e-06,-0.000679359,0,0,0,0,0,0,0,0,0,0,0,0,0,0,0,0,0,0,0,0,0,0,0,0,0,0,0,0,0.00494604,2.29987,15.352
0.708422,2.11329,-0.179412,1.05005,-1.65535,1.57056,0.953994,0.341067,1.54443,1.52718,0.999999,-0.000833373,4.00795e-07,-0.000734266,0,0,0,0,0,0,0,0,0,0,0,0,0,0,0,0,0,0,0,0,0,0,0,0,0,0,0,0,0.00494604,2.29987,15.352
0.71016,2.11322,-0.179265,1.05082,-1.6554,1.57055,0.953994,0.338282,1.54518,1.52788,1,-0.000407347,7.10028e-05,0.000165117,0,0,0,0,0,0,0,0,0,0,0,0,0,0,0,0,0,0,0,0,0,0,0,0,0,0,0,0,0.00494604,2.29987,15.352
0.710199,2.11319,-0.17916,1.05088,-1.6554,1.57055,0.953995,0.338187,1.5452,1.52804,1,-0.000323711,8.38485e-05,0.000199285,0,0,0,0,0,0,0,0,0,0,0,0,0,0,0,0,0,0,0,0,0,0,0,0,0,0,0,0,0.00494604,2.29987,15.352
0.710205,2.11319,-0.179084,1.05092,-1.6554,1.57055,0.953995,0.338173,1.54521,1.52816,1,-0.000263635,9.26843e-05,0.000204049,0,0,0,0,0,0,0,0,0,0,0,0,0,0,0,0,0,0,0,0,0,0,0,0,0,0,0,0,0.00494604,2.29987,15.352
0.710211,2.11319,-0.179011,1.05096,-1.65539,1.57055,0.953995,0.338159,1.54521,1.52828,1,-0.000205914,0.000101182,0.000209018,0,0,0,0,0,0,0,0,0,0,0,0,0,0,0,0,0,0,0,0,0,0,0,0,0,0,0,0,0.00494604,2.29987,15.352
0.710218,2.11318,-0.178944,1.051,-1.65539,1.57054,0.953995,0.338143,1.54522,1.52839,1,-0.00015284,0.000109001,0.000214474,0,0,0,0,0,0,0,0,0,0,0,0,0,0,0,0,0,0,0,0,0,0,0,0,0,0,0,0,0.00494604,2.29987,15.352
0.710226,2.11318,-0.178885,1.05104,-1.65539,1.57054,0.953995,0.338126,1.54522,1.52848,1,-0.000106493,0.000115831,0.000220546,0,0,0,0,0,0,0,0,0,0,0,0,0,0,0,0,0,0,0,0,0,0,0,0,0,0,0,0,0.00494604,2.29987,15.352
0.710233,2.11317,-0.178837,1.05106,-1.65539,1.57054,0.953995,0.33811,1.54523,1.52856,1,-6.86476e-05,0.000121409,0.000226218,0,0,0,0,0,0,0,0,0,0,0,0,0,0,0,0,0,0,0,0,0,0,0,0,0,0,0,0,0.00494604,2.29987,15.352
0.710238,2.11317,-0.178802,1.05109,-1.65539,1.57054,0.953995,0.338098,1.54523,1.52861,1,-4.07201e-05,0.000125521,0.000230485,0,0,0,0,0,0,0,0,0,0,0,0,0,0,0,0,0,0,0,0,0,0,0,0,0,0,0,0,0.00494604,2.29987,15.352
0.710241,2.11317,-0.17878,1.0511,-1.65539,1.57054,0.953995,0.338091,1.54523,1.52865,1,-2.37348e-05,0.000128017,0.000233058,0,0,0,0,0,0,0,0,0,0,0,0,0,0,0,0,0,0,0,0,0,0,0,0,0,0,0,0,0.00494604,2.29987,15.352
0.710242,2.11317,-0.178772,1.0511,-1.65539,1.57054,0.953995,0.338088,1.54524,1.52866,1,-1.79784e-05,0.00012886,0.000233927,0,0,0,0,0,0,0,0,0,0,0,0,0,0,0,0,0,0,0,0,0,0,0,0,0,0,0,0,0.00494604,2.29987,15.352

0.734491,2.11222,-0.173997,1.06604,-1.6759,1.57041,0.980063,0.3,1.55,1.5422,1,-0.000398163,7.9555e-08,-0.000199081,0,0,0,0,0,0,0,0,0,0,0,0,0,0,0,0,0,0.00673238,0.00673238,0,0,0,0,0,0,0,0,0,0.00500708,2.29846,15.348
0.736893,2.11513,-0.171083,1.06672,-1.67881,1.57028,0.979546,0.300003,1.54991,1.54578,1,-5.4938e-05,1.49113e-06,-0.000198918,0,0,0,0,0,0,0,0,0,0,0,0,0,0,0,0,0,0.00673238,0.00673238,0,0,0,0,0,0,0,0,0,0.00500708,2.29846,15.348
0.739295,2.11805,-0.16817,1.06739,-1.68173,1.57016,0.97903,0.300006,1.5498,1.54936,1,0.000288295,2.54811e-06,-0.000198796,0,0,0,0,0,0,0,0,0,0,0,0,0,0,0,0,0,0.00673238,0.00673238,0,0,0,0,0,0,0,0,0,0.00500708,2.29846,15.348
0.741697,2.12097,-0.165256,1.06807,-1.68464,1.57003,0.978513,0.300008,1.54968,1.55293,1,0.000631536,3.2505e-06,-0.000198715,0,0,0,0,0,0,0,0,0,0,0,0,0,0,0,0,0,0.00673238,0.00673238,0,0,0,0,0,0,0,0,0,0.00500708,2.29846,15.348
0.744099,2.12389,-0.162343,1.06874,-1.68755,1.56991,0.977997,0.300008,1.54954,1.5565,1,0.000974785,3.59834e-06,-0.000198674,0,0,0,0,0,0,0,0,0,0,0,0,0,0,0,0,0,0.00673238,0.00673238,0,0,0,0,0,0,0,0,0,0.00500708,2.29846,15.348
0.7465,2.1268,-0.159429,1.06942,-1.69047,1.56978,0.97748,0.300008,1.54939,1.56006,0.999999,0.00131804,3.59164e-06,-0.000198675,0,0,0,0,0,0,0,0,0,0,0,0,0,0,0,0,0,0.00673238,0.00673238,0,0,0,0,0,0,0,0,0,0.00500708,2.29846,15.348
0.748902,2.12972,-0.156516,1.07009,-1.69338,1.56966,0.976964,0.300007,1.54923,1.56362,0.999999,0.0016613,3.23044e-06,-0.000198716,0,0,0,0,0,0,0,0,0,0,0,0,0,0,0,0,0,0.00673238,0.00673238,0,0,0,0,0,0,0,0,0,0.00500708,2.29846,15.348
0.751304,2.13264,-0.153602,1.07077,-1.69629,1.56953,0.976447,0.300004,1.54905,1.56718,0.999998,0.00200457,2.51474e-06,-0.000198798,0,0,0,0,0,0,0,0,0,0,0,0,0,0,0,0,0,0.00673238,0.00673238,0,0,0,0,0,0,0,0,0,0.00500708,2.29846,15.348
0.753706,2.13556,-0.150689,1.07144,-1.69921,1.56941,0.975931,0.300001,1.54886,1.57073,0.999997,0.00234785,1.44458e-06,-0.00019892,0,0,0,0,0,0,0,0,0,0,0,0,0,0,0,0,0,0.00673238,0.00673238,0,0,0,0,0,0,0,0,0,0.00500708,2.29846,15.348
0.756108,2.13847,-0.147775,1.07212,-1.70212,1.56928,0.975415,0.299996,1.54865,1.57428,0.999996,0.00269113,1.99727e-08,-0.000199084,0,0,0,0,0,0,0,0,0,0,0,0,0,0,0,0,0,0.00673238,0.00673238,0,0,0,0,0,0,0,0,0,0.00500708,2.29846,15.348
0.751326,2.13593,-0.150926,1.06993,-1.69742,1.56941,0.973257,0.304091,1.54839,1.56963,0.999997,0.00236301,-1.40907e-06,-0.00024115,0,0,0,0,0,0,0,0,0,0,0,0,0,0,0,0,0,0.00673238,0.00673238,0,0,0,0,0,0,0,0,0,0.00500708,2.29846,15.348
0.746543,2.13342,-0.154076,1.06774,-1.69273,1.56954,0.9711,0.30822,1.54809,1.56497,0.999998,0.0020349,-1.4418e-06,-0.000296768,0,0,0,0,0,0,0,0,0,0,0,0,0,0,0,0,0,0.00673238,0.00673238,0,0,0,0,0,0,0,0,0,0.00500708,2.29846,15.348
0.741761,2.13091,-0.157226,1.06555,-1.68803,1.56967,0.968943,0.31235,1.54775,1.5603,0.999998,0.0017068,-1.95224e-08,-0.000352436,0,0,0,0,0,0,0,0,0,0,0,0,0,0,0,0,0,0.00673238,0.00673238,0,0,0,0,0,0,0,0,0,0.00500708,2.29846,15.348
0.736979,2.1284,-0.160377,1.06336,-1.68334,1.5698,0.966786,0.316482,1.54739,1.55563,0.999999,0.00137873,2.86035e-06,-0.000408158,0,0,0,0,0,0,0,0,0,0,0,0,0,0,0,0,0,0.00673238,0.00673238,0,0,0,0,0,0,0,0,0,0.00500708,2.29846,15.348
0.732197,2.12588,-0.163527,1.06118,-1.67864,1.56993,0.964629,0.320616,1.54699,1.55095,0.999999,0.00105067,7.19945e-06,-0.000463942,0,0,0,0,0,0,0,0,0,0,0,0,0,0,0,0,0,0.00673238,0.00673238,0,0,0,0,0,0,0,0,0,0.00500708,2.29846,15.348
0.727415,2.12337,-0.166678,1.05899,-1.67395,1.57006,0.962472,0.32475,1.54655,1.54627,1,0.000722659,1.30014e-05,-0.000519792,0,0,0,0,0,0,0,0,0,0,0,0,0,0,0,0,0,0.00673238,0.00673238,0,0,0,0,0,0,0,0,0,0.00500708,2.29846,15.348
0.722632,2.12086,-0.169828,1.0568,-1.66925,1.57019,0.960315,0.328886,1.54608,1.54158,1,0.000394701,2.02699e-05,-0.00057572,0,0,0,0,0,0,0,0,0,0,0,0,0,0,0,0,0,0.00673238,0.00673238,0,0,0,0,0,0,0,0,0,0.00500708,2.29846,15.348
0.71785,2.11834,-0.172978,1.05461,-1.66456,1.57032,0.958158,0.333023,1.54558,1.53689,1,6.68248e-05,2.90065e-05,-0.000631759,0,0,0,0,0,0,0,0,0,0,0,0,0,0,0,0,0,0.00673238,0.00673238,0,0,0,0,0,0,0,0,0,0.00500708,2.29846,15.348
0.713068,2.11583,-0.176128,1.05242,-1.65986,1.57045,0.956001,0.33716,1.54504,1.53219,1,-0.000260946,3.92069e-05,-0.000687972,0,0,0,0,0,0,0,0,0,0,0,0,0,0,0,0,0,0.00673238,0.00673238,0,0,0,0,0,0,0,0,0,0.00500708,2.29846,15.348
0.708272,2.11344,-0.179579,1.04989,-1.6552,1.57059,0.953844,0.341466,1.5444,1.52689,0.999999,-0.000924669,2.38069e-07,-0.000809248,0,0,0,0,0,0,0,0,0,0,0,0,0,0,0,0,0,0.00673238,0.00673238,0,0,0,0,0,0,0,0,0,0.00500708,2.29846,15.348
0.71001,2.11331,-0.179146,1.05095,-1.65525,1.57062,0.953844,0.338589,1.5452,1.52813,1,-0.000216072,0.000137367,0.000121211,0,0,0,0,0,0,0,0,0,0,0,0,0,0,0,0,0,0.00673238,0.00673238,0,0,0,0,0,0,0,0,0,0.00500708,2.29846,15.348
0.710049,2.11331,-0.179118,1.05095,-1.65525,1.57062,0.953845,0.338527,1.54521,1.52816,1,-0.000202374,0.000139944,0.000141361,0,0,0,0,0,0,0,0,0,0,0,0,0,0,0,0,0,0.00673238,0.00673238,0,0,0,0,0,0,0,0,0,0.00500708,2.29846,15.348
0.710056,2.11331,-0.17909,1.05095,-1.65525,1.57062,0.953845,0.338514,1.54521,1.52819,1,-0.000188657,0.000142499,0.000145644,0,0,0,0,0,0,0,0,0,0,0,0,0,0,0,0,0,0.00673238,0.00673238,0,0,0,0,0,0,0,0,0,0.00500708,2.29846,15.348
0.710063,2.11331,-0.179063,1.05095,-1.65525,1.57062,0.953845,0.338502,1.54521,1.52823,1,-0.000174922,0.000145028,0.000149718,0,0,0,0,0,0,0,0,0,0,0,0,0,0,0,0,0,0.00673238,0.00673238,0,0,0,0,0,0,0,0,0,0.00500708,2.29846,15.348
0.71007,2.11331,-0.179035,1.05095,-1.65525,1.57062,0.953845,0.338491,1.54521,1.52826,1,-0.000161168,0.000147532,0.000153583,0,0,0,0,0,0,0,0,0,0,0,0,0,0,0,0,0,0.00673238,0.00673238,0,0,0,0,0,0,0,0,0,0.00500708,2.29846,15.348
0.710076,2.11331,-0.179007,1.05095,-1.65525,1.57062,0.953845,0.33848,1.54521,1.52829,1,-0.000147396,0.00015001,0.000157243,0,0,0,0,0,0,0,0,0,0,0,0,0,0,0,0,0,0.00673238,0.00673238,0,0,0,0,0,0,0,0,0,0.00500708,2.29846,15.348
0.710083,2.1133,-0.178979,1.05095,-1.65525,1.57062,0.953845,0.33847,1.54521,1.52833,1,-0.000133606,0.000152463,0.000160699,0,0,0,0,0,0,0,0,0,0,0,0,0,0,0,0,0,0.00673238,0.00673238,0,0,0,0,0,0,0,0,0,0.00500708,2.29846,15.348
0.710088,2.1133,-0.178952,1.05095,-1.65525,1.57062,0.953845,0.338462,1.5452,1.52836,1,-0.000119796,0.00015489,0.00016348,0,0,0,0,0,0,0,0,0,0,0,0,0,0,0,0,0,0.00673238,0.00673238,0,0,0,0,0,0,0,0,0,0.00500708,2.29846,15.348
0.710091,2.1133,-0.17893,1.05095,-1.65525,1.57062,0.953845,0.338457,1.5452,1.52838,1,-0.000108834,0.000156803,0.000165154,0,0,0,0,0,0,0,0,0,0,0,0,0,0,0,0,0,0.00673238,0.00673238,0,0,0,0,0,0,0,0,0,0.00500708,2.29846,15.348
0.710092,2.1133,-0.178922,1.05095,-1.65525,1.57062,0.953845,0.338455,1.5452,1.52839,1,-0.000104988,0.000157473,0.000165719,0,0,0,0,0,0,0,0,0,0,0,0,0,0,0,0,0,0.00673238,0.00673238,0,0,0,0,0,0,0,0,0,0.00500708,2.29846,15.348

0.734491,2.11222,-0.173997,1.06604,-1.6759,1.57041,0.980063,0.3,1.55,1.5422,1,-0.000398163,7.9555e-08,-0.000199081,0,0,0,0,0,0,0,0,0,0,0,0,0,0,0,0,0,0.0155782,0.0155782,0,0,0,0,0,0,0,0,0,0.0050878,2.29631,15.342
0.736915,2.11516,-0.171058,1.06669,-1.67884,1.57029,0.979541,0.300003,1.5499,1.54579,1,-6.7566e-05,1.4062e-06,-0.000198931,0,0,0,0,0,0,0,0,0,0,0,0,0,0,0,0,0,0.0155782,0.0155782,0,0,0,0,0,0,0,0,0,0.0050878,2.29631,15.342
0.73934,2.11811,-0.168119,1.06734,-1.68178,1.57017,0.979019,0.300006,1.54978,1.54937,1,0.000263039,2.38787e-06,-0.000198818,0,0,0,0,0,0,0,0,0,0,0,0,0,0,0,0,0,0.0155782,0.0155782,0,0,0,0,0,0,0,0,0,0.0050878,2.29631,15.342
0.741764,2.12105,-0.165181,1.06799,-1.68471,1.57005,0.978498,0.300007,1.54965,1.55296,1,0.000593652,3.02458e-06,-0.000198743,0,0,0,0,0,0,0,0,0,0,0,0,0,0,0,0,0,0.0155782,0.0155782,0,0,0,0,0,0,0,0,0,0.0050878,2.29631,15.342
0.744188,2.124,-0.162242,1.06864,-1.68765,1.56993,0.977976,0.300008,1.54951,1.55654,1,0.000924273,3.31636e-06,-0.000198706,0,0,0,0,0,0,0,0,0,0,0,0,0,0,0,0,0,0.0155782,0.0155782,0,0,0,0,0,0,0,0,0,0.0050878,2.29631,15.342
0.746612,2.12694,-0.159303,1.06929,-1.69059,1.56981,0.977455,0.300007,1.54935,1.56011,0.999999,0.0012549,3.26322e-06,-0.000198707,0,0,0,0,0,0,0,0,0,0,0,0,0,0,0,0,0,0.0155782,0.0155782,0,0,0,0,0,0,0,0,0,0.0050878,2.29631,15.342
0.749036,2.12989,-0.156365,1.06994,-1.69353,1.56969,0.976933,0.300006,1.54918,1.56368,0.999999,0.00158554,2.86519e-06,-0.000198745,0,0,0,0,0,0,0,0,0,0,0,0,0,0,0,0,0,0.0155782,0.0155782,0,0,0,0,0,0,0,0,0,0.0050878,2.29631,15.342
0.751461,2.13283,-0.153426,1.07059,-1.69647,1.56957,0.976412,0.300003,1.54899,1.56725,0.999998,0.00191618,2.1223e-06,-0.000198821,0,0,0,0,0,0,0,0,0,0,0,0,0,0,0,0,0,0.0155782,0.0155782,0,0,0,0,0,0,0,0,0,0.0050878,2.29631,15.342
0.753885,2.13578,-0.150487,1.07124,-1.69941,1.56945,0.97589,0.299999,1.54879,1.57081,0.999997,0.00224683,1.03459e-06,-0.000198935,0,0,0,0,0,0,0,0,0,0,0,0,0,0,0,0,0,0.0155782,0.0155782,0,0,0,0,0,0,0,0,0,0.0050878,2.29631,15.342
0.756309,2.13872,-0.147549,1.07189,-1.70234,1.56932,0.975368,0.299994,1.54858,1.57437,0.999997,0.00257748,-3.97979e-07,-0.000199087,0,0,0,0,0,0,0,0,0,0,0,0,0,0,0,0,0,0.0155782,0.0155782,0,0,0,0,0,0,0,0,0,0.0050878,2.29631,15.342
0.751493,2.13616,-0.150719,1.06974,-1.6976,1.56944,0.973194,0.304114,1.54833,1.56972,0.999997,0.00228388,-2.2717e-06,-0.00023791,0,0,0,0,0,0,0,0,0,0,0,0,0,0,0,0,0,0.0155782,0.0155782,0,0,0,0,0,0,0,0,0,0.0050878,2.29631,15.342
0.746677,2.13364,-0.153889,1.06759,-1.69286,1.56955,0.971019,0.308281,1.54804,1.56507,0.999998,0.00199075,-2.82984e-06,-0.000296012,0,0,0,0,0,0,0,0,0,0,0,0,0,0,0,0,0,0.0155782,0.0155782,0,0,0,0,0,0,0,0,0,0.0050878,2.29631,15.342
0.741861,2.13111,-0.157057,1.06545,-1.68811,1.56967,0.968844,0.31245,1.54773,1.56042,0.999998,0.00169898,-1.82259e-06,-0.000354145,0,0,0,0,0,0,0,0,0,0,0,0,0,0,0,0,0,0.0155782,0.0155782,0,0,0,0,0,0,0,0,0,0.0050878,2.29631,15.342
0.737044,2.12859,-0.160221,1.0633,-1.68337,1.56978,0.966669,0.316621,1.54738,1.55576,0.999999,0.00141022,1.0398e-06,-0.000412343,0,0,0,0,0,0,0,0,0,0,0,0,0,0,0,0,0,0.0155782,0.0155782,0,0,0,0,0,0,0,0,0,0.0050878,2.29631,15.342
0.732228,2.12606,-0.16338,1.06116,-1.67862,1.5699,0.964494,0.320793,1.54699,1.55111,0.999999,0.00112631,6.0558e-06,-0.000470615,0,0,0,0,0,0,0,0,0,0,0,0,0,0,0,0,0,0.0155782,0.0155782,0,0,0,0,0,0,0,0,0,0.0050878,2.29631,15.342
0.727411,2.12354,-0.166529,1.05902,-1.67388,1.57001,0.962319,0.324968,1.54657,1.54647,0.999999,0.000849848,1.36459e-05,-0.00052923,0,0,0,0,0,0,0,0,0,0,0,0,0,0,0,0,0,0.0155782,0.0155782,0,0,0,0,0,0,0,0,0,0.0050878,2.29631,15.342
0.722593,2.12101,-0.169667,1.05689,-1.66913,1.57013,0.960144,0.329145,1.54612,1.54185,1,0.000581895,2.39365e-05,-0.000588629,0,0,0,0,0,0,0,0,0,0,0,0,0,0,0,0,0,0.0155782,0.0155782,0,0,0,0,0,0,0,0,0,0.0050878,2.29631,15.342
0.717773,2.11849,-0.172796,1.05476,-1.66439,1.57024,0.957969,0.333327,1.54563,1.53723,1,0.000321884,3.67024e-05,-0.000649521,0,0,0,0,0,0,0,0,0,0,0,0,0,0,0,0,0,0.0155782,0.0155782,0,0,0,0,0,0,0,0,0,0.0050878,2.29631,15.342
0.712951,2.11597,-0.175919,1.05264,-1.65964,1.57036,0.955794,0.337515,1.54511,1.53261,1,6.6473e-05,5.13922e-05,-0.000712065,0,0,0,0,0,0,0,0,0,0,0,0,0,0,0,0,0,0.0155782,0.0155782,0,0,0,0,0,0,0,0,0,0.0050878,2.29631,15.342
0.708047,2.11366,-0.179816,1.05011,-1.65498,1.57055,0.953619,0.34207,1.54448,1.52678,0.999999,-0.00082246,3.10008e-07,-0.000921702,0,0,0,0,0,0,0,0,0,0,0,0,0,0,0,0,0,0.0155782,0.0155782,0,0,0,0,0,0,0,0,0,0.0050878,2.29631,15.342
0.709785,2.11343,-0.178935,1.05117,-1.65503,1.57064,0.953619,0.339053,1.54522,1.52855,1,0.000102849,0.000200124,6.34094e-05,0,0,0,0,0,0,0,0,0,0,0,0,0,0,0,0,0,0.0155782,0.0155782,0,0,0,0,0,0,0,0,0,0.0050878,2.29631,15.342
0.709824,2.11342,-0.178979,1.05114,-1.65503,1.57064,0.95362,0.338978,1.54523,1.52848,1,6.62563e-05,0.000196451,8.84426e-05,0,0,0,0,0,0,0,0,0,0,0,0,0,0,0,0,0,0.0155782,0.0155782,0,0,0,0,0,0,0,0,0,0.0050878,2.29631,15.342
0.709836,2.11341,-0.179019,1.05112,-1.65504,1.57065,0.95362,0.338946,1.54523,1.52842,1,3.28317e-05,0.000193315,9.97057e-05,0,0,0,0,0,0,0,0,0,0,0,0,0,0,0,0,0,0.0155782,0.0155782,0,0,0,0,0,0,0,0,0,0.0050878,2.29631,15.342
0.709846,2.1134,-0.179053,1.0511,-1.65504,1.57065,0.95362,0.338918,1.54523,1.52836,1,4.82314e-06,0.000190845,0.000109448,0,0,0,0,0,0,0,0,0,0,0,0,0,0,0,0,0,0.0155782,0.0155782,0,0,0,0,0,0,0,0,0,0.0050878,2.29631,15.342
0.709855,2.11339,-0.179078,1.05108,-1.65504,1.57066,0.95362,0.338895,1.54523,1.52832,1,-1.65164e-05,0.000189143,0.000117464,0,0,0,0,0,0,0,0,0,0,0,0,0,0,0,0,0,0.0155782,0.0155782,0,0,0,0,0,0,0,0,0,0.0050878,2.29631,15.342
0.709861,2.11338,-0.179096,1.05107,-1.65504,1.57066,0.95362,0.338877,1.54523,1.52829,1,-3.14139e-05,0.000188141,0.00012373,0,0,0,0,0,0,0,0,0,0,0,0,0,0,0,0,0,0.0155782,0.0155782,0,0,0,0,0,0,0,0,0,0.0050878,2.29631,15.342
0.709866,2.11338,-0.179107,1.05107,-1.65505,1.57066,0.95362,0.338863,1.54524,1.52828,1,-4.0913e-05,0.000187673,0.000128353,0,0,0,0,0,0,0,0,0,0,0,0,0,0,0,0,0,0.0155782,0.0155782,0,0,0,0,0,0,0,0,0,0.0050878,2.29631,15.342
0.70987,2.11337,-0.179114,1.05106,-1.65505,1.57066,0.95362,0.338854,1.54524,1.52827,1,-4.63978e-05,0.000187537,0.000131513,0,0,0,0,0,0,0,0,0,0,0,0,0,0,0,0,0,0.0155782,0.0155782,0,0,0,0,0,0,0,0,0,0.0050878,2.29631,15.342
0.709871,2.11337,-0.179117,1.05106,-1.65505,1.57066,0.95362,0.338849,1.54524,1.52826,1,-4.91353e-05,0.000187546,0.000133358,0,0,0,0,0,0,0,0,0,0,0,0,0,0,0,0,0,0.0155782,0.0155782,0,0,0,0,0,0,0,0,0,0.0050878,2.29631,15.342
0.709872,2.11337,-0.179118,1.05106,-1.65505,1.57066,0.95362,0.338847,1.54524,1.52826,1,-4.99649e-05,0.000187575,0.000133974,0,0,0,0,0,0,0,0,0,0,0,0,0,0,0,0,0,0.0155782,0.0155782,0,0,0,0,0,0,0,0,0,0.0050878,2.29631,15.342

0.734491,2.11222,-0.173997,1.06604,-1.6759,1.57041,0.980063,0.3,1.55,1.5422,1,-0.000398163,7.9555e-08,-0.000199081,0,0,0,0,0,0,0,0,0,0,0,0,0,0,0,0,0,0.0286781,0.0286781,0,0,0,0,0,0,0,0,0,0.00521732,2.29309,15.3331
0.736949,2.1152,-0.17102,1.06666,-1.67888,1.5703,0.979533,0.300003,1.54989,1.5458,1,-8.65083e-05,1.28321e-06,-0.000198949,0,0,0,0,0,0,0,0,0,0,0,0,0,0,0,0,0,0.0286781,0.0286781,0,0,0,0,0,0,0,0,0,0.00521732,2.29309,15.3331
0.739407,2.11819,-0.168044,1.06727,-1.68185,1.57018,0.979004,0.300006,1.54976,1.5494,1,0.000225155,2.15679e-06,-0.00019885,0,0,0,0,0,0,0,0,0,0,0,0,0,0,0,0,0,0.0286781,0.0286781,0,0,0,0,0,0,0,0,0,0.00521732,2.29309,15.3331
0.741864,2.12117,-0.165067,1.06788,-1.68483,1.57007,0.978475,0.300007,1.54962,1.553,1,0.000536826,2.70031e-06,-0.000198784,0,0,0,0,0,0,0,0,0,0,0,0,0,0,0,0,0,0.0286781,0.0286781,0,0,0,0,0,0,0,0,0,0.00521732,2.29309,15.3331
0.744322,2.12416,-0.162091,1.06849,-1.6878,1.56996,0.977945,0.300007,1.54946,1.55659,1,0.000848505,2.9138e-06,-0.000198752,0,0,0,0,0,0,0,0,0,0,0,0,0,0,0,0,0,0.0286781,0.0286781,0,0,0,0,0,0,0,0,0,0.00521732,2.29309,15.3331
0.74678,2.12715,-0.159115,1.06911,-1.69078,1.56984,0.977416,0.300007,1.54929,1.56018,0.999999,0.00116019,2.79728e-06,-0.000198753,0,0,0,0,0,0,0,0,0,0,0,0,0,0,0,0,0,0.0286781,0.0286781,0,0,0,0,0,0,0,0,0,0.00521732,2.29309,15.3331
0.749237,2.13013,-0.156138,1.06972,-1.69375,1.56973,0.976887,0.300005,1.54911,1.56377,0.999999,0.00147188,2.35076e-06,-0.000198788,0,0,0,0,0,0,0,0,0,0,0,0,0,0,0,0,0,0.0286781,0.0286781,0,0,0,0,0,0,0,0,0,0.00521732,2.29309,15.3331
0.751695,2.13312,-0.153162,1.07033,-1.69673,1.56962,0.976357,0.300001,1.54891,1.56735,0.999998,0.00178358,1.57427e-06,-0.000198856,0,0,0,0,0,0,0,0,0,0,0,0,0,0,0,0,0,0.0286781,0.0286781,0,0,0,0,0,0,0,0,0,0.00521732,2.29309,15.3331
0.754153,2.13611,-0.150185,1.07094,-1.69971,1.5695,0.975828,0.299997,1.5487,1.57093,0.999998,0.00209529,4.67794e-07,-0.000198957,0,0,0,0,0,0,0,0,0,0,0,0,0,0,0,0,0,0.0286781,0.0286781,0,0,0,0,0,0,0,0,0,0.00521732,2.29309,15.3331
0.75661,2.13909,-0.147209,1.07156,-1.70268,1.56939,0.975299,0.299991,1.54847,1.5745,0.999997,0.002407,-9.68562e-07,-0.000199092,0,0,0,0,0,0,0,0,0,0,0,0,0,0,0,0,0,0.0286781,0.0286781,0,0,0,0,0,0,0,0,0,0.00521732,2.29309,15.3331
0.75173,2.1365,-0.150382,1.06948,-1.69786,1.56948,0.973097,0.304168,1.54824,1.56991,0.999998,0.00218748,1.54347e-06,-0.000239582,0,0,0,0,0,0,0,0,0,0,0,0,0,0,0,0,0,0.0286781,0.0286781,0,0,0,0,0,0,0,0,0,0.00521732,2.29309,15.3331
0.74685,2.13397,-0.153553,1.06741,-1.69304,1.56958,0.970896,0.308427,1.54797,1.56532,0.999998,0.00196897,5.10003e-06,-0.000313827,0,0,0,0,0,0,0,0,0,0,0,0,0,0,0,0,0,0.0286781,0.0286781,0,0,0,0,0,0,0,0,0,0.00521732,2.29309,15.3331
0.74197,2.13144,-0.156722,1.06533,-1.68823,1.56967,0.968694,0.312688,1.54768,1.56072,0.999998,0.00175163,9.87272e-06,-0.000388101,0,0,0,0,0,0,0,0,0,0,0,0,0,0,0,0,0,0.0286781,0.0286781,0,0,0,0,0,0,0,0,0,0.00521732,2.29309,15.3331
0.73709,2.12891,-0.159888,1.06326,-1.68341,1.56977,0.966492,0.31695,1.54735,1.55613,0.999999,0.00153712,1.61635e-05,-0.00046243,0,0,0,0,0,0,0,0,0,0,0,0,0,0,0,0,0,0.0286781,0.0286781,0,0,0,0,0,0,0,0,0,0.00521732,2.29309,15.3331
0.732209,2.12638,-0.163048,1.06119,-1.67859,1.56987,0.964291,0.321214,1.54698,1.55153,0.999999,0.00132728,2.42833e-05,-0.000536839,0,0,0,0,0,0,0,0,0,0,0,0,0,0,0,0,0,0.0286781,0.0286781,0,0,0,0,0,0,0,0,0,0.00521732,2.29309,15.3331
0.727328,2.12385,-0.166199,1.05913,-1.67377,1.56996,0.962089,0.325481,1.54658,1.54695,0.999999,0.00112475,3.467e-05,-0.000611603,0,0,0,0,0,0,0,0,0,0,0,0,0,0,0,0,0,0.0286781,0.0286781,0,0,0,0,0,0,0,0,0,0.00521732,2.29309,15.3331
0.722446,2.12132,-0.16934,1.05707,-1.66895,1.57006,0.959887,0.32975,1.54615,1.54238,0.999999,0.00093065,4.7427e-05,-0.000687154,0,0,0,0,0,0,0,0,0,0,0,0,0,0,0,0,0,0.0286781,0.0286781,0,0,0,0,0,0,0,0,0,0.00521732,2.29309,15.3331
0.717562,2.11879,-0.17247,1.05502,-1.66413,1.57015,0.957685,0.334024,1.54568,1.53782,0.999999,0.00074477,6.22789e-05,-0.000764124,0,0,0,0,0,0,0,0,0,0,0,0,0,0,0,0,0,0.0286781,0.0286781,0,0,0,0,0,0,0,0,0,0.00521732,2.29309,15.3331
0.712676,2.11627,-0.175595,1.05297,-1.6593,1.57025,0.955484,0.338304,1.54518,1.53326,0.999999,0.000563831,7.84132e-05,-0.000842627,0,0,0,0,0,0,0,0,0,0,0,0,0,0,0,0,0,0.0286781,0.0286781,0,0,0,0,0,0,0,0,0,0.00521732,2.29309,15.3331
0.707709,2.114,-0.180159,1.05044,-1.65464,1.5705,0.953282,0.342977,1.54459,1.52664,0.999999,-0.000654434,2.44157e-07,-0.00109059,0,0,0,0,0,0,0,0,0,0,0,0,0,0,0,0,0,0.0286781,0.0286781,0,0,0,0,0,0,0,0,0,0.00521732,2.29309,15.3331
0.709448,2.11371,-0.178611,1.0515,-1.65469,1.57063,0.953282,0.339892,1.54527,1.5292,1,0.00059173,0.000278004,-7.83915e-05,0,0,0,0,0,0,0,0,0,0,0,0,0,0,0,0,0,0.0286781,0.0286781,0,0,0,0,0,0,0,0,0,0.00521732,2.29309,15.3331
0.709487,2.11369,-0.178657,1.05147,-1.6547,1.57064,0.953282,0.33981,1.54528,1.52913,1,0.000554149,0.000275769,-5.04137e-05,0,0,0,0,0,0,0,0,0,0,0,0,0,0,0,0,0,0.0286781,0.0286781,0,0,0,0,0,0,0,0,0,0.00521732,2.29309,15.3331
0.709506,2.11368,-0.178698,1.05145,-1.6547,1.57064,0.953282,0.339758,1.54528,1.52906,1,0.000519577,0.000273613,-3.26085e-05,0,0,0,0,0,0,0,0,0,0,0,0,0,0,0,0,0,0.0286781,0.0286781,0,0,0,0,0,0,0,0,0,0.00521732,2.29309,15.3331
0.709523,2.11366,-0.178734,1.05143,-1.6547,1.57065,0.953282,0.339712,1.54528,1.52901,1,0.000490137,0.00027193,-1.64953e-05,0,0,0,0,0,0,0,0,0,0,0,0,0,0,0,0,0,0.0286781,0.0286781,0,0,0,0,0,0,0,0,0,0.00521732,2.29309,15.3331
0.709538,2.11365,-0.178762,1.05141,-1.65471,1.57066,0.953282,0.339672,1.54529,1.52896,1,0.00046681,0.000270831,-2.66419e-06,0,0,0,0,0,0,0,0,0,0,0,0,0,0,0,0,0,0.0286781,0.0286781,0,0,0,0,0,0,0,0,0,0.00521732,2.29309,15.3331
0.709551,2.11364,-0.178783,1.0514,-1.65471,1.57066,0.953283,0.339639,1.54529,1.52893,1,0.00044973,0.000270296,8.64731e-06,0,0,0,0,0,0,0,0,0,0,0,0,0,0,0,0,0,0.0286781,0.0286781,0,0,0,0,0,0,0,0,0,0.00521732,2.29309,15.3331
0.70956,2.11363,-0.178797,1.05139,-1.65471,1.57066,0.953283,0.339614,1.54529,1.52891,1,0.000438139,0.000270177,1.73937e-05,0,0,0,0,0,0,0,0,0,0,0,0,0,0,0,0,0,0.0286781,0.0286781,0,0,0,0,0,0,0,0,0,0.00521732,2.29309,15.3331
0.709567,2.11363,-0.178805,1.05139,-1.65471,1.57067,0.953283,0.339596,1.54529,1.52889,1,0.000430941,0.00027028,2.35976e-05,0,0,0,0,0,0,0,0,0,0,0,0,0,0,0,0,0,0.0286781,0.0286781,0,0,0,0,0,0,0,0,0,0.00521732,2.29309,15.3331
0.709571,2.11362,-0.17881,1.05138,-1.65471,1.57067,0.953283,0.339585,1.54529,1.52889,1,0.000427094,0.000270431,2.73105e-05,0,0,0,0,0,0,0,0,0,0,0,0,0,0,0,0,0,0.0286781,0.0286781,0,0,0,0,0,0,0,0,0,0.00521732,2.29309,15.3331
0.709572,2.11362,-0.178811,1.05138,-1.65471,1.57067,0.953283,0.339582,1.54529,1.52888,1,0.000425876,0.000270508,2.85685e-05,0,0,0,0,0,0,0,0,0,0,0,0,0,0,0,0,0,0.0286781,0.0286781,0,0,0,0,0,0,0,0,0,0.00521732,2.29309,15.3331

0.734491,2.11222,-0.173997,1.06604,-1.6759,1.57041,0.980063,0.3,1.55,1.5422,1,-0.000398163,7.9555e-08,-0.000199081,0,0,0,0,0,0,0,0,0,0,0,0,0,0,0,0,0,0.257928,0.257928,0,0,0,0,0,0,0,0,0,0.00543418,2.28825,15.3193
0.736999,2.11526,-0.170964,1.0666,-1.67893,1.57031,0.979522,0.300003,1.54987,1.54583,1,-0.000114921,1.09537e-06,-0.000198974,0,0,0,0,0,0,0,0,0,0,0,0,0,0,0,0,0,0.257928,0.257928,0,0,0,0,0,0,0,0,0,0.00543418,2.28825,15.3193
0.739507,2.11831,-0.167931,1.06716,-1.68196,1.5702,0.978981,0.300006,1.54972,1.54945,1,0.00016833,1.80457e-06,-0.000198894,0,0,0,0,0,0,0,0,0,0,0,0,0,0,0,0,0,0.257928,0.257928,0,0,0,0,0,0,0,0,0,0.00543418,2.28825,15.3193
0.742015,2.12136,-0.164897,1.06771,-1.685,1.5701,0.97844,0.300007,1.54956,1.55307,1,0.000451589,2.20716e-06,-0.000198842,0,0,0,0,0,0,0,0,0,0,0,0,0,0,0,0,0,0.257928,0.257928,0,0,0,0,0,0,0,0,0,0.00543418,2.28825,15.3193
0.744523,2.12441,-0.161864,1.06827,-1.68803,1.57,0.977899,0.300007,1.54939,1.55668,1,0.000734855,2.30315e-06,-0.000198816,0,0,0,0,0,0,0,0,0,0,0,0,0,0,0,0,0,0.257928,0.257928,0,0,0,0,0,0,0,0,0,0.00543418,2.28825,15.3193
0.747031,2.12746,-0.158831,1.06882,-1.69106,1.5699,0.977358,0.300005,1.5492,1.56029,0.999999,0.00101813,2.09258e-06,-0.000198819,0,0,0,0,0,0,0,0,0,0,0,0,0,0,0,0,0,0.257928,0.257928,0,0,0,0,0,0,0,0,0,0.00543418,2.28825,15.3193
0.749539,2.13051,-0.155798,1.06938,-1.69409,1.56979,0.976817,0.300003,1.549,1.5639,0.999999,0.00130141,1.57546e-06,-0.000198848,0,0,0,0,0,0,0,0,0,0,0,0,0,0,0,0,0,0.257928,0.257928,0,0,0,0,0,0,0,0,0,0.00543418,2.28825,15.3193
0.752047,2.13355,-0.152765,1.06994,-1.69712,1.56969,0.976276,0.299999,1.54878,1.5675,0.999999,0.0015847,7.51804e-07,-0.000198905,0,0,0,0,0,0,0,0,0,0,0,0,0,0,0,0,0,0.257928,0.257928,0,0,0,0,0,0,0,0,0,0.00543418,2.28825,15.3193
0.754555,2.1366,-0.149732,1.07049,-1.70016,1.56959,0.975735,0.299994,1.54855,1.5711,0.999998,0.001868,-3.78367e-07,-0.000198989,0,0,0,0,0,0,0,0,0,0,0,0,0,0,0,0,0,0.257928,0.257928,0,0,0,0,0,0,0,0,0,0.00543418,2.28825,15.3193
0.757063,2.13965,-0.146699,1.07105,-1.70319,1.56949,0.975194,0.299987,1.5483,1.57469,0.999998,0.0021513,-1.81503e-06,-0.000199101,0,0,0,0,0,0,0,0,0,0,0,0,0,0,0,0,0,0.257928,0.257928,0,0,0,0,0,0,0,0,0,0.00543418,2.28825,15.3193
0.752132,2.137,-0.149877,1.06908,-1.69826,1.56953,0.972953,0.304186,1.54811,1.57019,0.999998,0.00204274,-3.69623e-06,-0.000219296,0,0,0,0,0,0,0,0,0,0,0,0,0,0,0,0,0,0.257928,0.257928,0,0,0,0,0,0,0,0,0,0.00543418,2.28825,15.3193
0.747201,2.13443,-0.153055,1.06712,-1.69333,1.56957,0.970711,0.308479,1.54789,1.56567,0.999998,0.00193409,-5.23146e-06,-0.000278553,0,0,0,0,0,0,0,0,0,0,0,0,0,0,0,0,0,0.257928,0.257928,0,0,0,0,0,0,0,0,0,0.00543418,2.28825,15.3193
0.74227,2.13186,-0.156233,1.06515,-1.6884,1.56962,0.968469,0.312775,1.54764,1.56116,0.999998,0.00182507,-6.3235e-06,-0.000338253,0,0,0,0,0,0,0,0,0,0,0,0,0,0,0,0,0,0.257928,0.257928,0,0,0,0,0,0,0,0,0,0.00543418,2.28825,15.3193
0.737338,2.12929,-0.159411,1.06319,-1.68347,1.56966,0.966227,0.317075,1.54736,1.55663,0.999998,0.00171573,-6.93137e-06,-0.000398545,0,0,0,0,0,0,0,0,0,0,0,0,0,0,0,0,0,0.257928,0.257928,0,0,0,0,0,0,0,0,0,0.00543418,2.28825,15.3193
0.732405,2.12672,-0.16259,1.06122,-1.67854,1.56971,0.963985,0.321378,1.54704,1.5521,0.999999,0.0016061,-7.03354e-06,-0.000459627,0,0,0,0,0,0,0,0,0,0,0,0,0,0,0,0,0,0.257928,0.257928,0,0,0,0,0,0,0,0,0,0.00543418,2.28825,15.3193
0.72747,2.12416,-0.165768,1.05925,-1.67361,1.56975,0.961743,0.325685,1.54668,1.54757,0.999999,0.00149652,-6.55049e-06,-0.000521735,0,0,0,0,0,0,0,0,0,0,0,0,0,0,0,0,0,0.257928,0.257928,0,0,0,0,0,0,0,0,0,0.00543418,2.28825,15.3193
0.722534,2.12159,-0.168945,1.05729,-1.66868,1.5698,0.959501,0.329998,1.54629,1.54303,0.999999,0.00138768,-5.38472e-06,-0.000585362,0,0,0,0,0,0,0,0,0,0,0,0,0,0,0,0,0,0.257928,0.257928,0,0,0,0,0,0,0,0,0,0.00543418,2.28825,15.3193
0.717594,2.11902,-0.17212,1.05532,-1.66375,1.56984,0.957259,0.33432,1.54587,1.53849,0.999999,0.00128069,-3.5219e-06,-0.000651989,0,0,0,0,0,0,0,0,0,0,0,0,0,0,0,0,0,0.257928,0.257928,0,0,0,0,0,0,0,0,0,0.00543418,2.28825,15.3193
0.712646,2.11647,-0.17529,1.05336,-1.65882,1.56988,0.955017,0.338662,1.54541,1.53395,0.999999,0.0011761,-1.39672e-06,-0.000725168,0,0,0,0,0,0,0,0,0,0,0,0,0,0,0,0,0,0.257928,0.257928,0,0,0,0,0,0,0,0,0,0.00543418,2.28825,15.3193
0.707203,2.1145,-0.180714,1.05091,-1.65407,1.57041,0.952775,0.344335,1.54478,1.52637,0.999999,-0.000408357,-1.377e-06,-0.00134384,0,0,0,0,0,0,0,0,0,0,0,0,0,0,0,0,0,0.257928,0.257928,0,0,0,0,0,0,0,0,0,0.00543418,2.28825,15.3193
0.708942,2.11385,-0.178298,1.05189,-1.65421,1.57065,0.952776,0.340805,1.54531,1.5299,0.999999,0.00117969,0.0003876,-0.000150305,0,0,0,0,0,0,0,0,0,0,0,0,0,0,0,0,0,0.257928,0.257928,0,0,0,0,0,0,0,0,0,0.00543418,2.28825,15.3193
0.708992,2.11381,-0.178307,1.05189,-1.6542,1.57067,0.952776,0.340668,1.54533,1.52989,0.999999,0.00117244,0.000394941,-0.000102505,0,0,0,0,0,0,0,0,0,0,0,0,0,0,0,0,0,0.257928,0.257928,0,0,0,0,0,0,0,0,0,0.00543418,2.28825,15.3193
0.709037,2.11377,-0.178315,1.05188,-1.6542,1.57068,0.952776,0.340543,1.54534,1.52988,0.999999,0.00116592,0.000401625,-5.90873e-05,0,0,0,0,0,0,0,0,0,0,0,0,0,0,0,0,0,0.257928,0.257928,0,0,0,0,0,0,0,0,0,0.00543418,2.28825,15.3193
0.709077,2.11373,-0.178322,1.05188,-1.6542,1.5707,0.952776,0.340433,1.54535,1.52987,0.999999,0.0011604,0.00040758,-2.07255e-05,0,0,0,0,0,0,0,0,0,0,0,0,0,0,0,0,0,0.257928,0.257928,0,0,0,0,0,0,0,0,0,0.00543418,2.28825,15.3193
0.709112,2.1137,-0.178328,1.05188,-1.6542,1.57071,0.952776,0.340339,1.54536,1.52986,0.999999,0.00115596,0.000412735,1.21171e-05,0,0,0,0,0,0,0,0,0,0,0,0,0,0,0,0,0,0.257928,0.257928,0,0,0,0,0,0,0,0,0,0.00543418,2.28825,15.3193
0.70914,2.11367,-0.178332,1.05188,-1.6542,1.57072,0.952776,0.340261,1.54537,1.52985,0.999999,0.00115254,0.000417027,3.91655e-05,0,0,0,0,0,0,0,0,0,0,0,0,0,0,0,0,0,0.257928,0.257928,0,0,0,0,0,0,0,0,0,0.00543418,2.28825,15.3193
0.709162,2.11365,-0.178335,1.05188,-1.6542,1.57072,0.952776,0.340201,1.54538,1.52985,0.999999,0.00114998,0.000420403,6.02807e-05,0,0,0,0,0,0,0,0,0,0,0,0,0,0,0,0,0,0.257928,0.257928,0,0,0,0,0,0,0,0,0,0.00543418,2.28825,15.3193
0.709178,2.11364,-0.178337,1.05188,-1.6542,1.57073,0.952777,0.340157,1.54538,1.52985,0.999999,0.00114813,0.000422825,7.54069e-05,0,0,0,0,0,0,0,0,0,0,0,0,0,0,0,0,0,0.257928,0.257928,0,0,0,0,0,0,0,0,0,0.00543418,2.28825,15.3193
0.709187,2.11363,-0.178338,1.05188,-1.6542,1.57073,0.952777,0.340131,1.54539,1.52985,0.999999,0.00114696,0.00042428,8.45274e-05,0,0,0,0,0,0,0,0,0,0,0,0,0,0,0,0,0,0.257928,0.257928,0,0,0,0,0,0,0,0,0,0.00543418,2.28825,15.3193
0.70919,2.11363,-0.178338,1.05188,-1.6542,1.57073,0.952777,0.340122,1.54539,1.52985,0.999999,0.00114657,0.000424786,8.76397e-05,0,0,0,0,0,0,0,0,0,0,0,0,0,0,0,0,0,0.257928,0.257928,0,0,0,0,0,0,0,0,0,0.00543418,2.28825,15.3193

0.734491,2.11222,-0.173997,1.06604,-1.6759,1.57041,0.980063,0.3,1.55,1.5422,1,-0.000398163,7.9555e-08,-0.000199081,0,0,0,0,0,0,0,0,0,0,0,0,0,0,0,0,0,0.662239,0.662237,0,0,0,0,0,0,0,0,0,0.0059081,2.281,15.2993
0.737075,2.11536,-0.170879,1.06652,-1.67902,1.57032,0.979504,0.300004,1.54984,1.54586,1,-0.000157658,7.79333e-07,-0.000199022,0,0,0,0,0,0,0,0,0,0,0,0,0,0,0,0,0,0.662239,0.662237,0,0,0,0,0,0,0,0,0,0.0059081,2.281,15.2993
0.739658,2.1185,-0.167761,1.06699,-1.68213,1.57024,0.978946,0.300006,1.54967,1.54951,1,8.28679e-05,1.21274e-06,-0.000198981,0,0,0,0,0,0,0,0,0,0,0,0,0,0,0,0,0,0.662239,0.662237,0,0,0,0,0,0,0,0,0,0.0059081,2.281,15.2993
0.742241,2.12164,-0.164643,1.06746,-1.68525,1.57015,0.978388,0.300007,1.54949,1.55317,1,0.00032343,1.3833e-06,-0.000198956,0,0,0,0,0,0,0,0,0,0,0,0,0,0,0,0,0,0.662239,0.662237,0,0,0,0,0,0,0,0,0,0.0059081,2.281,15.2993
0.744825,2.12478,-0.161525,1.06793,-1.68836,1.57006,0.977829,0.300006,1.54928,1.55681,1,0.000564039,1.29331e-06,-0.000198946,0,0,0,0,0,0,0,0,0,0,0,0,0,0,0,0,0,0.662239,0.662237,0,0,0,0,0,0,0,0,0,0.0059081,2.281,15.2993
0.747408,2.12792,-0.158407,1.0684,-1.69148,1.56998,0.977271,0.300004,1.54907,1.56045,1,0.0008047,9.43753e-07,-0.000198949,0,0,0,0,0,0,0,0,0,0,0,0,0,0,0,0,0,0.662239,0.662237,0,0,0,0,0,0,0,0,0,0.0059081,2.281,15.2993
0.749991,2.13106,-0.155289,1.06888,-1.6946,1.56989,0.976713,0.3,1.54884,1.56409,0.999999,0.00104541,3.34192e-07,-0.000198968,0,0,0,0,0,0,0,0,0,0,0,0,0,0,0,0,0,0.662239,0.662237,0,0,0,0,0,0,0,0,0,0.0059081,2.281,15.2993
0.752575,2.1342,-0.152171,1.06935,-1.69771,1.5698,0.976154,0.299995,1.54859,1.56773,0.999999,0.00128617,-5.36861e-07,-0.000199001,0,0,0,0,0,0,0,0,0,0,0,0,0,0,0,0,0,0.662239,0.662237,0,0,0,0,0,0,0,0,0,0.0059081,2.281,15.2993
0.755158,2.13735,-0.149053,1.06982,-1.70083,1.56972,0.975596,0.299989,1.54833,1.57136,0.999999,0.00152695,-1.67246e-06,-0.000199051,0,0,0,0,0,0,0,0,0,0,0,0,0,0,0,0,0,0.662239,0.662237,0,0,0,0,0,0,0,0,0,0.0059081,2.281,15.2993
0.757741,2.14049,-0.145935,1.07029,-1.70395,1.56963,0.975038,0.299981,1.54805,1.57498,0.999998,0.00176775,-3.07468e-06,-0.000199119,0,0,0,0,0,0,0,0,0,0,0,0,0,0,0,0,0,0.662239,0.662237,0,0,0,0,0,0,0,0,0,0.0059081,2.281,15.2993
0.752815,2.13773,-0.149118,1.06849,-1.69885,1.56957,0.972736,0.304062,1.54795,1.57061,0.999998,0.00183007,-2.25664e-05,-0.000134845,0,0,0,0,0,0,0,0,0,0,0,0,0,0,0,0,0,0.662239,0.662237,0,0,0,0,0,0,0,0,0,0.0059081,2.281,15.2993
0.747888,2.13498,-0.152298,1.06669,-1.69375,1.56952,0.970433,0.308144,1.54782,1.56622,0.999998,0.00189325,-4.21591e-05,-7.05452e-05,0,0,0,0,0,0,0,0,0,0,0,0,0,0,0,0,0,0.662239,0.662237,0,0,0,0,0,0,0,0,0,0.0059081,2.281,15.2993
0.742961,2.13223,-0.155479,1.06489,-1.68865,1.56946,0.968131,0.312228,1.54766,1.56184,0.999998,0.00195568,-6.21658e-05,-6.22434e-06,0,0,0,0,0,0,0,0,0,0,0,0,0,0,0,0,0,0.662239,0.662237,0,0,0,0,0,0,0,0,0,0.0059081,2.281,15.2993
0.738035,2.12947,-0.158663,1.06309,-1.68356,1.5694,0.965829,0.316313,1.54746,1.55744,0.999998,0.00201642,-8.27625e-05,5.81136e-05,0,0,0,0,0,0,0,0,0,0,0,0,0,0,0,0,0,0.662239,0.662237,0,0,0,0,0,0,0,0,0,0.0059081,2.281,15.2993
0.733108,2.12672,-0.16185,1.06129,-1.67846,1.56935,0.963527,0.320399,1.54723,1.55303,0.999998,0.0020742,-0.000104164,0.000122515,0,0,0,0,0,0,0,0,0,0,0,0,0,0,0,0,0,0.662239,0.662237,0,0,0,0,0,0,0,0,0,0.0059081,2.281,15.2993
0.728182,2.12397,-0.165043,1.05948,-1.67336,1.56929,0.961225,0.324486,1.54697,1.54861,0.999998,0.00212802,-0.000126536,0.000187126,0,0,0,0,0,0,0,0,0,0,0,0,0,0,0,0,0,0.662239,0.662237,0,0,0,0,0,0,0,0,0,0.0059081,2.281,15.2993
0.723256,2.12121,-0.168239,1.05768,-1.66826,1.56924,0.958922,0.328572,1.54668,1.54418,0.999998,0.00217857,-0.000149698,0.000252124,0,0,0,0,0,0,0,0,0,0,0,0,0,0,0,0,0,0.662239,0.662237,0,0,0,0,0,0,0,0,0,0.0059081,2.281,15.2993
0.718331,2.11846,-0.171435,1.05587,-1.66317,1.56918,0.95662,0.332659,1.54636,1.53974,0.999997,0.00222923,-0.000173044,0.000317249,0,0,0,0,0,0,0,0,0,0,0,0,0,0,0,0,0,0.662239,0.662237,0,0,0,0,0,0,0,0,0,0.0059081,2.281,15.2993
0.713405,2.11571,-0.174633,1.05406,-1.65807,1.56912,0.954318,0.336748,1.546,1.5353,0.999997,0.00227888,-0.000196855,0.00038189,0,0,0,0,0,0,0,0,0,0,0,0,0,0,0,0,0,0.662239,0.662237,0,0,0,0,0,0,0,0,0,0.0059081,2.281,15.2993
0.706442,2.11526,-0.180795,1.05018,-1.65326,1.57041,0.952016,0.346412,1.54461,1.52587,0.999998,-0.000407009,-8.51051e-07,-0.00172518,0,0,0,0,0,0,0,0,0,0,0,0,0,0,0,0,0,0.662239,0.662237,0,0,0,0,0,0,0,0,0,0.0059081,2.281,15.2993
0.709701,2.1131,-0.177642,1.05259,-1.65346,1.57141,0.952016,0.33844,1.54583,1.53125,0.999997,0.00215388,0.000938692,0.00098957,0,0,0,0,0,0,0,0,0,0,0,0,0,0,0,0,0,0.662239,0.662237,0,0,0,0,0,0,0,0,0,0.0059081,2.281,15.2993
0.709643,2.11314,-0.177622,1.0526,-1.65346,1.57139,0.952016,0.338586,1.54582,1.53128,0.999997,0.00216716,0.000932633,0.000939155,0,0,0,0,0,0,0,0,0,0,0,0,0,0,0,0,0,0.662239,0.662237,0,0,0,0,0,0,0,0,0,0.0059081,2.281,15.2993
0.709588,2.11318,-0.177608,1.0526,-1.65346,1.57138,0.952017,0.338726,1.5458,1.5313,0.999997,0.00217607,0.000926135,0.000890532,0,0,0,0,0,0,0,0,0,0,0,0,0,0,0,0,0,0.662239,0.662237,0,0,0,0,0,0,0,0,0,0.0059081,2.281,15.2993
0.709536,2.11322,-0.177597,1.0526,-1.65347,1.57136,0.952017,0.338857,1.54578,1.53131,0.999997,0.00218169,0.00091962,0.000845119,0,0,0,0,0,0,0,0,0,0,0,0,0,0,0,0,0,0.662239,0.662237,0,0,0,0,0,0,0,0,0,0.0059081,2.281,15.2993
0.709489,2.11325,-0.177592,1.0526,-1.65347,1.57135,0.952017,0.338975,1.54577,1.53132,0.999997,0.00218386,0.000913299,0.000804368,0,0,0,0,0,0,0,0,0,0,0,0,0,0,0,0,0,0.662239,0.662237,0,0,0,0,0,0,0,0,0,0.0059081,2.281,15.2993
0.70945,2.11328,-0.17759,1.0526,-1.65347,1.57134,0.952017,0.339076,1.54575,1.53132,0.999997,0.00218327,0.000907462,0.000769374,0,0,0,0,0,0,0,0,0,0,0,0,0,0,0,0,0,0.662239,0.662237,0,0,0,0,0,0,0,0,0,0.0059081,2.281,15.2993
0.709417,2.11331,-0.17759,1.0526,-1.65348,1.57133,0.952017,0.339158,1.54574,1.53132,0.999997,0.00218132,0.000902497,0.000741057,0,0,0,0,0,0,0,0,0,0,0,0,0,0,0,0,0,0.662239,0.662237,0,0,0,0,0,0,0,0,0,0.0059081,2.281,15.2993
0.709394,2.11333,-0.177591,1.0526,-1.65348,1.57132,0.952017,0.339218,1.54573,1.53131,0.999997,0.00217889,0.000898681,0.00072024,0,0,0,0,0,0,0,0,0,0,0,0,0,0,0,0,0,0.662239,0.662237,0,0,0,0,0,0,0,0,0,0.0059081,2.281,15.2993
0.709379,2.11334,-0.177593,1.0526,-1.65348,1.57132,0.952017,0.339255,1.54573,1.53131,0.999997,0.002177,0.00089627,0.000707455,0,0,0,0,0,0,0,0,0,0,0,0,0,0,0,0,0,0.662239,0.662237,0,0,0,0,0,0,0,0,0,0.0059081,2.281,15.2993
0.709374,2.11334,-0.177593,1.0526,-1.65348,1.57132,0.952017,0.339268,1.54573,1.53131,0.999997,0.00217627,0.000895428,0.000703055,0,0,0,0,0,0,0,0,0,0,0,0,0,0,0,0,0,0.662239,0.662237,0,0,0,0,0,0,0,0,0,0.0059081,2.281,15.2993

0.734491,2.11222,-0.173997,1.06604,-1.6759,1.57041,0.980063,0.3,1.55,1.5422,1,-0.000398163,7.9555e-08,-0.000199081,0,0,0,0,0,0,0,0,0,0,0,0,0,0,0,0,0,1.72259,1.72259,0,0,0,0,0,0,0,0,0,0.0068916,2.27015,15.2691
0.737176,2.11548,-0.170752,1.06639,-1.67914,1.57035,0.979479,0.300007,1.5498,1.54591,1,-0.000222087,9.53258e-07,-0.000199049,0,0,0,0,0,0,0,0,0,0,0,0,0,0,0,0,0,1.72259,1.72259,0,0,0,0,0,0,0,0,0,0.0068916,2.27015,15.2691
0.73986,2.11875,-0.167508,1.06673,-1.68239,1.57029,0.978895,0.300012,1.54958,1.54961,1,-4.6001e-05,1.62099e-06,-0.000199027,0,0,0,0,0,0,0,0,0,0,0,0,0,0,0,0,0,1.72259,1.72259,0,0,0,0,0,0,0,0,0,0.0068916,2.27015,15.2691
0.742544,2.12202,-0.164263,1.06708,-1.68563,1.57023,0.978311,0.300015,1.54935,1.55331,1,0.000130094,2.08275e-06,-0.000199015,0,0,0,0,0,0,0,0,0,0,0,0,0,0,0,0,0,1.72259,1.72259,0,0,0,0,0,0,0,0,0,0.0068916,2.27015,15.2691
0.745228,2.12529,-0.161018,1.06743,-1.68887,1.57016,0.977727,0.300017,1.54911,1.55701,1,0.000306198,2.33855e-06,-0.000199012,0,0,0,0,0,0,0,0,0,0,0,0,0,0,0,0,0,1.72259,1.72259,0,0,0,0,0,0,0,0,0,0.0068916,2.27015,15.2691
0.747913,2.12856,-0.157774,1.06777,-1.69211,1.5701,0.977143,0.300017,1.54884,1.5607,1,0.00048231,2.3884e-06,-0.00019902,0,0,0,0,0,0,0,0,0,0,0,0,0,0,0,0,0,1.72259,1.72259,0,0,0,0,0,0,0,0,0,0.0068916,2.27015,15.2691
0.750597,2.13182,-0.154529,1.06812,-1.69536,1.57004,0.97656,0.300016,1.54857,1.56438,1,0.000658432,2.23231e-06,-0.000199037,0,0,0,0,0,0,0,0,0,0,0,0,0,0,0,0,0,1.72259,1.72259,0,0,0,0,0,0,0,0,0,0.0068916,2.27015,15.2691
0.753281,2.13509,-0.151285,1.06846,-1.6986,1.56998,0.975976,0.300012,1.54827,1.56806,1,0.000834561,1.8703e-06,-0.000199064,0,0,0,0,0,0,0,0,0,0,0,0,0,0,0,0,0,1.72259,1.72259,0,0,0,0,0,0,0,0,0,0.0068916,2.27015,15.2691
0.755965,2.13836,-0.14804,1.06881,-1.70184,1.56992,0.975392,0.300007,1.54796,1.57174,0.999999,0.0010107,1.3024e-06,-0.0001991,0,0,0,0,0,0,0,0,0,0,0,0,0,0,0,0,0,1.72259,1.72259,0,0,0,0,0,0,0,0,0,0.0068916,2.27015,15.2691
0.75865,2.14163,-0.144796,1.06915,-1.70509,1.56986,0.974808,0.3,1.54764,1.57541,0.999999,0.00118684,5.28632e-07,-0.000199147,0,0,0,0,0,0,0,0,0,0,0,0,0,0,0,0,0,1.72259,1.72259,0,0,0,0,0,0,0,0,0,0.0068916,2.27015,15.2691
0.753749,2.13862,-0.147985,1.0676,-1.69973,1.5699,0.972436,0.303685,1.54766,1.57123,0.999999,0.00148279,7.83898e-05,3.99016e-05,0,0,0,0,0,0,0,0,0,0,0,0,0,0,0,0,0,1.72259,1.72259,0,0,0,0,0,0,0,0,0,0.0068916,2.27015,15.2691
0.748848,2.13561,-0.151174,1.06605,-1.69438,1.56995,0.970063,0.307372,1.54765,1.56704,0.999998,0.00177917,0.000155005,0.000278968,0,0,0,0,0,0,0,0,0,0,0,0,0,0,0,0,0,1.72259,1.72259,0,0,0,0,0,0,0,0,0,0.0068916,2.27015,15.2691
0.743948,2.13261,-0.154363,1.0645,-1.68903,1.56999,0.967691,0.31106,1.54761,1.56284,0.999998,0.0020761,0.000230397,0.000518064,0,0,0,0,0,0,0,0,0,0,0,0,0,0,0,0,0,1.72259,1.72259,0,0,0,0,0,0,0,0,0,0.0068916,2.27015,15.2691
0.739047,2.1296,-0.157551,1.06295,-1.68368,1.57004,0.965318,0.314748,1.54754,1.55864,0.999997,0.00237367,0.000304582,0.000757193,0,0,0,0,0,0,0,0,0,0,0,0,0,0,0,0,0,1.72259,1.72259,0,0,0,0,0,0,0,0,0,0.0068916,2.27015,15.2691
0.734147,2.12659,-0.160739,1.0614,-1.67833,1.57008,0.962946,0.318437,1.54745,1.55444,0.999996,0.00267195,0.000377568,0.000996348,0,0,0,0,0,0,0,0,0,0,0,0,0,0,0,0,0,1.72259,1.72259,0,0,0,0,0,0,0,0,0,0.0068916,2.27015,15.2691
0.729246,2.12359,-0.163927,1.05985,-1.67298,1.57013,0.960574,0.322127,1.54732,1.55023,0.999995,0.00297093,0.000449351,0.00123552,0,0,0,0,0,0,0,0,0,0,0,0,0,0,0,0,0,1.72259,1.72259,0,0,0,0,0,0,0,0,0,0.0068916,2.27015,15.2691
0.724346,2.12058,-0.167114,1.0583,-1.66763,1.57017,0.958201,0.325817,1.54717,1.54602,0.999993,0.00327055,0.000519916,0.00147469,0,0,0,0,0,0,0,0,0,0,0,0,0,0,0,0,0,1.72259,1.72259,0,0,0,0,0,0,0,0,0,0.0068916,2.27015,15.2691
0.719445,2.11757,-0.1703,1.05675,-1.66228,1.57022,0.955829,0.329508,1.54698,1.5418,0.999992,0.00357074,0.000589246,0.00171384,0,0,0,0,0,0,0,0,0,0,0,0,0,0,0,0,0,1.72259,1.72259,0,0,0,0,0,0,0,0,0,0.0068916,2.27015,15.2691
0.714544,2.11457,-0.173487,1.0552,-1.65693,1.57026,0.953456,0.333198,1.54677,1.53758,0.99999,0.00387138,0.000657315,0.00195299,0,0,0,0,0,0,0,0,0,0,0,0,0,0,0,0,0,1.72259,1.72259,0,0,0,0,0,0,0,0,0,0.0068916,2.27015,15.2691
0.705303,2.1164,-0.181578,1.04984,-1.65212,1.57042,0.950877,0.349485,1.54457,1.52484,0.999997,-0.000398393,8.60843e-07,-0.00229465,0,0,0,0,0,0,0,0,0,0,0,0,0,0,0,0,0,1.72259,1.72259,0,0,0,0,0,0,0,0,0,0.0068916,2.27015,15.2691
0.71084,2.11196,-0.176495,1.05373,-1.65232,1.57027,0.951646,0.335562,1.54673,1.53354,0.999989,0.00393801,0.00066802,0.0023113,0,0,0,0,0,0,0,0,0,0,0,0,0,0,0,0,0,1.72259,1.72259,0,0,0,0,0,0,0,0,0,0.0068916,2.27015,15.2691
0.710782,2.112,-0.176503,1.05373,-1.65232,1.57027,0.951646,0.335703,1.54671,1.53353,0.999989,0.00393054,0.000666587,0.00226113,0,0,0,0,0,0,0,0,0,0,0,0,0,0,0,0,0,1.72259,1.72259,0,0,0,0,0,0,0,0,0,0.0068916,2.27015,15.2691
0.710727,2.11204,-0.17651,1.05373,-1.65232,1.57027,0.951645,0.335839,1.5467,1.53351,0.99999,0.00392326,0.000665193,0.00221283,0,0,0,0,0,0,0,0,0,0,0,0,0,0,0,0,0,1.72259,1.72259,0,0,0,0,0,0,0,0,0,0.0068916,2.27015,15.2691
0.710675,2.11208,-0.176518,1.05372,-1.65233,1.57027,0.951645,0.335966,1.54668,1.5335,0.99999,0.00391633,0.00066387,0.0021677,0,0,0,0,0,0,0,0,0,0,0,0,0,0,0,0,0,1.72259,1.72259,0,0,0,0,0,0,0,0,0,0.0068916,2.27015,15.2691
0.710629,2.11211,-0.176524,1.05372,-1.65233,1.57027,0.951645,0.33608,1.54666,1.53349,0.99999,0.00390993,0.000662653,0.0021272,0,0,0,0,0,0,0,0,0,0,0,0,0,0,0,0,0,1.72259,1.72259,0,0,0,0,0,0,0,0,0,0.0068916,2.27015,15.2691
0.710589,2.11214,-0.176529,1.05371,-1.65233,1.57027,0.951644,0.336178,1.54665,1.53348,0.99999,0.00390421,0.000661571,0.00209241,0,0,0,0,0,0,0,0,0,0,0,0,0,0,0,0,0,1.72259,1.72259,0,0,0,0,0,0,0,0,0,0.0068916,2.27015,15.2691
0.710556,2.11217,-0.176534,1.05371,-1.65234,1.57027,0.951644,0.336257,1.54664,1.53347,0.99999,0.00389936,0.000660658,0.00206427,0,0,0,0,0,0,0,0,0,0,0,0,0,0,0,0,0,1.72259,1.72259,0,0,0,0,0,0,0,0,0,0.0068916,2.27015,15.2691
0.710533,2.11219,-0.176537,1.05371,-1.65234,1.57027,0.951644,0.336315,1.54663,1.53347,0.99999,0.00389572,0.000659974,0.00204358,0,0,0,0,0,0,0,0,0,0,0,0,0,0,0,0,0,1.72259,1.72259,0,0,0,0,0,0,0,0,0,0.0068916,2.27015,15.2691
0.710518,2.1122,-0.176539,1.05371,-1.65234,1.57027,0.951644,0.336351,1.54663,1.53347,0.99999,0.00389345,0.000659549,0.00203087,0,0,0,0,0,0,0,0,0,0,0,0,0,0,0,0,0,1.72259,1.72259,0,0,0,0,0,0,0,0,0,0.0068916,2.27015,15.2691
0.710513,2.1122,-0.17654,1.05371,-1.65234,1.57027,0.951644,0.336363,1.54662,1.53346,0.99999,0.00389267,0.000659402,0.0020265,0,0,0,0,0,0,0,0,0,0,0,0,0,0,0,0,0,1.72259,1.72259,0,0,0,0,0,0,0,0,0,0.0068916,2.27015,15.2691

0.734491,2.11222,-0.173997,1.06604,-1.6759,1.57041,0.980063,0.3,1.55,1.5422,1,-0.000398163,7.9555e-08,-0.000199081,0,0,0,0,0,0,0,0,0,0,0,0,0,0,0,0,0,0.819456,0.819456,0,0,0,0,0,0,0,0,0,0.00749575,2.25424,15.2354
0.737329,2.11567,-0.170562,1.0662,-1.67933,1.57039,0.979443,0.300008,1.54973,1.54598,1,-0.000318782,5.2211e-07,-0.000199091,0,0,0,0,0,0,0,0,0,0,0,0,0,0,0,0,0,0.819456,0.819456,0,0,0,0,0,0,0,0,0,0.00749575,2.25424,15.2354
0.740167,2.11913,-0.167128,1.06635,-1.68277,1.57036,0.978823,0.300015,1.54945,1.54976,1,-0.00023939,8.65801e-07,-0.000199102,0,0,0,0,0,0,0,0,0,0,0,0,0,0,0,0,0,0.819456,0.819456,0,0,0,0,0,0,0,0,0,0.00749575,2.25424,15.2354
0.743005,2.12259,-0.163693,1.06651,-1.6862,1.57034,0.978203,0.300019,1.54916,1.55353,1,-0.000159989,1.11064e-06,-0.000199115,0,0,0,0,0,0,0,0,0,0,0,0,0,0,0,0,0,0.819456,0.819456,0,0,0,0,0,0,0,0,0,0.00749575,2.25424,15.2354
0.745843,2.12605,-0.160259,1.06667,-1.68963,1.57031,0.977583,0.300021,1.54884,1.55729,1,-8.05777e-05,1.25665e-06,-0.00019913,0,0,0,0,0,0,0,0,0,0,0,0,0,0,0,0,0,0.819456,0.819456,0,0,0,0,0,0,0,0,0,0.00749575,2.25424,15.2354
0.748681,2.1295,-0.156825,1.06682,-1.69306,1.57029,0.976963,0.300021,1.54851,1.56106,1,-1.1567e-06,1.30383e-06,-0.000199145,0,0,0,0,0,0,0,0,0,0,0,0,0,0,0,0,0,0.819456,0.819456,0,0,0,0,0,0,0,0,0,0.00749575,2.25424,15.2354
0.751519,2.13296,-0.15339,1.06698,-1.6965,1.57026,0.976343,0.300019,1.54816,1.56481,1,7.82739e-05,1.25221e-06,-0.000199163,0,0,0,0,0,0,0,0,0,0,0,0,0,0,0,0,0,0.819456,0.819456,0,0,0,0,0,0,0,0,0,0.00749575,2.25424,15.2354
0.754357,2.13642,-0.149956,1.06713,-1.69993,1.57024,0.975724,0.300015,1.5478,1.56856,1,0.000157714,1.1018e-06,-0.000199182,0,0,0,0,0,0,0,0,0,0,0,0,0,0,0,0,0,0.819456,0.819456,0,0,0,0,0,0,0,0,0,0.00749575,2.25424,15.2354
0.757195,2.13988,-0.146522,1.06729,-1.70336,1.57021,0.975104,0.300008,1.54742,1.57231,1,0.000237164,8.52613e-07,-0.000199202,0,0,0,0,0,0,0,0,0,0,0,0,0,0,0,0,0,0.819456,0.819456,0,0,0,0,0,0,0,0,0,0.00749575,2.25424,15.2354
0.760032,2.14334,-0.143087,1.06744,-1.70679,1.57019,0.974484,0.299999,1.54702,1.57605,1,0.000316623,5.04669e-07,-0.000199224,0,0,0,0,0,0,0,0,0,0,0,0,0,0,0,0,0,0.819456,0.819456,0,0,0,0,0,0,0,0,0,0.00749575,2.25424,15.2354
0.754788,2.14033,-0.146655,1.06589,-1.70132,1.57021,0.971958,0.304207,1.54703,1.57144,1,0.000487744,4.51515e-05,-5.49122e-05,0,0,0,0,0,0,0,0,0,0,0,0,0,0,0,0,0,0.819456,0.819456,0,0,0,0,0,0,0,0,0,0.00749575,2.25424,15.2354
0.749544,2.13732,-0.150222,1.06434,-1.69585,1.57024,0.969431,0.308416,1.547,1.56682,1,0.000659088,8.89826e-05,8.94025e-05,0,0,0,0,0,0,0,0,0,0,0,0,0,0,0,0,0,0.819456,0.819456,0,0,0,0,0,0,0,0,0,0.00749575,2.25424,15.2354
0.7443,2.13432,-0.15379,1.06279,-1.69038,1.57026,0.966905,0.312627,1.54694,1.56219,1,0.000830652,0.000131997,0.00023372,0,0,0,0,0,0,0,0,0,0,0,0,0,0,0,0,0,0.819456,0.819456,0,0,0,0,0,0,0,0,0,0.00749575,2.25424,15.2354
0.739056,2.13131,-0.157358,1.06124,-1.68491,1.57028,0.964379,0.31684,1.54684,1.55756,0.999999,0.00100243,0.000174194,0.00037804,0,0,0,0,0,0,0,0,0,0,0,0,0,0,0,0,0,0.819456,0.819456,0,0,0,0,0,0,0,0,0,0.00749575,2.25424,15.2354
0.733812,2.1283,-0.160925,1.05969,-1.67944,1.5703,0.961853,0.321054,1.54671,1.55292,0.999999,0.00117443,0.000215573,0.000522364,0,0,0,0,0,0,0,0,0,0,0,0,0,0,0,0,0,0.819456,0.819456,0,0,0,0,0,0,0,0,0,0.00749575,2.25424,15.2354
0.728568,2.1253,-0.164493,1.05814,-1.67397,1.57033,0.959326,0.32527,1.54655,1.54827,0.999999,0.00134663,0.000256133,0.000666689,0,0,0,0,0,0,0,0,0,0,0,0,0,0,0,0,0,0.819456,0.819456,0,0,0,0,0,0,0,0,0,0.00749575,2.25424,15.2354
0.723324,2.12229,-0.16806,1.05659,-1.6685,1.57035,0.9568,0.329487,1.54634,1.54362,0.999998,0.00151905,0.000295873,0.000811018,0,0,0,0,0,0,0,0,0,0,0,0,0,0,0,0,0,0.819456,0.819456,0,0,0,0,0,0,0,0,0,0.00749575,2.25424,15.2354
0.71808,2.11928,-0.171628,1.05504,-1.66303,1.57037,0.954274,0.333704,1.54611,1.53896,0.999998,0.00169167,0.000334792,0.00095535,0,0,0,0,0,0,0,0,0,0,0,0,0,0,0,0,0,0.819456,0.819456,0,0,0,0,0,0,0,0,0,0.00749575,2.25424,15.2354
0.712836,2.11628,-0.175195,1.05349,-1.65756,1.5704,0.951748,0.337923,1.54583,1.5343,0.999998,0.00186449,0.00037289,0.00109968,0,0,0,0,0,0,0,0,0,0,0,0,0,0,0,0,0,0.819456,0.819456,0,0,0,0,0,0,0,0,0,0.00749575,2.25424,15.2354
0.703595,2.11811,-0.179884,1.04813,-1.65209,1.57042,0.949169,0.354268,1.54344,1.52567,0.999995,-0.000398609,1.30476e-06,-0.00314889,0,0,0,0,0,0,0,0,0,0,0,0,0,0,0,0,0,0.819456,0.819456,0,0,0,0,0,0,0,0,0,0.00749575,2.25424,15.2354
0.709131,2.11366,-0.174782,1.05544,-1.65061,1.57198,0.949938,0.339627,1.54688,1.53696,0.999977,0.00632911,0.00192364,0.00146223,0,0,0,0,0,0,0,0,0,0,0,0,0,0,0,0,0,0.819456,0.819456,0,0,0,0,0,0,0,0,0,0.00749575,2.25424,15.2354
0.709129,2.11367,-0.174794,1.05544,-1.65061,1.57198,0.949938,0.339632,1.54688,1.53694,0.999977,0.0063181,0.00192149,0.00146032,0,0,0,0,0,0,0,0,0,0,0,0,0,0,0,0,0,0.819456,0.819456,0,0,0,0,0,0,0,0,0,0.00749575,2.25424,15.2354
0.709127,2.11367,-0.174802,1.05543,-1.65062,1.57198,0.949938,0.339638,1.54688,1.53693,0.999977,0.00631084,0.00191997,0.00145847,0,0,0,0,0,0,0,0,0,0,0,0,0,0,0,0,0,0.819456,0.819456,0,0,0,0,0,0,0,0,0,0.00749575,2.25424,15.2354
0.709125,2.11367,-0.174809,1.05543,-1.65062,1.57198,0.949938,0.339643,1.54687,1.53692,0.999977,0.00630394,0.00191854,0.00145673,0,0,0,0,0,0,0,0,0,0,0,0,0,0,0,0,0,0.819456,0.819456,0,0,0,0,0,0,0,0,0,0.00749575,2.25424,15.2354
0.709123,2.11367,-0.174815,1.05543,-1.65062,1.57198,0.949938,0.339648,1.54687,1.53691,0.999977,0.00629757,0.00191722,0.00145515,0,0,0,0,0,0,0,0,0,0,0,0,0,0,0,0,0,0.819456,0.819456,0,0,0,0,0,0,0,0,0,0.00749575,2.25424,15.2354
0.709122,2.11367,-0.174821,1.05542,-1.65062,1.57198,0.949938,0.339652,1.54687,1.5369,0.999977,0.00629187,0.00191605,0.00145379,0,0,0,0,0,0,0,0,0,0,0,0,0,0,0,0,0,0.819456,0.819456,0,0,0,0,0,0,0,0,0,0.00749575,2.25424,15.2354
0.70912,2.11367,-0.174825,1.05542,-1.65063,1.57198,0.949938,0.339656,1.54687,1.53689,0.999977,0.00628704,0.00191506,0.00145268,0,0,0,0,0,0,0,0,0,0,0,0,0,0,0,0,0,0.819456,0.819456,0,0,0,0,0,0,0,0,0,0.00749575,2.25424,15.2354
0.709119,2.11367,-0.174829,1.05542,-1.65063,1.57198,0.949938,0.339658,1.54687,1.53688,0.999977,0.00628341,0.00191432,0.00145186,0,0,0,0,0,0,0,0,0,0,0,0,0,0,0,0,0,0.819456,0.819456,0,0,0,0,0,0,0,0,0,0.00749575,2.25424,15.2354
0.709119,2.11367,-0.174831,1.05542,-1.65063,1.57198,0.949938,0.33966,1.54687,1.53688,0.999977,0.00628115,0.00191386,0.00145135,0,0,0,0,0,0,0,0,0,0,0,0,0,0,0,0,0,0.819456,0.819456,0,0,0,0,0,0,0,0,0,0.00749575,2.25424,15.2354
0.709119,2.11367,-0.174831,1.05542,-1.65063,1.57198,0.949938,0.33966,1.54687,1.53688,0.999977,0.00628037,0.0019137,0.00145117,0,0,0,0,0,0,0,0,0,0,0,0,0,0,0,0,0,0.819456,0.819456,0,0,0,0,0,0,0,0,0,0.00749575,2.25424,15.2354

0.734491,2.11222,-0.173997,1.06604,-1.6759,1.57041,0.980063,0.3,1.55,1.5422,1,-0.000398163,7.9555e-08,-0.000199081,0,0,0,0,0,0,0,0,0,0,0,0,0,0,0,0,0,2.39749,2.39749,0,0,0,0,0,0,0,0,0,0.00972719,2.23048,15.1689
0.737561,2.11596,-0.170277,1.06604,-1.67962,1.57042,0.97939,0.300011,1.54967,1.54618,1,-0.000398208,1.1921e-07,-0.000199092,0,0,0,0,0,0,0,0,0,0,0,0,0,0,0,0,0,2.39749,2.39749,0,0,0,0,0,0,0,0,0,0.00972719,2.23048,15.1689
0.74063,2.1197,-0.166558,1.06604,-1.68333,1.57042,0.978717,0.300019,1.54932,1.55015,1,-0.000398241,1.5839e-07,-0.000199103,0,0,0,0,0,0,0,0,0,0,0,0,0,0,0,0,0,2.39749,2.39749,0,0,0,0,0,0,0,0,0,0.00972719,2.23048,15.1689
0.7437,2.12344,-0.162839,1.06604,-1.68705,1.57043,0.978044,0.300024,1.54895,1.55412,1,-0.000398263,1.97115e-07,-0.000199114,0,0,0,0,0,0,0,0,0,0,0,0,0,0,0,0,0,2.39749,2.39749,0,0,0,0,0,0,0,0,0,0.00972719,2.23048,15.1689
0.746769,2.12719,-0.15912,1.06604,-1.69077,1.57043,0.977371,0.300027,1.54857,1.55808,1,-0.000398274,2.35404e-07,-0.000199125,0,0,0,0,0,0,0,0,0,0,0,0,0,0,0,0,0,2.39749,2.39749,0,0,0,0,0,0,0,0,0,0.00972719,2.23048,15.1689
0.749839,2.13093,-0.155401,1.06604,-1.69449,1.57044,0.976698,0.300027,1.54816,1.56204,1,-0.000398274,2.73277e-07,-0.000199135,0,0,0,0,0,0,0,0,0,0,0,0,0,0,0,0,0,2.39749,2.39749,0,0,0,0,0,0,0,0,0,0.00972719,2.23048,15.1689
0.752908,2.13467,-0.151682,1.06604,-1.6982,1.57045,0.976025,0.300024,1.54774,1.56599,1,-0.000398262,3.10752e-07,-0.000199146,0,0,0,0,0,0,0,0,0,0,0,0,0,0,0,0,0,2.39749,2.39749,0,0,0,0,0,0,0,0,0,0.00972719,2.23048,15.1689
0.755978,2.13841,-0.147963,1.06604,-1.70192,1.57045,0.975352,0.300019,1.5473,1.56993,1,-0.00039824,3.47848e-07,-0.000199157,0,0,0,0,0,0,0,0,0,0,0,0,0,0,0,0,0,2.39749,2.39749,0,0,0,0,0,0,0,0,0,0.00972719,2.23048,15.1689
0.759047,2.14216,-0.144244,1.06604,-1.70564,1.57046,0.974679,0.30001,1.54683,1.57387,1,-0.000398206,3.84585e-07,-0.000199168,0,0,0,0,0,0,0,0,0,0,0,0,0,0,0,0,0,2.39749,2.39749,0,0,0,0,0,0,0,0,0,0.00972719,2.23048,15.1689
0.762117,2.1459,-0.140524,1.06604,-1.70936,1.57046,0.974006,0.299999,1.54635,1.5778,1,-0.000398161,4.20982e-07,-0.000199179,0,0,0,0,0,0,0,0,0,0,0,0,0,0,0,0,0,2.39749,2.39749,0,0,0,0,0,0,0,0,0,0.00972719,2.23048,15.1689
0.756357,2.14289,-0.144092,1.06493,-1.70332,1.57017,0.971259,0.305048,1.5465,1.57356,1,0.000298523,-1.46992e-05,-0.000202684,0,0,0,0,0,0,0,0,0,0,0,0,0,0,0,0,0,2.39749,2.39749,0,0,0,0,0,0,0,0,0,0.00972719,2.23048,15.1689
0.750596,2.13988,-0.14766,1.06382,-1.69728,1.56988,0.968511,0.3101,1.5466,1.56931,0.999999,0.000995125,-3.36521e-05,-0.000206392,0,0,0,0,0,0,0,0,0,0,0,0,0,0,0,0,0,2.39749,2.39749,0,0,0,0,0,0,0,0,0,0.00972719,2.23048,15.1689
0.744836,2.13688,-0.151227,1.06271,-1.69124,1.56959,0.965763,0.315155,1.54667,1.56505,0.999999,0.00169163,-5.64372e-05,-0.000210305,0,0,0,0,0,0,0,0,0,0,0,0,0,0,0,0,0,2.39749,2.39749,0,0,0,0,0,0,0,0,0,0.00972719,2.23048,15.1689
0.739075,2.13387,-0.154795,1.0616,-1.6852,1.56929,0.963016,0.320213,1.5467,1.5608,0.999997,0.00238802,-8.3054e-05,-0.000214421,0,0,0,0,0,0,0,0,0,0,0,0,0,0,0,0,0,2.39749,2.39749,0,0,0,0,0,0,0,0,0,0.00972719,2.23048,15.1689
0.733315,2.13087,-0.158362,1.06049,-1.67916,1.569,0.960268,0.325274,1.5467,1.55653,0.999995,0.00308428,-0.000113502,-0.000218742,0,0,0,0,0,0,0,0,0,0,0,0,0,0,0,0,0,2.39749,2.39749,0,0,0,0,0,0,0,0,0,0.00972719,2.23048,15.1689
0.727554,2.12786,-0.16193,1.05938,-1.67312,1.56871,0.957521,0.330336,1.54665,1.55226,0.999993,0.0037804,-0.00014778,-0.000223266,0,0,0,0,0,0,0,0,0,0,0,0,0,0,0,0,0,2.39749,2.39749,0,0,0,0,0,0,0,0,0,0.00972719,2.23048,15.1689
0.721794,2.12485,-0.165497,1.05828,-1.66708,1.56842,0.954773,0.335401,1.54657,1.54798,0.99999,0.00447635,-0.000185889,-0.000227993,0,0,0,0,0,0,0,0,0,0,0,0,0,0,0,0,0,2.39749,2.39749,0,0,0,0,0,0,0,0,0,0.00972719,2.23048,15.1689
0.716033,2.12185,-0.169065,1.05717,-1.66104,1.56813,0.952026,0.340467,1.54644,1.5437,0.999987,0.00517212,-0.000227826,-0.000232925,0,0,0,0,0,0,0,0,0,0,0,0,0,0,0,0,0,2.39749,2.39749,0,0,0,0,0,0,0,0,0,0.00972719,2.23048,15.1689
0.710273,2.11884,-0.172632,1.05606,-1.655,1.56783,0.949278,0.345535,1.54628,1.53942,0.999983,0.0058677,-0.000273592,-0.00023806,0,0,0,0,0,0,0,0,0,0,0,0,0,0,0,0,0,2.39749,2.39749,0,0,0,0,0,0,0,0,0,0.00972719,2.23048,15.1689
0.701032,2.12068,-0.179882,1.04556,-1.64953,1.57042,0.946606,0.36128,1.54269,1.52421,0.99999,-0.000398199,1.76222e-06,-0.00443033,0,0,0,0,0,0,0,0,0,0,0,0,0,0,0,0,0,2.39749,2.39749,0,0,0,0,0,0,0,0,0,0.00972719,2.23048,15.1689
0.706569,2.11623,-0.172219,1.05801,-1.64805,1.57454,0.947375,0.345735,1.54706,1.5421,0.999944,0.00992243,0.00378281,0.000196941,0,0,0,0,0,0,0,0,0,0,0,0,0,0,0,0,0,2.39749,2.39749,0,0,0,0,0,0,0,0,0,0.00972719,2.23048,15.1689
0.706569,2.11623,-0.172231,1.058,-1.64805,1.57454,0.947375,0.345735,1.54706,1.54208,0.999944,0.00991141,0.00378072,0.000196919,0,0,0,0,0,0,0,0,0,0,0,0,0,0,0,0,0,2.39749,2.39749,0,0,0,0,0,0,0,0,0,0.00972719,2.23048,15.1689
0.706569,2.11623,-0.172239,1.058,-1.64805,1.57454,0.947375,0.345735,1.54706,1.54207,0.999944,0.00990432,0.00377928,0.000196903,0,0,0,0,0,0,0,0,0,0,0,0,0,0,0,0,0,2.39749,2.39749,0,0,0,0,0,0,0,0,0,0.00972719,2.23048,15.1689
0.706569,2.11623,-0.172246,1.05799,-1.64806,1.57454,0.947375,0.345736,1.54706,1.54205,0.999944,0.00989723,0.00377785,0.000196887,0,0,0,0,0,0,0,0,0,0,0,0,0,0,0,0,0,2.39749,2.39749,0,0,0,0,0,0,0,0,0,0.00972719,2.23048,15.1689
0.706569,2.11623,-0.172252,1.05799,-1.64806,1.57454,0.947375,0.345736,1.54706,1.54204,0.999944,0.00989085,0.00377657,0.000196873,0,0,0,0,0,0,0,0,0,0,0,0,0,0,0,0,0,2.39749,2.39749,0,0,0,0,0,0,0,0,0,0.00972719,2.23048,15.1689
0.706569,2.11623,-0.172258,1.05799,-1.64806,1.57454,0.947375,0.345736,1.54705,1.54203,0.999944,0.00988515,0.00377543,0.000196861,0,0,0,0,0,0,0,0,0,0,0,0,0,0,0,0,0,2.39749,2.39749,0,0,0,0,0,0,0,0,0,0.00972719,2.23048,15.1689
0.706569,2.11623,-0.172263,1.05798,-1.64806,1.57454,0.947375,0.345736,1.54705,1.54203,0.999944,0.00988031,0.00377447,0.000196851,0,0,0,0,0,0,0,0,0,0,0,0,0,0,0,0,0,2.39749,2.39749,0,0,0,0,0,0,0,0,0,0.00972719,2.23048,15.1689
0.706569,2.11623,-0.172266,1.05798,-1.64807,1.57454,0.947375,0.345737,1.54705,1.54202,0.999944,0.00987667,0.00377375,0.000196843,0,0,0,0,0,0,0,0,0,0,0,0,0,0,0,0,0,2.39749,2.39749,0,0,0,0,0,0,0,0,0,0.00972719,2.23048,15.1689
0.706569,2.11623,-0.172268,1.05798,-1.64807,1.57454,0.947375,0.345737,1.54705,1.54202,0.999944,0.00987441,0.0037733,0.000196838,0,0,0,0,0,0,0,0,0,0,0,0,0,0,0,0,0,2.39749,2.39749,0,0,0,0,0,0,0,0,0,0.00972719,2.23048,15.1689
0.706569,2.11623,-0.172269,1.05798,-1.64807,1.57454,0.947375,0.345737,1.54705,1.54202,0.999944,0.00987363,0.00377314,0.000196836,0,0,0,0,0,0,0,0,0,0,0,0,0,0,0,0,0,2.39749,2.39749,0,0,0,0,0,0,0,0,0,0.00972719,2.23048,15.1689

0.734491,2.11222,-0.173997,1.06604,-1.6759,1.57041,0.980063,0.3,1.55,1.5422,1,-0.000398163,7.9555e-08,-0.000199081,0,0,0,0,0,0,0,0,0,0,0,0,0,0,0,0,0,0.0215329,0.0215329,0,0,0,0,0,0,0,0,0,0.0103341,2.19514,15.0976
0.73791,2.11639,-0.16985,1.06604,-1.68004,1.57042,0.979312,0.300013,1.54963,1.54664,1,-0.000398268,7.09652e-08,-0.000199082,0,0,0,0,0,0,0,0,0,0,0,0,0,0,0,0,0,0.0215329,0.0215329,0,0,0,0,0,0,0,0,0,0.0103341,2.19514,15.0976
0.741329,2.12055,-0.165704,1.06604,-1.68419,1.57042,0.978561,0.300023,1.54924,1.55106,1,-0.000398355,6.2964e-08,-0.000199082,0,0,0,0,0,0,0,0,0,0,0,0,0,0,0,0,0,0.0215329,0.0215329,0,0,0,0,0,0,0,0,0,0.0103341,2.19514,15.0976
0.744748,2.12472,-0.161558,1.06604,-1.68833,1.57043,0.977811,0.30003,1.54882,1.55548,1,-0.000398416,5.71033e-08,-0.00019908,0,0,0,0,0,0,0,0,0,0,0,0,0,0,0,0,0,0.0215329,0.0215329,0,0,0,0,0,0,0,0,0,0.0103341,2.19514,15.0976
0.748167,2.12889,-0.157412,1.06604,-1.69248,1.57044,0.97706,0.300034,1.54838,1.5599,1,-0.000398446,5.42889e-08,-0.000199076,0,0,0,0,0,0,0,0,0,0,0,0,0,0,0,0,0,0.0215329,0.0215329,0,0,0,0,0,0,0,0,0,0.0103341,2.19514,15.0976
0.751586,2.13306,-0.153265,1.06604,-1.69662,1.57044,0.976309,0.300033,1.54792,1.56431,1,-0.000398443,5.49892e-08,-0.00019907,0,0,0,0,0,0,0,0,0,0,0,0,0,0,0,0,0,0.0215329,0.0215329,0,0,0,0,0,0,0,0,0,0.0103341,2.19514,15.0976
0.755005,2.13723,-0.149119,1.06604,-1.70077,1.57045,0.975559,0.30003,1.54743,1.56871,1,-0.00039841,5.89177e-08,-0.000199062,0,0,0,0,0,0,0,0,0,0,0,0,0,0,0,0,0,0.0215329,0.0215329,0,0,0,0,0,0,0,0,0,0.0103341,2.19514,15.0976
0.758424,2.1414,-0.144973,1.06604,-1.70491,1.57046,0.974808,0.300023,1.54692,1.5731,1,-0.000398347,6.53924e-08,-0.000199052,0,0,0,0,0,0,0,0,0,0,0,0,0,0,0,0,0,0.0215329,0.0215329,0,0,0,0,0,0,0,0,0,0.0103341,2.19514,15.0976
0.761843,2.14557,-0.140826,1.06604,-1.70906,1.57046,0.974058,0.300013,1.54639,1.57748,1,-0.000398261,7.32254e-08,-0.000199041,0,0,0,0,0,0,0,0,0,0,0,0,0,0,0,0,0,0.0215329,0.0215329,0,0,0,0,0,0,0,0,0,0.0103341,2.19514,15.0976
0.765262,2.14974,-0.13668,1.06604,-1.7132,1.57047,0.973307,0.299998,1.54583,1.58186,1,-0.000398158,8.13599e-08,-0.000199029,0,0,0,0,0,0,0,0,0,0,0,0,0,0,0,0,0,0.0215329,0.0215329,0,0,0,0,0,0,0,0,0,0.0103341,2.19514,15.0976
0.758725,2.14674,-0.140605,1.06451,-1.70693,1.57046,0.970252,0.306158,1.54577,1.57694,1,2.40208e-06,7.54728e-05,-0.000437194,0,0,0,0,0,0,0,0,0,0,0,0,0,0,0,0,0,0.0215329,0.0215329,0,0,0,0,0,0,0,0,0,0.0103341,2.19514,15.0976
0.752188,2.14373,-0.144531,1.06298,-1.70066,1.57046,0.967198,0.312323,1.54565,1.57202,1,0.000402809,0.000148106,-0.000675379,0,0,0,0,0,0,0,0,0,0,0,0,0,0,0,0,0,0.0215329,0.0215329,0,0,0,0,0,0,0,0,0,0.0103341,2.19514,15.0976
0.74565,2.14072,-0.148459,1.06145,-1.69439,1.57046,0.964143,0.318491,1.54549,1.56708,0.999999,0.000802186,0.000217826,-0.000913653,0,0,0,0,0,0,0,0,0,0,0,0,0,0,0,0,0,0.0215329,0.0215329,0,0,0,0,0,0,0,0,0,0.0103341,2.19514,15.0976
0.739113,2.13772,-0.152389,1.05991,-1.68812,1.57045,0.961089,0.324664,1.54527,1.56213,0.999999,0.00120003,0.000284555,-0.00115201,0,0,0,0,0,0,0,0,0,0,0,0,0,0,0,0,0,0.0215329,0.0215329,0,0,0,0,0,0,0,0,0,0.0103341,2.19514,15.0976
0.732575,2.13471,-0.156323,1.05837,-1.68185,1.57045,0.958034,0.330839,1.545,1.55717,0.999998,0.00159542,0.000348164,-0.00139038,0,0,0,0,0,0,0,0,0,0,0,0,0,0,0,0,0,0.0215329,0.0215329,0,0,0,0,0,0,0,0,0,0.0103341,2.19514,15.0976
0.726038,2.1317,-0.16026,1.05684,-1.67558,1.57044,0.954979,0.337017,1.54468,1.5522,0.999997,0.00198843,0.000408677,-0.00162863,0,0,0,0,0,0,0,0,0,0,0,0,0,0,0,0,0,0.0215329,0.0215329,0,0,0,0,0,0,0,0,0,0.0103341,2.19514,15.0976
0.719501,2.1287,-0.164201,1.0553,-1.66931,1.57044,0.951925,0.343197,1.54431,1.54721,0.999995,0.00237916,0.000466163,-0.00186664,0,0,0,0,0,0,0,0,0,0,0,0,0,0,0,0,0,0.0215329,0.0215329,0,0,0,0,0,0,0,0,0,0.0103341,2.19514,15.0976
0.712965,2.12569,-0.168145,1.05375,-1.66304,1.57044,0.94887,0.349379,1.54388,1.54221,0.999994,0.00276806,0.000520732,-0.00210445,0,0,0,0,0,0,0,0,0,0,0,0,0,0,0,0,0,0.0215329,0.0215329,0,0,0,0,0,0,0,0,0,0.0103341,2.19514,15.0976
0.706428,2.12268,-0.172091,1.05221,-1.65677,1.57043,0.945816,0.355561,1.54341,1.5372,0.999992,0.00315576,0.000572526,-0.00234206,0,0,0,0,0,0,0,0,0,0,0,0,0,0,0,0,0,0.0215329,0.0215329,0,0,0,0,0,0,0,0,0,0.0103341,2.19514,15.0976
0.697187,2.12452,-0.176038,1.04269,-1.6505,1.57043,0.942761,0.372024,1.53997,1.5267,0.99998,-0.000397659,2.87415e-06,-0.00635247,0,0,0,0,0,0,0,0,0,0,0,0,0,0,0,0,0,0.0215329,0.0215329,0,0,0,0,0,0,0,0,0,0.0103341,2.19514,15.0976
0.702724,2.12007,-0.175905,1.05416,-1.6505,1.5707,0.943531,0.357639,1.54474,1.53475,0.999984,0.00531513,0.00104333,-0.00174582,0,0,0,0,0,0,0,0,0,0,0,0,0,0,0,0,0,0.0215329,0.0215329,0,0,0,0,0,0,0,0,0,0.0103341,2.19514,15.0976
