jianye0428/UNICAR_TrajOpt/src/pick_and_place/config/csvfile_3_position/position2/file_output_pick.csv
shoulder_lift_joint,shoulder_pan_joint,elbow_joint,wrist_2_joint,wrist_1_joint,wrist_3_joint,drehkranz_joint,x,y,z,q_w,q_x,q_y,q_z,collision_1,collision_2,collision_3,collision_4,collision_5,collision_6,collision_7,collision_8,collision_9,collision_10,collision_11,collision_12,collision_13,collision_14,collision_15,collision_16,collision_17,collision_18,collision_19,collision_20,collision_21,collision_22,collision_23,collision_24,collision_25,collision_26,collision_27,collision_28,joint_velocity_cost,pose_10,pose_extra_19
0,0,0,0,0,0,0,-0.408996,0.478457,1.5421,0.500463,0.500298,-0.499138,0.500099
0,0,0,0,0,0,0,-0.408996,0.478457,1.5421,0.500463,0.500298,-0.499138,0.500099
0,0,0,0,0,0,0,-0.408996,0.478457,1.5421,0.500463,0.500298,-0.499138,0.500099
0,0,0,0,0,0,0,-0.408996,0.478457,1.5421,0.500463,0.500298,-0.499138,0.500099
0,0,0,0,0,0,0,-0.408996,0.478457,1.5421,0.500463,0.500298,-0.499138,0.500099
0,0,0,0,0,0,0,-0.408996,0.478457,1.5421,0.500463,0.500298,-0.499138,0.500099
0,0,0,0,0,0,0,-0.408996,0.478457,1.5421,0.500463,0.500298,-0.499138,0.500099
0,0,0,0,0,0,0,-0.408996,0.478457,1.5421,0.500463,0.500298,-0.499138,0.500099
0,0,0,0,0,0,0,-0.408996,0.478457,1.5421,0.500463,0.500298,-0.499138,0.500099
0,0,0,0,0,0,0,-0.408996,0.478457,1.5421,0.500463,0.500298,-0.499138,0.500099
0,0,0,0,0,0,0,-0.408996,0.478457,1.5421,0.500463,0.500298,-0.499138,0.500099
0,0,0,0,0,0,0,-0.408996,0.478457,1.5421,0.500463,0.500298,-0.499138,0.500099
0,0,0,0,0,0,0,-0.408996,0.478457,1.5421,0.500463,0.500298,-0.499138,0.500099
0,0,0,0,0,0,0,-0.408996,0.478457,1.5421,0.500463,0.500298,-0.499138,0.500099
0,0,0,0,0,0,0,-0.408996,0.478457,1.5421,0.500463,0.500298,-0.499138,0.500099
0,0,0,0,0,0,0,-0.408996,0.478457,1.5421,0.500463,0.500298,-0.499138,0.500099
0,0,0,0,0,0,0,-0.408996,0.478457,1.5421,0.500463,0.500298,-0.499138,0.500099
0,0,0,0,0,0,0,-0.408996,0.478457,1.5421,0.500463,0.500298,-0.499138,0.500099
0,0,0,0,0,0,0,-0.408996,0.478457,1.5421,0.500463,0.500298,-0.499138,0.500099
0,0,0,0,0,0,0,-0.408996,0.478457,1.5421,0.500463,0.500298,-0.499138,0.500099
0,0,0,0,0,0,0,-0.408996,0.478457,1.5421,0.500463,0.500298,-0.499138,0.500099
0,0,0,0,0,0,0,-0.408996,0.478457,1.5421,0.500463,0.500298,-0.499138,0.500099
0,0,0,0,0,0,0,-0.408996,0.478457,1.5421,0.500463,0.500298,-0.499138,0.500099
0,0,0,0,0,0,0,-0.408996,0.478457,1.5421,0.500463,0.500298,-0.499138,0.500099
0,0,0,0,0,0,0,-0.408996,0.478457,1.5421,0.500463,0.500298,-0.499138,0.500099
0,0,0,0,0,0,0,-0.408996,0.478457,1.5421,0.500463,0.500298,-0.499138,0.500099
0,0,0,0,0,0,0,-0.408996,0.478457,1.5421,0.500463,0.500298,-0.499138,0.500099
0,0,0,0,0,0,0,-0.408996,0.478457,1.5421,0.500463,0.500298,-0.499138,0.500099
0,0,0,0,0,0,0,-0.408996,0.478457,1.5421,0.500463,0.500298,-0.499138,0.500099
0,0,0,0,0,0,0,-0.408996,0.478457,1.5421,0.500463,0.500298,-0.499138,0.500099

-4.36783e-22,4.1723e-22,4.11192e-22,4.52912e-22,4.52371e-22,-5.60798e-22,4.72214e-22,-0.408996,0.478457,1.5421,0.500463,0.500298,-0.499138,0.500099,0,0,0,0,0,0,0,0,0,0,0,0,0,0,0,0,0,0,0,0,0,0,0,0,0,0,0,0,0.035,43.5825,42.5825
-0.01,0.01,0.01,0.01,0.01,-0.01,0.01,-0.398398,0.491638,1.55904,0.515245,0.505175,-0.497631,0.481335,0,0,0,0,0,0,0,0,0,0,0,0,0,0,0,0,0,0,0,0,0,0,0,0,0,0,0,0,0.035,43.5825,42.5825
-0.02,0.02,0.02,0.02,0.02,-0.02,0.02,-0.38709,0.504539,1.57588,0.529549,0.509848,-0.496059,0.462123,0,0,0,0,0,0,0,0,0,0,0,0,0,0,0,0,0,0,0,0,0,0,0,0,0,0,0,0,0.035,43.5825,42.5825
-0.03,0.03,0.03,0.03,0.03,-0.03,0.03,-0.375085,0.517129,1.59262,0.543363,0.514315,-0.494418,0.442479,0,0,0,0,0,0,0,0,0,0,0,0,0,0,0,0,0,0,0,0,0,0,0,0,0,0,0,0,0.035,43.5825,42.5825
-0.04,0.04,0.04,0.04,0.04,-0.04,0.04,-0.362399,0.529381,1.60923,0.556672,0.518577,-0.492704,0.422418,0,0,0,0,0,0,0,0,0,0,0,0,0,0,0,0,0,0,0,0,0,0,0,0,0,0,0,0,0.035,43.5825,42.5825
-0.05,0.05,0.05,0.05,0.05,-0.05,0.05,-0.349048,0.541264,1.62573,0.569464,0.522632,-0.490914,0.401958,0,0,0,0,0,0,0,0,0,0,0,0,0,0,0,0,0,0,0,0,0,0,0,0,0,0,0,0,0.035,43.5825,42.5825
-0.06,0.06,0.06,0.06,0.06,-0.06,0.06,-0.335051,0.552752,1.64208,0.581727,0.526481,-0.489045,0.381113,0,0,0,0,0,0,0,0,0,0,0,0,0,0,0,0,0,0,0,0,0,0,0,0,0,0,0,0,0.035,43.5825,42.5825
-0.07,0.07,0.07,0.07,0.07,-0.07,0.07,-0.320428,0.563817,1.65829,0.593448,0.530123,-0.487093,0.359902,0,0,0,0,0,0,0,0,0,0,0,0,0,0,0,0,0,0,0,0,0,0,0,0,0,0,0,0,0.035,43.5825,42.5825
-0.08,0.08,0.08,0.08,0.08,-0.08,0.08,-0.305198,0.574433,1.67433,0.604617,0.533559,-0.485055,0.338342,0,0,0,0,0,0,0,0,0,0,0,0,0,0,0,0,0,0,0,0,0,0,0,0,0,0,0,0,0.035,43.5825,42.5825
-0.09,0.09,0.09,0.09,0.09,-0.09,0.09,-0.289384,0.584575,1.69021,0.615222,0.536788,-0.482928,0.316451,0,0,0,0,0,0,0,0,0,0,0,0,0,0,0,0,0,0,0,0,0,0,0,0,0,0,0,0,0.035,43.5825,42.5825
-0.1,0.1,0.1,0.1,0.1,-0.1,0.1,-0.273009,0.594221,1.70592,0.625255,0.53981,-0.480708,0.294246,0,0,0,0,0,0,0,0,0,0,0,0,0,0,0,0,0,0,0,0,0,0,0,0,0,0,0,0,0.035,43.5825,42.5825
-0.1,0.1,0.1,0.1,0.1,-0.1,0.1,-0.273009,0.594221,1.70592,0.625255,0.53981,-0.480708,0.294246,0,0,0,0,0,0,0,0,0,0,0,0,0,0,0,0,0,0,0,0,0,0,0,0,0,0,0,0,0.035,43.5825,42.5825
-0.1,0.1,0.1,0.1,0.1,-0.1,0.1,-0.273009,0.594221,1.70592,0.625255,0.53981,-0.480708,0.294246,0,0,0,0,0,0,0,0,0,0,0,0,0,0,0,0,0,0,0,0,0,0,0,0,0,0,0,0,0.035,43.5825,42.5825
-0.1,0.1,0.1,0.1,0.1,-0.1,0.1,-0.273009,0.594221,1.70592,0.625255,0.53981,-0.480708,0.294246,0,0,0,0,0,0,0,0,0,0,0,0,0,0,0,0,0,0,0,0,0,0,0,0,0,0,0,0,0.035,43.5825,42.5825
-0.1,0.1,0.1,0.1,0.1,-0.1,0.1,-0.273009,0.594221,1.70592,0.625255,0.53981,-0.480708,0.294246,0,0,0,0,0,0,0,0,0,0,0,0,0,0,0,0,0,0,0,0,0,0,0,0,0,0,0,0,0.035,43.5825,42.5825
-0.1,0.1,0.1,0.1,0.1,-0.1,0.1,-0.273009,0.594221,1.70592,0.625255,0.53981,-0.480708,0.294246,0,0,0,0,0,0,0,0,0,0,0,0,0,0,0,0,0,0,0,0,0,0,0,0,0,0,0,0,0.035,43.5825,42.5825
-0.1,0.1,0.1,0.1,0.1,-0.1,0.1,-0.273009,0.594221,1.70592,0.625255,0.53981,-0.480708,0.294246,0,0,0,0,0,0,0,0,0,0,0,0,0,0,0,0,0,0,0,0,0,0,0,0,0,0,0,0,0.035,43.5825,42.5825
-0.1,0.1,0.1,0.1,0.1,-0.1,0.1,-0.273009,0.594221,1.70592,0.625255,0.53981,-0.480708,0.294246,0,0,0,0,0,0,0,0,0,0,0,0,0,0,0,0,0,0,0,0,0,0,0,0,0,0,0,0,0.035,43.5825,42.5825
-0.1,0.1,0.1,0.1,0.1,-0.1,0.1,-0.273009,0.594221,1.70592,0.625255,0.53981,-0.480708,0.294246,0,0,0,0,0,0,0,0,0,0,0,0,0,0,0,0,0,0,0,0,0,0,0,0,0,0,0,0,0.035,43.5825,42.5825
-0.1,0.1,0.1,0.1,0.1,-0.1,0.1,-0.273009,0.594221,1.70592,0.625255,0.53981,-0.480708,0.294246,0,0,0,0,0,0,0,0,0,0,0,0,0,0,0,0,0,0,0,0,0,0,0,0,0,0,0,0,0.035,43.5825,42.5825
-0.1,0.1,0.1,0.1,0.1,-0.1,0.1,-0.273009,0.594221,1.70592,0.625255,0.53981,-0.480708,0.294246,0,0,0,0,0,0,0,0,0,0,0,0,0,0,0,0,0,0,0,0,0,0,0,0,0,0,0,0,0.035,43.5825,42.5825
-0.1,0.1,0.1,0.1,0.1,-0.1,0.1,-0.273009,0.594221,1.70592,0.625255,0.53981,-0.480708,0.294246,0,0,0,0,0,0,0,0,0,0,0,0,0,0,0,0,0,0,0,0,0,0,0,0,0,0,0,0,0.035,43.5825,42.5825
-0.1,0.1,0.1,0.1,0.1,-0.1,0.1,-0.273009,0.594221,1.70592,0.625255,0.53981,-0.480708,0.294246,0,0,0,0,0,0,0,0,0,0,0,0,0,0,0,0,0,0,0,0,0,0,0,0,0,0,0,0,0.035,43.5825,42.5825
-0.1,0.1,0.1,0.1,0.1,-0.1,0.1,-0.273009,0.594221,1.70592,0.625255,0.53981,-0.480708,0.294246,0,0,0,0,0,0,0,0,0,0,0,0,0,0,0,0,0,0,0,0,0,0,0,0,0,0,0,0,0.035,43.5825,42.5825
-0.1,0.1,0.1,0.1,0.1,-0.1,0.1,-0.273009,0.594221,1.70592,0.625255,0.53981,-0.480708,0.294246,0,0,0,0,0,0,0,0,0,0,0,0,0,0,0,0,0,0,0,0,0,0,0,0,0,0,0,0,0.035,43.5825,42.5825
-0.1,0.1,0.1,0.1,0.1,-0.1,0.1,-0.273009,0.594221,1.70592,0.625255,0.53981,-0.480708,0.294246,0,0,0,0,0,0,0,0,0,0,0,0,0,0,0,0,0,0,0,0,0,0,0,0,0,0,0,0,0.035,43.5825,42.5825
-0.1,0.1,0.1,0.1,0.1,-0.1,0.1,-0.273009,0.594221,1.70592,0.625255,0.53981,-0.480708,0.294246,0,0,0,0,0,0,0,0,0,0,0,0,0,0,0,0,0,0,0,0,0,0,0,0,0,0,0,0,0.035,43.5825,42.5825
-0.1,0.1,0.1,0.1,0.1,-0.1,0.1,-0.273009,0.594221,1.70592,0.625255,0.53981,-0.480708,0.294246,0,0,0,0,0,0,0,0,0,0,0,0,0,0,0,0,0,0,0,0,0,0,0,0,0,0,0,0,0.035,43.5825,42.5825
-0.1,0.1,0.1,0.1,0.1,-0.1,0.1,-0.273009,0.594221,1.70592,0.625255,0.53981,-0.480708,0.294246,0,0,0,0,0,0,0,0,0,0,0,0,0,0,0,0,0,0,0,0,0,0,0,0,0,0,0,0,0.035,43.5825,42.5825
-0.1,0.1,0.1,0.1,0.1,-0.1,0.1,-0.273009,0.594221,1.70592,0.625255,0.53981,-0.480708,0.294246,0,0,0,0,0,0,0,0,0,0,0,0,0,0,0,0,0,0,0,0,0,0,0,0,0,0,0,0,0.035,43.5825,42.5825

-1.39629e-21,1.36657e-21,9.64166e-22,1.36206e-21,1.36832e-21,-1.38304e-21,1.3635e-21,-0.408996,0.478457,1.5421,0.500463,0.500298,-0.499138,0.500099,0,0,0,0,0,0,0,0,0,0,0,0,0,0,0,0,0,0,0,0,0,0,0,0,0,0,0,0,0.195651,33.9475,34.2447
-0.025,0.025,0.0172308,0.025,0.025,-0.0160383,0.025,-0.384355,0.511074,1.57537,0.53472,0.510418,-0.494095,0.457622,0,0,0,0,0,0,0,0,0,0,0,0,0,0,0,0,0,0,0,0,0,0,0,0,0,0,0,0,0.195651,33.9475,34.2447
-0.05,0.05,0.0344616,0.05,0.05,-0.0320766,0.05,-0.356184,0.54217,1.60831,0.566193,0.519755,-0.488768,0.412778,0,0,0,0,0,0,0,0,0,0,0,0,0,0,0,0,0,0,0,0,0,0,0,0,0,0,0,0,0.195651,33.9475,34.2447
-0.075,0.075,0.0516924,0.075,0.075,-0.0481149,0.075,-0.324645,0.571411,1.64082,0.594718,0.528307,-0.483128,0.365774,0,0,0,0,0,0,0,0,0,0,0,0,0,0,0,0,0,0,0,0,0,0,0,0,0,0,0,0,0.195651,33.9475,34.2447
-0.1,0.1,0.0689233,0.1,0.1,-0.0641533,0.1,-0.289934,0.598481,1.6728,0.620144,0.536072,-0.477146,0.316827,0,0,0,0,0,0,0,0,0,0,0,0,0,0,0,0,0,0,0,0,0,0,0,0,0,0,0,0,0.195651,33.9475,34.2447
-0.125,0.125,0.0861541,0.125,0.125,-0.0801916,0.125,-0.252276,0.623089,1.70417,0.64234,0.543054,-0.470794,0.266166,0,0,0,0,0,0,0,0,0,0,0,0,0,0,0,0,0,0,0,0,0,0,0,0,0,0,0,0,0.195651,33.9475,34.2447
-0.15,0.15,0.103385,0.15,0.15,-0.0962299,0.15,-0.211927,0.64497,1.73485,0.66119,0.549256,-0.464044,0.214029,0,0,0,0,0,0,0,0,0,0,0,0,0,0,0,0,0,0,0,0,0,0,0,0,0,0,0,0,0.195651,33.9475,34.2447
-0.175,0.175,0.120616,0.175,0.175,-0.112268,0.175,-0.169164,0.663889,1.76477,0.676596,0.554685,-0.45687,0.160661,0,0,0,0,0,0,0,0,0,0,0,0,0,0,0,0,0,0,0,0,0,0,0,0,0,0,0,0,0.195651,33.9475,34.2447
-0.2,0.2,0.137847,0.2,0.2,-0.128307,0.2,-0.124286,0.679641,1.79388,0.688478,0.559351,-0.449246,0.106314,0,0,0,0,0,0,0,0,0,0,0,0,0,0,0,0,0,0,0,0,0,0,0,0,0,0,0,0,0.195651,33.9475,34.2447
-0.225,0.225,0.155077,0.225,0.225,-0.144345,0.225,-0.0776081,0.692055,1.82211,0.696776,0.563265,-0.441146,0.0512452,0,0,0,0,0,0,0,0,0,0,0,0,0,0,0,0,0,0,0,0,0,0,0,0,0,0,0,0,0.195651,33.9475,34.2447
-0.25,0.25,0.172308,0.25,0.25,-0.160383,0.25,-0.0294576,0.700993,1.84941,0.701448,0.56644,-0.432548,-0.00428472,0,0,0,0,0,0,0,0,0,0,0,0,0,0,0,0,0,0,0,0,0,0,0,0,0,0,0,0,0.195651,33.9475,34.2447
-0.25,0.25,0.15963,0.25,0.25,-0.170341,0.25,-0.03173,0.701653,1.83894,0.700296,0.562548,-0.439448,-0.00334128,0,0,0,0,0,0,0,0,0,0,0,0,0,0,0,0,0,0,0,0,0,0,0,0,0,0,0,0,0.195651,33.9475,34.2447
-0.25,0.25,0.146952,0.25,0.25,-0.180298,0.25,-0.0339082,0.702229,1.82848,0.699055,0.55866,-0.446335,-0.00239946,0,0,0,0,0,0,0,0,0,0,0,0,0,0,0,0,0,0,0,0,0,0,0,0,0,0,0,0,0.195651,33.9475,34.2447
-0.25,0.25,0.134274,0.25,0.25,-0.190255,0.25,-0.0359931,0.702721,1.81802,0.697725,0.554779,-0.453209,-0.00145925,0,0,0,0,0,0,0,0,0,0,0,0,0,0,0,0,0,0,0,0,0,0,0,0,0,0,0,0,0.195651,33.9475,34.2447
-0.25,0.25,0.121596,0.25,0.25,-0.200213,0.25,-0.0379854,0.703129,1.80758,0.696305,0.550905,-0.460069,-0.000520652,0,0,0,0,0,0,0,0,0,0,0,0,0,0,0,0,0,0,0,0,0,0,0,0,0,0,0,0,0.195651,33.9475,34.2447
-0.25,0.25,0.108918,0.25,0.25,-0.21017,0.25,-0.0398857,0.703454,1.79715,0.694796,0.547037,-0.466914,0.000416336,0,0,0,0,0,0,0,0,0,0,0,0,0,0,0,0,0,0,0,0,0,0,0,0,0,0,0,0,0.195651,33.9475,34.2447
-0.25,0.25,0.0962395,0.25,0.25,-0.220128,0.25,-0.041695,0.703697,1.78673,0.693198,0.543177,-0.473744,0.00135171,0,0,0,0,0,0,0,0,0,0,0,0,0,0,0,0,0,0,0,0,0,0,0,0,0,0,0,0,0.195651,33.9475,34.2447
-0.25,0.25,0.0835614,0.25,0.25,-0.230085,0.25,-0.0434138,0.703857,1.77633,0.691512,0.539325,-0.480557,0.00228548,0,0,0,0,0,0,0,0,0,0,0,0,0,0,0,0,0,0,0,0,0,0,0,0,0,0,0,0,0.195651,33.9475,34.2447
-0.25,0.25,0.0708832,0.25,0.25,-0.240043,0.25,-0.045043,0.703935,1.76594,0.689737,0.535481,-0.487352,0.00321765,0,0,0,0,0,0,0,0,0,0,0,0,0,0,0,0,0,0,0,0,0,0,0,0,0,0,0,0,0.195651,33.9475,34.2447
-0.25,0.25,0.0582051,0.25,0.25,-0.25,0.25,-0.0465834,0.703932,1.75557,0.687874,0.531647,-0.494129,0.00414821,0,0,0,0,0,0,0,0,0,0,0,0,0,0,0,0,0,0,0,0,0,0,0,0,0,0,0,0,0.195651,33.9475,34.2447
-0.25,0.25,0.0582051,0.25,0.25,-0.25,0.25,-0.0465834,0.703932,1.75557,0.687874,0.531647,-0.494129,0.00414821,0,0,0,0,0,0,0,0,0,0,0,0,0,0,0,0,0,0,0,0,0,0,0,0,0,0,0,0,0.195651,33.9475,34.2447
-0.25,0.25,0.0582051,0.25,0.25,-0.25,0.25,-0.0465834,0.703932,1.75557,0.687874,0.531647,-0.494129,0.00414821,0,0,0,0,0,0,0,0,0,0,0,0,0,0,0,0,0,0,0,0,0,0,0,0,0,0,0,0,0.195651,33.9475,34.2447
-0.25,0.25,0.0582051,0.25,0.25,-0.25,0.25,-0.0465834,0.703932,1.75557,0.687874,0.531647,-0.494129,0.00414821,0,0,0,0,0,0,0,0,0,0,0,0,0,0,0,0,0,0,0,0,0,0,0,0,0,0,0,0,0.195651,33.9475,34.2447
-0.25,0.25,0.0582051,0.25,0.25,-0.25,0.25,-0.0465834,0.703932,1.75557,0.687874,0.531647,-0.494129,0.00414821,0,0,0,0,0,0,0,0,0,0,0,0,0,0,0,0,0,0,0,0,0,0,0,0,0,0,0,0,0.195651,33.9475,34.2447
-0.25,0.25,0.0582051,0.25,0.25,-0.25,0.25,-0.0465834,0.703932,1.75557,0.687874,0.531647,-0.494129,0.00414821,0,0,0,0,0,0,0,0,0,0,0,0,0,0,0,0,0,0,0,0,0,0,0,0,0,0,0,0,0.195651,33.9475,34.2447
-0.25,0.25,0.0582051,0.25,0.25,-0.25,0.25,-0.0465834,0.703932,1.75557,0.687874,0.531647,-0.494129,0.00414821,0,0,0,0,0,0,0,0,0,0,0,0,0,0,0,0,0,0,0,0,0,0,0,0,0,0,0,0,0.195651,33.9475,34.2447
-0.25,0.25,0.0582051,0.25,0.25,-0.25,0.25,-0.0465834,0.703932,1.75557,0.687874,0.531647,-0.494129,0.00414821,0,0,0,0,0,0,0,0,0,0,0,0,0,0,0,0,0,0,0,0,0,0,0,0,0,0,0,0,0.195651,33.9475,34.2447
-0.25,0.25,0.0582051,0.25,0.25,-0.25,0.25,-0.0465834,0.703932,1.75557,0.687874,0.531647,-0.494129,0.00414821,0,0,0,0,0,0,0,0,0,0,0,0,0,0,0,0,0,0,0,0,0,0,0,0,0,0,0,0,0.195651,33.9475,34.2447
-0.25,0.25,0.0582051,0.25,0.25,-0.25,0.25,-0.0465834,0.703932,1.75557,0.687874,0.531647,-0.494129,0.00414821,0,0,0,0,0,0,0,0,0,0,0,0,0,0,0,0,0,0,0,0,0,0,0,0,0,0,0,0,0.195651,33.9475,34.2447
-0.25,0.25,0.0582051,0.25,0.25,-0.25,0.25,-0.0465834,0.703932,1.75557,0.687874,0.531647,-0.494129,0.00414821,0,0,0,0,0,0,0,0,0,0,0,0,0,0,0,0,0,0,0,0,0,0,0,0,0,0,0,0,0.195651,33.9475,34.2447

-1.87006e-22,1.68994e-21,2.73518e-22,2.72612e-21,2.73875e-21,3.07026e-22,1.7456e-21,-0.408996,0.478457,1.5421,0.500463,0.500298,-0.499138,0.500099,0,0,0,0,0,0,0,0,0,0,0,0,0,0,0,0,0,0,0,0,0,0,0,0,0,0,0,0,0.335919,29.4679,30.1413
-0.0025,0.0302657,0.00443653,0.0475,0.0475,0.00646169,0.0314396,-0.404786,0.507456,1.57202,0.539644,0.524241,-0.471695,0.459848,0,0,0,0,0,0,0,0,0,0,0,0,0,0,0,0,0,0,0,0,0,0,0,0,0,0,0,0,0.335919,29.4679,30.1413
-0.005,0.0605315,0.00887306,0.095,0.095,0.0129234,0.0628792,-0.397927,0.536562,1.60239,0.57513,0.547147,-0.443126,0.416527,0,0,0,0,0,0,0,0,0,0,0,0,0,0,0,0,0,0,0,0,0,0,0,0,0,0,0,0,0.335919,29.4679,30.1413
-0.0075,0.0907972,0.0133096,0.1425,0.1425,0.0193851,0.0943187,-0.388405,0.565579,1.63312,0.606683,0.56896,-0.413513,0.370443,0,0,0,0,0,0,0,0,0,0,0,0,0,0,0,0,0,0,0,0,0,0,0,0,0,0,0,0,0.335919,29.4679,30.1413
-0.01,0.121063,0.0177461,0.19,0.19,0.0258467,0.125758,-0.376223,0.59431,1.66409,0.634089,0.589626,-0.382939,0.321917,0,0,0,0,0,0,0,0,0,0,0,0,0,0,0,0,0,0,0,0,0,0,0,0,0,0,0,0,0.335919,29.4679,30.1413
-0.0125,0.151329,0.0221826,0.2375,0.2375,0.0323084,0.157198,-0.361404,0.62256,1.69523,0.657162,0.609094,-0.35149,0.271289,0,0,0,0,0,0,0,0,0,0,0,0,0,0,0,0,0,0,0,0,0,0,0,0,0,0,0,0,0.335919,29.4679,30.1413
-0.015,0.181594,0.0266192,0.285,0.285,0.0387701,0.188637,-0.343986,0.650137,1.72643,0.675746,0.627311,-0.319256,0.218913,0,0,0,0,0,0,0,0,0,0,0,0,0,0,0,0,0,0,0,0,0,0,0,0,0,0,0,0,0.335919,29.4679,30.1413
-0.0175,0.21186,0.0310557,0.3325,0.3325,0.0452318,0.220077,-0.324023,0.67685,1.7576,0.689714,0.644233,-0.286325,0.165155,0,0,0,0,0,0,0,0,0,0,0,0,0,0,0,0,0,0,0,0,0,0,0,0,0,0,0,0,0.335919,29.4679,30.1413
-0.02,0.242126,0.0354922,0.38,0.38,0.0516935,0.251517,-0.301589,0.702519,1.78865,0.698969,0.659813,-0.252791,0.110387,0,0,0,0,0,0,0,0,0,0,0,0,0,0,0,0,0,0,0,0,0,0,0,0,0,0,0,0,0.335919,29.4679,30.1413
-0.0225,0.272392,0.0399288,0.4275,0.4275,0.0581552,0.282956,-0.276769,0.726967,1.81948,0.703446,0.67401,-0.218744,0.0549919,0,0,0,0,0,0,0,0,0,0,0,0,0,0,0,0,0,0,0,0,0,0,0,0,0,0,0,0,0.335919,29.4679,30.1413
-0.025,0.302657,0.0443653,0.475,0.475,0.0646169,0.314396,-0.249667,0.750028,1.85001,0.703112,0.686785,-0.18428,-0.000645609,0,0,0,0,0,0,0,0,0,0,0,0,0,0,0,0,0,0,0,0,0,0,0,0,0,0,0,0,0.335919,29.4679,30.1413
-0.025,0.307298,0.0331129,0.475,0.475,0.0546594,0.310873,-0.247779,0.754267,1.83859,0.704062,0.683144,-0.193937,-0.000508451,0,0,0,0,0,0,0,0,0,0,0,0,0,0,0,0,0,0,0,0,0,0,0,0,0,0,0,0,0.335919,29.4679,30.1413
-0.025,0.311938,0.0218604,0.475,0.475,0.044702,0.30735,-0.245748,0.758432,1.82718,0.704933,0.67943,-0.203576,-0.000377901,0,0,0,0,0,0,0,0,0,0,0,0,0,0,0,0,0,0,0,0,0,0,0,0,0,0,0,0,0.335919,29.4679,30.1413
-0.025,0.316578,0.010608,0.475,0.475,0.0347446,0.303827,-0.243577,0.76252,1.81579,0.705726,0.675646,-0.213197,-0.000253835,0,0,0,0,0,0,0,0,0,0,0,0,0,0,0,0,0,0,0,0,0,0,0,0,0,0,0,0,0.335919,29.4679,30.1413
-0.025,0.321218,-0.000644418,0.475,0.475,0.0247871,0.300304,-0.241267,0.766531,1.80441,0.70644,0.671791,-0.222797,-0.000136128,0,0,0,0,0,0,0,0,0,0,0,0,0,0,0,0,0,0,0,0,0,0,0,0,0,0,0,0,0.335919,29.4679,30.1413
-0.025,0.325859,-0.0118968,0.475,0.475,0.0148297,0.296781,-0.238821,0.770463,1.79305,0.707076,0.667866,-0.232376,-2.4656e-05,0,0,0,0,0,0,0,0,0,0,0,0,0,0,0,0,0,0,0,0,0,0,0,0,0,0,0,0,0.335919,29.4679,30.1413
-0.025,0.330499,-0.0231493,0.475,0.475,0.00487229,0.293258,-0.236239,0.774315,1.78171,0.707633,0.663871,-0.241933,8.07087e-05,0,0,0,0,0,0,0,0,0,0,0,0,0,0,0,0,0,0,0,0,0,0,0,0,0,0,0,0,0.335919,29.4679,30.1413
-0.025,0.335139,-0.0344017,0.475,0.475,-0.00508514,0.289735,-0.233524,0.778084,1.7704,0.70811,0.659806,-0.251466,0.000180092,0,0,0,0,0,0,0,0,0,0,0,0,0,0,0,0,0,0,0,0,0,0,0,0,0,0,0,0,0.335919,29.4679,30.1413
-0.025,0.339779,-0.0456541,0.475,0.475,-0.0150426,0.286212,-0.230677,0.781771,1.75911,0.708509,0.655673,-0.260974,0.000273623,0,0,0,0,0,0,0,0,0,0,0,0,0,0,0,0,0,0,0,0,0,0,0,0,0,0,0,0,0.335919,29.4679,30.1413
-0.025,0.34442,-0.0569065,0.475,0.475,-0.025,0.282689,-0.227702,0.785373,1.74784,0.708829,0.651471,-0.270456,0.000361429,0,0,0,0,0,0,0,0,0,0,0,0,0,0,0,0,0,0,0,0,0,0,0,0,0,0,0,0,0.335919,29.4679,30.1413
-0.025,0.34442,-0.0569065,0.475,0.475,-0.025,0.282689,-0.227702,0.785373,1.74784,0.708829,0.651471,-0.270456,0.000361429,0,0,0,0,0,0,0,0,0,0,0,0,0,0,0,0,0,0,0,0,0,0,0,0,0,0,0,0,0.335919,29.4679,30.1413
-0.025,0.34442,-0.0569065,0.475,0.475,-0.025,0.282689,-0.227702,0.785373,1.74784,0.708829,0.651471,-0.270456,0.000361429,0,0,0,0,0,0,0,0,0,0,0,0,0,0,0,0,0,0,0,0,0,0,0,0,0,0,0,0,0.335919,29.4679,30.1413
-0.025,0.34442,-0.0569065,0.475,0.475,-0.025,0.282689,-0.227702,0.785373,1.74784,0.708829,0.651471,-0.270456,0.000361429,0,0,0,0,0,0,0,0,0,0,0,0,0,0,0,0,0,0,0,0,0,0,0,0,0,0,0,0,0.335919,29.4679,30.1413
-0.025,0.34442,-0.0569065,0.475,0.475,-0.025,0.282689,-0.227702,0.785373,1.74784,0.708829,0.651471,-0.270456,0.000361429,0,0,0,0,0,0,0,0,0,0,0,0,0,0,0,0,0,0,0,0,0,0,0,0,0,0,0,0,0.335919,29.4679,30.1413
-0.025,0.34442,-0.0569065,0.475,0.475,-0.025,0.282689,-0.227702,0.785373,1.74784,0.708829,0.651471,-0.270456,0.000361429,0,0,0,0,0,0,0,0,0,0,0,0,0,0,0,0,0,0,0,0,0,0,0,0,0,0,0,0,0.335919,29.4679,30.1413
-0.025,0.34442,-0.0569065,0.475,0.475,-0.025,0.282689,-0.227702,0.785373,1.74784,0.708829,0.651471,-0.270456,0.000361429,0,0,0,0,0,0,0,0,0,0,0,0,0,0,0,0,0,0,0,0,0,0,0,0,0,0,0,0,0.335919,29.4679,30.1413
-0.025,0.34442,-0.0569065,0.475,0.475,-0.025,0.282689,-0.227702,0.785373,1.74784,0.708829,0.651471,-0.270456,0.000361429,0,0,0,0,0,0,0,0,0,0,0,0,0,0,0,0,0,0,0,0,0,0,0,0,0,0,0,0,0.335919,29.4679,30.1413
-0.025,0.34442,-0.0569065,0.475,0.475,-0.025,0.282689,-0.227702,0.785373,1.74784,0.708829,0.651471,-0.270456,0.000361429,0,0,0,0,0,0,0,0,0,0,0,0,0,0,0,0,0,0,0,0,0,0,0,0,0,0,0,0,0.335919,29.4679,30.1413
-0.025,0.34442,-0.0569065,0.475,0.475,-0.025,0.282689,-0.227702,0.785373,1.74784,0.708829,0.651471,-0.270456,0.000361429,0,0,0,0,0,0,0,0,0,0,0,0,0,0,0,0,0,0,0,0,0,0,0,0,0,0,0,0,0.335919,29.4679,30.1413
-0.025,0.34442,-0.0569065,0.475,0.475,-0.025,0.282689,-0.227702,0.785373,1.74784,0.708829,0.651471,-0.270456,0.000361429,0,0,0,0,0,0,0,0,0,0,0,0,0,0,0,0,0,0,0,0,0,0,0,0,0,0,0,0,0.335919,29.4679,30.1413

1.53612e-21,3.65947e-21,4.81708e-22,2.31675e-21,2.64905e-21,2.29663e-21,3.76421e-21,-0.408996,0.478457,1.5421,0.500463,0.500298,-0.499138,0.500099,0,0,0,0,0,0,0,0,0,0,0,0,0,0,0,0,0,0,0,0,0,0,0,0,0,0,0,0,0.894649,25.0001,26.688
0.0261911,0.0640157,0.0065305,0.0430344,0.0444641,0.0402117,0.0651896,-0.40938,0.526727,1.56501,0.547199,0.529948,-0.453536,0.462637,0,0,0,0,0,0,0,0,0,0,0,0,0,0,0,0,0,0,0,0,0,0,0,0,0,0,0,0,0.894649,25.0001,26.688
0.0523822,0.128031,0.013061,0.0860689,0.0889282,0.0804234,0.130379,-0.408437,0.575117,1.58988,0.588508,0.558359,-0.406106,0.42068,0,0,0,0,0,0,0,0,0,0,0,0,0,0,0,0,0,0,0,0,0,0,0,0,0,0,0,0,0.894649,25.0001,26.688
0.0785733,0.192047,0.0195915,0.129103,0.133392,0.120635,0.195569,-0.405926,0.623502,1.61678,0.623947,0.585397,-0.357066,0.374839,0,0,0,0,0,0,0,0,0,0,0,0,0,0,0,0,0,0,0,0,0,0,0,0,0,0,0,0,0.894649,25.0001,26.688
0.104764,0.256063,0.026122,0.172138,0.177856,0.160847,0.260758,-0.401597,0.671718,1.64575,0.653145,0.61094,-0.306641,0.325769,0,0,0,0,0,0,0,0,0,0,0,0,0,0,0,0,0,0,0,0,0,0,0,0,0,0,0,0,0.894649,25.0001,26.688
0.130956,0.320079,0.0326525,0.215172,0.22232,0.201058,0.325948,-0.395205,0.719565,1.67679,0.675804,0.634875,-0.255066,0.274161,0,0,0,0,0,0,0,0,0,0,0,0,0,0,0,0,0,0,0,0,0,0,0,0,0,0,0,0,0.894649,25.0001,26.688
0.157147,0.384094,0.039183,0.258207,0.266784,0.24127,0.391137,-0.386516,0.7668,1.70985,0.691705,0.6571,-0.202583,0.220733,0,0,0,0,0,0,0,0,0,0,0,0,0,0,0,0,0,0,0,0,0,0,0,0,0,0,0,0,0.894649,25.0001,26.688
0.183338,0.44811,0.0457135,0.301241,0.311249,0.281482,0.456327,-0.375319,0.813148,1.74487,0.70071,0.677527,-0.149436,0.166224,0,0,0,0,0,0,0,0,0,0,0,0,0,0,0,0,0,0,0,0,0,0,0,0,0,0,0,0,0.894649,25.0001,26.688
0.209529,0.512126,0.052244,0.344275,0.355713,0.321693,0.521517,-0.361432,0.858296,1.78172,0.702764,0.696079,-0.0958769,0.11138,0,0,0,0,0,0,0,0,0,0,0,0,0,0,0,0,0,0,0,0,0,0,0,0,0,0,0,0,0.894649,25.0001,26.688
0.23572,0.576142,0.0587745,0.38731,0.400177,0.361905,0.586706,-0.34471,0.901907,1.82024,0.697892,0.71269,-0.0421573,0.056946,0,0,0,0,0,0,0,0,0,0,0,0,0,0,0,0,0,0,0,0,0,0,0,0,0,0,0,0,0.894649,25.0001,26.688
0.261911,0.640157,0.065305,0.430344,0.444641,0.402117,0.651896,-0.325057,0.943618,1.86023,0.686204,0.72731,0.0114688,0.00366102,0,0,0,0,0,0,0,0,0,0,0,0,0,0,0,0,0,0,0,0,0,0,0,0,0,0,0,0,0.894649,25.0001,26.688
0.267532,0.644798,0.0520607,0.435419,0.485514,0.392159,0.610409,-0.32404,0.945759,1.85299,0.682226,0.731123,0.00368522,0.00353201,0,0,0,0,0,0,0,0,0,0,0,0,0,0,0,0,0,0,0,0,0,0,0,0,0,0,0,0,0.894649,25.0001,26.688
0.273153,0.649438,0.0388163,0.440493,0.526387,0.382202,0.568923,-0.322878,0.947805,1.84535,0.678475,0.734604,-0.00418276,0.00321657,0,0,0,0,0,0,0,0,0,0,0,0,0,0,0,0,0,0,0,0,0,0,0,0,0,0,0,0,0.894649,25.0001,26.688
0.278774,0.654078,0.025572,0.445567,0.567261,0.372245,0.527437,-0.321582,0.949763,1.83732,0.674957,0.737752,-0.0121193,0.00272918,0,0,0,0,0,0,0,0,0,0,0,0,0,0,0,0,0,0,0,0,0,0,0,0,0,0,0,0,0.894649,25.0001,26.688
0.284395,0.658718,0.0123277,0.450642,0.608134,0.362287,0.48595,-0.320165,0.951638,1.82889,0.671679,0.740566,-0.0201086,0.00208461,0,0,0,0,0,0,0,0,0,0,0,0,0,0,0,0,0,0,0,0,0,0,0,0,0,0,0,0,0.894649,25.0001,26.688
0.290016,0.663359,-0.000916677,0.455716,0.649007,0.35233,0.444464,-0.318639,0.953434,1.82007,0.668647,0.743047,-0.0281348,0.00129785,0,0,0,0,0,0,0,0,0,0,0,0,0,0,0,0,0,0,0,0,0,0,0,0,0,0,0,0,0.894649,25.0001,26.688
0.295637,0.667999,-0.014161,0.46079,0.68988,0.342372,0.402978,-0.317015,0.955156,1.81086,0.665865,0.745195,-0.0361824,0.000384106,0,0,0,0,0,0,0,0,0,0,0,0,0,0,0,0,0,0,0,0,0,0,0,0,0,0,0,0,0.894649,25.0001,26.688
0.301258,0.672639,-0.0274053,0.465865,0.730754,0.332415,0.361491,-0.315306,0.956809,1.80125,0.663337,0.747012,-0.0442357,-0.000641271,0,0,0,0,0,0,0,0,0,0,0,0,0,0,0,0,0,0,0,0,0,0,0,0,0,0,0,0,0.894649,25.0001,26.688
0.306879,0.677279,-0.0406497,0.470939,0.771627,0.322457,0.320005,-0.313524,0.958399,1.79126,0.661068,0.7485,-0.0522794,-0.0017628,0,0,0,0,0,0,0,0,0,0,0,0,0,0,0,0,0,0,0,0,0,0,0,0,0,0,0,0,0.894649,25.0001,26.688
0.3125,0.68192,-0.053894,0.476013,0.8125,0.3125,0.278518,-0.31168,0.95993,1.78088,0.65906,0.749663,-0.0602984,-0.0029649,0,0,0,0,0,0,0,0,0,0,0,0,0,0,0,0,0,0,0,0,0,0,0,0,0,0,0,0,0.894649,25.0001,26.688
0.3125,0.68192,-0.053894,0.476013,0.8125,0.3125,0.278518,-0.31168,0.95993,1.78088,0.65906,0.749663,-0.0602984,-0.0029649,0,0,0,0,0,0,0,0,0,0,0,0,0,0,0,0,0,0,0,0,0,0,0,0,0,0,0,0,0.894649,25.0001,26.688
0.3125,0.68192,-0.053894,0.476013,0.8125,0.3125,0.278518,-0.31168,0.95993,1.78088,0.65906,0.749663,-0.0602984,-0.0029649,0,0,0,0,0,0,0,0,0,0,0,0,0,0,0,0,0,0,0,0,0,0,0,0,0,0,0,0,0.894649,25.0001,26.688
0.3125,0.68192,-0.053894,0.476013,0.8125,0.3125,0.278518,-0.31168,0.95993,1.78088,0.65906,0.749663,-0.0602984,-0.0029649,0,0,0,0,0,0,0,0,0,0,0,0,0,0,0,0,0,0,0,0,0,0,0,0,0,0,0,0,0.894649,25.0001,26.688
0.3125,0.68192,-0.053894,0.476013,0.8125,0.3125,0.278518,-0.31168,0.95993,1.78088,0.65906,0.749663,-0.0602984,-0.0029649,0,0,0,0,0,0,0,0,0,0,0,0,0,0,0,0,0,0,0,0,0,0,0,0,0,0,0,0,0.894649,25.0001,26.688
0.3125,0.68192,-0.053894,0.476013,0.8125,0.3125,0.278518,-0.31168,0.95993,1.78088,0.65906,0.749663,-0.0602984,-0.0029649,0,0,0,0,0,0,0,0,0,0,0,0,0,0,0,0,0,0,0,0,0,0,0,0,0,0,0,0,0.894649,25.0001,26.688
0.3125,0.68192,-0.053894,0.476013,0.8125,0.3125,0.278518,-0.31168,0.95993,1.78088,0.65906,0.749663,-0.0602984,-0.0029649,0,0,0,0,0,0,0,0,0,0,0,0,0,0,0,0,0,0,0,0,0,0,0,0,0,0,0,0,0.894649,25.0001,26.688
0.3125,0.68192,-0.053894,0.476013,0.8125,0.3125,0.278518,-0.31168,0.95993,1.78088,0.65906,0.749663,-0.0602984,-0.0029649,0,0,0,0,0,0,0,0,0,0,0,0,0,0,0,0,0,0,0,0,0,0,0,0,0,0,0,0,0.894649,25.0001,26.688
0.3125,0.68192,-0.053894,0.476013,0.8125,0.3125,0.278518,-0.31168,0.95993,1.78088,0.65906,0.749663,-0.0602984,-0.0029649,0,0,0,0,0,0,0,0,0,0,0,0,0,0,0,0,0,0,0,0,0,0,0,0,0,0,0,0,0.894649,25.0001,26.688
0.3125,0.68192,-0.053894,0.476013,0.8125,0.3125,0.278518,-0.31168,0.95993,1.78088,0.65906,0.749663,-0.0602984,-0.0029649,0,0,0,0,0,0,0,0,0,0,0,0,0,0,0,0,0,0,0,0,0,0,0,0,0,0,0,0,0.894649,25.0001,26.688
0.3125,0.68192,-0.053894,0.476013,0.8125,0.3125,0.278518,-0.31168,0.95993,1.78088,0.65906,0.749663,-0.0602984,-0.0029649,0,0,0,0,0,0,0,0,0,0,0,0,0,0,0,0,0,0,0,0,0,0,0,0,0,0,0,0,0.894649,25.0001,26.688

1.9757e-21,6.56705e-21,-1.21116e-21,5.39562e-21,-3.09968e-22,4.54003e-21,5.28656e-21,-0.408996,0.478457,1.5421,0.500463,0.500298,-0.499138,0.500099,0,0,0,0,0,0,0,0,0,0,0,0,0,0,0,0,0,0,0,0,0,0,0,0,0,0,0,0,2.03802,20.8987,21.9706
0.0331766,0.114641,-0.0223579,0.0936594,-0.00616092,0.0805026,0.0933563,-0.419032,0.571758,1.55128,0.557838,0.519376,-0.450637,0.46475,0,0,0,0,0,0,0,0,0,0,0,0,0,0,0,0,0,0,0,0,0,0,0,0,0,0,0,0,2.03802,20.8987,21.9706
0.0663532,0.229281,-0.0447158,0.187319,-0.0123218,0.161005,0.186713,-0.422423,0.667527,1.5643,0.609268,0.538297,-0.400827,0.422336,0,0,0,0,0,0,0,0,0,0,0,0,0,0,0,0,0,0,0,0,0,0,0,0,0,0,0,0,2.03802,20.8987,21.9706
0.0995298,0.343922,-0.0670737,0.280978,-0.0184828,0.241508,0.280069,-0.418506,0.764926,1.58122,0.653847,0.556946,-0.34995,0.373938,0,0,0,0,0,0,0,0,0,0,0,0,0,0,0,0,0,0,0,0,0,0,0,0,0,0,0,0,2.03802,20.8987,21.9706
0.132706,0.458563,-0.0894316,0.374638,-0.0246437,0.322011,0.373425,-0.406709,0.862969,1.60205,0.690862,0.575214,-0.298255,0.320754,0,0,0,0,0,0,0,0,0,0,0,0,0,0,0,0,0,0,0,0,0,0,0,0,0,0,0,0,2.03802,20.8987,21.9706
0.165883,0.573204,-0.11179,0.468297,-0.0308046,0.402513,0.466782,-0.386583,0.960532,1.62673,0.719801,0.592993,-0.245996,0.264069,0,0,0,0,0,0,0,0,0,0,0,0,0,0,0,0,0,0,0,0,0,0,0,0,0,0,0,0,2.03802,20.8987,21.9706
0.19906,0.687844,-0.134147,0.561957,-0.0369655,0.483016,0.560138,-0.35784,1.05637,1.65513,0.740371,0.610181,-0.193431,0.205218,0,0,0,0,0,0,0,0,0,0,0,0,0,0,0,0,0,0,0,0,0,0,0,0,0,0,0,0,2.03802,20.8987,21.9706
0.232236,0.802485,-0.156505,0.655616,-0.0431265,0.563518,0.653494,-0.320379,1.14916,1.68704,0.752497,0.626684,-0.140821,0.145549,0,0,0,0,0,0,0,0,0,0,0,0,0,0,0,0,0,0,0,0,0,0,0,0,0,0,0,0,2.03802,20.8987,21.9706
0.265413,0.917126,-0.178863,0.749275,-0.0492874,0.644021,0.74685,-0.274312,1.23749,1.7222,0.756324,0.642411,-0.0884282,0.0863921,0,0,0,0,0,0,0,0,0,0,0,0,0,0,0,0,0,0,0,0,0,0,0,0,0,0,0,0,2.03802,20.8987,21.9706
0.298589,1.03177,-0.201221,0.842935,-0.0554483,0.724524,0.840207,-0.219984,1.31998,1.76026,0.752203,0.657278,-0.0365137,0.0290208,0,0,0,0,0,0,0,0,0,0,0,0,0,0,0,0,0,0,0,0,0,0,0,0,0,0,0,0,2.03802,20.8987,21.9706
0.331766,1.14641,-0.223579,0.936594,-0.0616092,0.805026,0.933563,-0.157977,1.39524,1.80082,0.740687,0.67121,0.0146619,-0.0253795,0,0,0,0,0,0,0,0,0,0,0,0,0,0,0,0,0,0,0,0,0,0,0,0,0,0,0,0,2.03802,20.8987,21.9706
0.340791,1.15105,-0.229014,0.924038,-0.020736,0.804373,0.91703,-0.164006,1.39594,1.79298,0.735202,0.677258,0.0163253,-0.0230803,0,0,0,0,0,0,0,0,0,0,0,0,0,0,0,0,0,0,0,0,0,0,0,0,0,0,0,0,2.03802,20.8987,21.9706
0.349817,1.15569,-0.234449,0.911481,0.0201373,0.803721,0.900498,-0.169834,1.39638,1.78509,0.729657,0.683258,0.0179173,-0.0209004,0,0,0,0,0,0,0,0,0,0,0,0,0,0,0,0,0,0,0,0,0,0,0,0,0,0,0,0,2.03802,20.8987,21.9706
0.358842,1.16033,-0.239884,0.898925,0.0610105,0.803068,0.883965,-0.175456,1.39657,1.77716,0.724056,0.68921,0.0194385,-0.0188408,0,0,0,0,0,0,0,0,0,0,0,0,0,0,0,0,0,0,0,0,0,0,0,0,0,0,0,0,2.03802,20.8987,21.9706
0.367867,1.16497,-0.245319,0.886368,0.101884,0.802415,0.867432,-0.180873,1.3965,1.76918,0.718401,0.69511,0.0208893,-0.0169028,0,0,0,0,0,0,0,0,0,0,0,0,0,0,0,0,0,0,0,0,0,0,0,0,0,0,0,0,2.03802,20.8987,21.9706
0.376893,1.16961,-0.250754,0.873812,0.142757,0.801762,0.850899,-0.186081,1.39618,1.76116,0.712694,0.700959,0.0222705,-0.0150874,0,0,0,0,0,0,0,0,0,0,0,0,0,0,0,0,0,0,0,0,0,0,0,0,0,0,0,0,2.03802,20.8987,21.9706
0.385918,1.17425,-0.256189,0.861255,0.18363,0.801109,0.834367,-0.191079,1.39562,1.7531,0.706939,0.706754,0.0235825,-0.0133955,0,0,0,0,0,0,0,0,0,0,0,0,0,0,0,0,0,0,0,0,0,0,0,0,0,0,0,0,2.03802,20.8987,21.9706
0.394943,1.17889,-0.261624,0.848698,0.224504,0.800456,0.817834,-0.195865,1.39482,1.74499,0.701139,0.712494,0.0248261,-0.0118281,0,0,0,0,0,0,0,0,0,0,0,0,0,0,0,0,0,0,0,0,0,0,0,0,0,0,0,0,2.03802,20.8987,21.9706
0.403969,1.18353,-0.26706,0.836142,0.265377,0.799803,0.801301,-0.200439,1.39378,1.73684,0.695295,0.718179,0.0260017,-0.010386,0,0,0,0,0,0,0,0,0,0,0,0,0,0,0,0,0,0,0,0,0,0,0,0,0,0,0,0,2.03802,20.8987,21.9706
0.412994,1.18817,-0.272495,0.823585,0.30625,0.79915,0.784768,-0.204798,1.39251,1.72865,0.689411,0.723806,0.0271102,-0.0090701,0,0,0,0,0,0,0,0,0,0,0,0,0,0,0,0,0,0,0,0,0,0,0,0,0,0,0,0,2.03802,20.8987,21.9706
0.412994,1.18817,-0.272495,0.823585,0.30625,0.79915,0.784768,-0.204798,1.39251,1.72865,0.689411,0.723806,0.0271102,-0.0090701,0,0,0,0,0,0,0,0,0,0,0,0,0,0,0,0,0,0,0,0,0,0,0,0,0,0,0,0,2.03802,20.8987,21.9706
0.412994,1.18817,-0.272495,0.823585,0.30625,0.79915,0.784768,-0.204798,1.39251,1.72865,0.689411,0.723806,0.0271102,-0.0090701,0,0,0,0,0,0,0,0,0,0,0,0,0,0,0,0,0,0,0,0,0,0,0,0,0,0,0,0,2.03802,20.8987,21.9706
0.412994,1.18817,-0.272495,0.823585,0.30625,0.79915,0.784768,-0.204798,1.39251,1.72865,0.689411,0.723806,0.0271102,-0.0090701,0,0,0,0,0,0,0,0,0,0,0,0,0,0,0,0,0,0,0,0,0,0,0,0,0,0,0,0,2.03802,20.8987,21.9706
0.412994,1.18817,-0.272495,0.823585,0.30625,0.79915,0.784768,-0.204798,1.39251,1.72865,0.689411,0.723806,0.0271102,-0.0090701,0,0,0,0,0,0,0,0,0,0,0,0,0,0,0,0,0,0,0,0,0,0,0,0,0,0,0,0,2.03802,20.8987,21.9706
0.412994,1.18817,-0.272495,0.823585,0.30625,0.79915,0.784768,-0.204798,1.39251,1.72865,0.689411,0.723806,0.0271102,-0.0090701,0,0,0,0,0,0,0,0,0,0,0,0,0,0,0,0,0,0,0,0,0,0,0,0,0,0,0,0,2.03802,20.8987,21.9706
0.412994,1.18817,-0.272495,0.823585,0.30625,0.79915,0.784768,-0.204798,1.39251,1.72865,0.689411,0.723806,0.0271102,-0.0090701,0,0,0,0,0,0,0,0,0,0,0,0,0,0,0,0,0,0,0,0,0,0,0,0,0,0,0,0,2.03802,20.8987,21.9706
0.412994,1.18817,-0.272495,0.823585,0.30625,0.79915,0.784768,-0.204798,1.39251,1.72865,0.689411,0.723806,0.0271102,-0.0090701,0,0,0,0,0,0,0,0,0,0,0,0,0,0,0,0,0,0,0,0,0,0,0,0,0,0,0,0,2.03802,20.8987,21.9706
0.412994,1.18817,-0.272495,0.823585,0.30625,0.79915,0.784768,-0.204798,1.39251,1.72865,0.689411,0.723806,0.0271102,-0.0090701,0,0,0,0,0,0,0,0,0,0,0,0,0,0,0,0,0,0,0,0,0,0,0,0,0,0,0,0,2.03802,20.8987,21.9706
0.412994,1.18817,-0.272495,0.823585,0.30625,0.79915,0.784768,-0.204798,1.39251,1.72865,0.689411,0.723806,0.0271102,-0.0090701,0,0,0,0,0,0,0,0,0,0,0,0,0,0,0,0,0,0,0,0,0,0,0,0,0,0,0,0,2.03802,20.8987,21.9706
0.412994,1.18817,-0.272495,0.823585,0.30625,0.79915,0.784768,-0.204798,1.39251,1.72865,0.689411,0.723806,0.0271102,-0.0090701,0,0,0,0,0,0,0,0,0,0,0,0,0,0,0,0,0,0,0,0,0,0,0,0,0,0,0,0,2.03802,20.8987,21.9706

6.30368e-21,1.09841e-20,7.21496e-22,1.04663e-21,-4.66536e-21,5.26137e-21,9.69555e-21,-0.408996,0.478457,1.5421,0.500463,0.500298,-0.499138,0.500099,0,0,0,0,0,0,0,0,0,0,0,0,0,0,0,0,0,0,0,0,0,0,0,0,0,0,0,0,4.72225,15.6902,16.0916
0.109114,0.190578,0.014106,0.0177219,-0.0820984,0.091637,0.167854,-0.402049,0.608383,1.53639,0.551922,0.506335,-0.457176,0.47958,0,0,0,0,0,0,0,0,0,0,0,0,0,0,0,0,0,0,0,0,0,0,0,0,0,0,0,0,4.72225,15.6902,16.0916
0.218228,0.381156,0.0282121,0.0354439,-0.164197,0.183274,0.335707,-0.392406,0.735656,1.52915,0.606071,0.5067,-0.414607,0.451701,0,0,0,0,0,0,0,0,0,0,0,0,0,0,0,0,0,0,0,0,0,0,0,0,0,0,0,0,4.72225,15.6902,16.0916
0.327342,0.571735,0.0423181,0.0531658,-0.246295,0.274911,0.503561,-0.380156,0.858477,1.52076,0.661593,0.501437,-0.372012,0.415288,0,0,0,0,0,0,0,0,0,0,0,0,0,0,0,0,0,0,0,0,0,0,0,0,0,0,0,0,4.72225,15.6902,16.0916
0.436456,0.762313,0.0564242,0.0708877,-0.328394,0.366548,0.671415,-0.365518,0.975107,1.51162,0.716877,0.490649,-0.329961,0.369427,0,0,0,0,0,0,0,0,0,0,0,0,0,0,0,0,0,0,0,0,0,0,0,0,0,0,0,0,4.72225,15.6902,16.0916
0.54557,0.952891,0.0705302,0.0886097,-0.410492,0.458185,0.839268,-0.348827,1.08392,1.50216,0.770073,0.474507,-0.289009,0.313536,0,0,0,0,0,0,0,0,0,0,0,0,0,0,0,0,0,0,0,0,0,0,0,0,0,0,0,0,4.72225,15.6902,16.0916
0.654685,1.14347,0.0846363,0.106332,-0.492591,0.549822,1.00712,-0.330524,1.18342,1.49281,0.819161,0.453236,-0.249682,0.247408,0,0,0,0,0,0,0,0,0,0,0,0,0,0,0,0,0,0,0,0,0,0,0,0,0,0,0,0,4.72225,15.6902,16.0916
0.763799,1.33405,0.0987423,0.124054,-0.574689,0.641459,1.17498,-0.311138,1.27232,1.48402,0.862028,0.427121,-0.212478,0.171255,0,0,0,0,0,0,0,0,0,0,0,0,0,0,0,0,0,0,0,0,0,0,0,0,0,0,0,0,4.72225,15.6902,16.0916
0.872913,1.52463,0.112848,0.141775,-0.656787,0.733096,1.34283,-0.291254,1.34954,1.47621,0.896554,0.396496,-0.177857,0.0857284,0,0,0,0,0,0,0,0,0,0,0,0,0,0,0,0,0,0,0,0,0,0,0,0,0,0,0,0,4.72225,15.6902,16.0916
0.982027,1.7152,0.126954,0.159497,-0.738886,0.824733,1.51068,-0.271489,1.41426,1.46982,0.920703,0.361741,-0.146234,-0.00808163,0,0,0,0,0,0,0,0,0,0,0,0,0,0,0,0,0,0,0,0,0,0,0,0,0,0,0,0,4.72225,15.6902,16.0916
1.09114,1.90578,0.14106,0.177219,-0.820984,0.91637,1.67854,-0.25245,1.4659,1.46523,0.932613,0.323277,-0.117982,-0.108656,0,0,0,0,0,0,0,0,0,0,0,0,0,0,0,0,0,0,0,0,0,0,0,0,0,0,0,0,4.72225,15.6902,16.0916
1.09773,1.91042,0.147704,0.164663,-0.780111,0.901173,1.65637,-0.255595,1.4697,1.47362,0.928594,0.337581,-0.113911,-0.103812,0,0,0,0,0,0,0,0,0,0,0,0,0,0,0,0,0,0,0,0,0,0,0,0,0,0,0,0,4.72225,15.6902,16.0916
1.10432,1.91506,0.154348,0.152106,-0.739238,0.885976,1.63421,-0.258472,1.47312,1.48222,0.924259,0.35179,-0.110135,-0.0992934,0,0,0,0,0,0,0,0,0,0,0,0,0,0,0,0,0,0,0,0,0,0,0,0,0,0,0,0,4.72225,15.6902,16.0916
1.11091,1.9197,0.160992,0.13955,-0.698364,0.870779,1.61205,-0.261073,1.47615,1.49101,0.919623,0.365887,-0.106648,-0.0951086,0,0,0,0,0,0,0,0,0,0,0,0,0,0,0,0,0,0,0,0,0,0,0,0,0,0,0,0,4.72225,15.6902,16.0916
1.1175,1.92434,0.167636,0.126993,-0.657491,0.855582,1.58988,-0.263392,1.47879,1.49997,0.9147,0.37986,-0.103448,-0.0912639,0,0,0,0,0,0,0,0,0,0,0,0,0,0,0,0,0,0,0,0,0,0,0,0,0,0,0,0,4.72225,15.6902,16.0916
1.12409,1.92898,0.17428,0.114437,-0.616618,0.840386,1.56772,-0.26542,1.48104,1.50907,0.909503,0.393694,-0.100529,-0.0877651,0,0,0,0,0,0,0,0,0,0,0,0,0,0,0,0,0,0,0,0,0,0,0,0,0,0,0,0,4.72225,15.6902,16.0916
1.13068,1.93362,0.180924,0.10188,-0.575745,0.825189,1.54555,-0.267152,1.48288,1.51829,0.904048,0.407377,-0.0978864,-0.0846175,0,0,0,0,0,0,0,0,0,0,0,0,0,0,0,0,0,0,0,0,0,0,0,0,0,0,0,0,4.72225,15.6902,16.0916
1.13727,1.93826,0.187568,0.0893234,-0.534871,0.809992,1.52339,-0.268582,1.48433,1.52762,0.898348,0.420894,-0.0955145,-0.081826,0,0,0,0,0,0,0,0,0,0,0,0,0,0,0,0,0,0,0,0,0,0,0,0,0,0,0,0,4.72225,15.6902,16.0916
1.14387,1.9429,0.194212,0.0767668,-0.493998,0.794795,1.50123,-0.269706,1.48537,1.53702,0.892419,0.434234,-0.0934073,-0.0793947,0,0,0,0,0,0,0,0,0,0,0,0,0,0,0,0,0,0,0,0,0,0,0,0,0,0,0,0,4.72225,15.6902,16.0916
1.15046,1.94754,0.200856,0.0642103,-0.453125,0.779598,1.47906,-0.270519,1.486,1.54648,0.886276,0.447383,-0.0915587,-0.0773272,0,0,0,0,0,0,0,0,0,0,0,0,0,0,0,0,0,0,0,0,0,0,0,0,0,0,0,0,4.72225,15.6902,16.0916
1.15046,1.94754,0.200856,0.0642103,-0.453125,0.779598,1.47906,-0.270519,1.486,1.54648,0.886276,0.447383,-0.0915587,-0.0773272,0,0,0,0,0,0,0,0,0,0,0,0,0,0,0,0,0,0,0,0,0,0,0,0,0,0,0,0,4.72225,15.6902,16.0916
1.15046,1.94754,0.200856,0.0642103,-0.453125,0.779598,1.47906,-0.270519,1.486,1.54648,0.886276,0.447383,-0.0915587,-0.0773272,0,0,0,0,0,0,0,0,0,0,0,0,0,0,0,0,0,0,0,0,0,0,0,0,0,0,0,0,4.72225,15.6902,16.0916
1.15046,1.94754,0.200856,0.0642103,-0.453125,0.779598,1.47906,-0.270519,1.486,1.54648,0.886276,0.447383,-0.0915587,-0.0773272,0,0,0,0,0,0,0,0,0,0,0,0,0,0,0,0,0,0,0,0,0,0,0,0,0,0,0,0,4.72225,15.6902,16.0916
1.15046,1.94754,0.200856,0.0642103,-0.453125,0.779598,1.47906,-0.270519,1.486,1.54648,0.886276,0.447383,-0.0915587,-0.0773272,0,0,0,0,0,0,0,0,0,0,0,0,0,0,0,0,0,0,0,0,0,0,0,0,0,0,0,0,4.72225,15.6902,16.0916
1.15046,1.94754,0.200856,0.0642103,-0.453125,0.779598,1.47906,-0.270519,1.486,1.54648,0.886276,0.447383,-0.0915587,-0.0773272,0,0,0,0,0,0,0,0,0,0,0,0,0,0,0,0,0,0,0,0,0,0,0,0,0,0,0,0,4.72225,15.6902,16.0916
1.15046,1.94754,0.200856,0.0642103,-0.453125,0.779598,1.47906,-0.270519,1.486,1.54648,0.886276,0.447383,-0.0915587,-0.0773272,0,0,0,0,0,0,0,0,0,0,0,0,0,0,0,0,0,0,0,0,0,0,0,0,0,0,0,0,4.72225,15.6902,16.0916
1.15046,1.94754,0.200856,0.0642103,-0.453125,0.779598,1.47906,-0.270519,1.486,1.54648,0.886276,0.447383,-0.0915587,-0.0773272,0,0,0,0,0,0,0,0,0,0,0,0,0,0,0,0,0,0,0,0,0,0,0,0,0,0,0,0,4.72225,15.6902,16.0916
1.15046,1.94754,0.200856,0.0642103,-0.453125,0.779598,1.47906,-0.270519,1.486,1.54648,0.886276,0.447383,-0.0915587,-0.0773272,0,0,0,0,0,0,0,0,0,0,0,0,0,0,0,0,0,0,0,0,0,0,0,0,0,0,0,0,4.72225,15.6902,16.0916
1.15046,1.94754,0.200856,0.0642103,-0.453125,0.779598,1.47906,-0.270519,1.486,1.54648,0.886276,0.447383,-0.0915587,-0.0773272,0,0,0,0,0,0,0,0,0,0,0,0,0,0,0,0,0,0,0,0,0,0,0,0,0,0,0,0,4.72225,15.6902,16.0916
1.15046,1.94754,0.200856,0.0642103,-0.453125,0.779598,1.47906,-0.270519,1.486,1.54648,0.886276,0.447383,-0.0915587,-0.0773272,0,0,0,0,0,0,0,0,0,0,0,0,0,0,0,0,0,0,0,0,0,0,0,0,0,0,0,0,4.72225,15.6902,16.0916

1.05148e-19,1.29294e-19,6.43424e-20,-1.08031e-19,5.3532e-20,1.47015e-20,-1.40778e-20,-0.408996,0.478457,1.5421,0.500463,0.500298,-0.499138,0.500099,0,0,0,0,0,0,0,0,0,0,0,0,0,0,0,0,0,0,0,0,0,0,0,0,0,0,0,0,6.64594,4.79807,6.78307
0.0961942,0.195312,0.000712543,0.0966725,-0.163258,0.163283,0.141704,-0.437117,0.619507,1.54119,0.549191,0.48952,-0.445647,0.510058,0,0,0,0,0,0,0,0,0,0,0,0,0,0,0,0,0,0,0,0,0,0,0,0,0,0,0,0,6.64594,4.79807,6.78307
0.192388,0.390625,0.00142509,0.193345,-0.326515,0.326566,0.283409,-0.451421,0.759517,1.54031,0.60676,0.469259,-0.389561,0.509785,0,0,0,0,0,0,0,0,0,0,0,0,0,0,0,0,0,0,0,0,0,0,0,0,0,0,0,0,6.64594,4.79807,6.78307
0.288583,0.585937,0.00213763,0.290018,-0.489773,0.48985,0.425113,-0.451998,0.894454,1.54078,0.67075,0.439853,-0.331682,0.496599,0,0,0,0,0,0,0,0,0,0,0,0,0,0,0,0,0,0,0,0,0,0,0,0,0,0,0,0,6.64594,4.79807,6.78307
0.384777,0.781249,0.00285017,0.38669,-0.65303,0.653133,0.566818,-0.439834,1.02054,1.54402,0.738058,0.401777,-0.272803,0.468427,0,0,0,0,0,0,0,0,0,0,0,0,0,0,0,0,0,0,0,0,0,0,0,0,0,0,0,0,6.64594,4.79807,6.78307
0.480971,0.976562,0.00356271,0.483363,-0.816288,0.816416,0.708522,-0.416706,1.13453,1.55145,0.805052,0.35564,-0.213699,0.423962,0,0,0,0,0,0,0,0,0,0,0,0,0,0,0,0,0,0,0,0,0,0,0,0,0,0,0,0,6.64594,4.79807,6.78307
0.577165,1.17187,0.00427526,0.580035,-0.979545,0.979699,0.850226,-0.385003,1.23387,1.56441,0.867765,0.302173,-0.155107,0.362792,0,0,0,0,0,0,0,0,0,0,0,0,0,0,0,0,0,0,0,0,0,0,0,0,0,0,0,0,6.64594,4.79807,6.78307
0.673359,1.36719,0.0049878,0.676708,-1.1428,1.14298,0.991931,-0.347489,1.31689,1.58406,0.922113,0.242216,-0.0977155,0.285467,0,0,0,0,0,0,0,0,0,0,0,0,0,0,0,0,0,0,0,0,0,0,0,0,0,0,0,0,6.64594,4.79807,6.78307
0.769554,1.5625,0.00570034,0.77338,-1.30606,1.30627,1.13364,-0.307038,1.38283,1.61131,0.96413,0.176707,-0.0421521,0.193524,0,0,0,0,0,0,0,0,0,0,0,0,0,0,0,0,0,0,0,0,0,0,0,0,0,0,0,0,6.64594,4.79807,6.78307
0.865748,1.75781,0.00641288,0.870053,-1.46932,1.46955,1.27534,-0.266361,1.43184,1.64674,0.990202,0.106661,0.0110272,0.0894506,0,0,0,0,0,0,0,0,0,0,0,0,0,0,0,0,0,0,0,0,0,0,0,0,0,0,0,0,6.64594,4.79807,6.78307
0.961942,1.95312,0.00712543,0.966725,-1.63258,1.63283,1.41704,-0.227757,1.46484,1.69056,0.997291,0.0331556,0.0613463,-0.0234088,0,0,0,0,0,0,0,0,0,0,0,0,0,0,0,0,0,0,0,0,0,0,0,0,0,0,0,0,6.64594,4.79807,6.78307
0.979421,1.97451,0.0204613,0.928619,-1.62809,1.63478,1.44293,-0.226742,1.46364,1.6793,0.99737,0.0236583,0.0566469,-0.0385413,0,0,0,0,0,0,0,0,0,0,0,0,0,0,0,0,0,0,0,0,0,0,0,0,0,0,0,0,6.64594,4.79807,6.78307
0.996901,1.99589,0.0337971,0.890514,-1.6236,1.63673,1.46881,-0.225604,1.46185,1.66802,0.997114,0.0142676,0.0517423,-0.053696,0,0,0,0,0,0,0,0,0,0,0,0,0,0,0,0,0,0,0,0,0,0,0,0,0,0,0,0,6.64594,4.79807,6.78307
1.01438,2.01727,0.047133,0.852408,-1.61911,1.63868,1.49469,-0.224345,1.45947,1.65674,0.996523,0.00498777,0.0466345,-0.0688646,0,0,0,0,0,0,0,0,0,0,0,0,0,0,0,0,0,0,0,0,0,0,0,0,0,0,0,0,6.64594,4.79807,6.78307
1.03186,2.03866,0.0604688,0.814302,-1.61463,1.64062,1.52057,-0.222971,1.4565,1.64546,0.995596,-0.00417669,0.0413258,-0.0840389,0,0,0,0,0,0,0,0,0,0,0,0,0,0,0,0,0,0,0,0,0,0,0,0,0,0,0,0,6.64594,4.79807,6.78307
1.04934,2.06004,0.0738047,0.776196,-1.61014,1.64257,1.54646,-0.221484,1.45294,1.63419,0.994334,-0.0132215,0.0358186,-0.0992107,0,0,0,0,0,0,0,0,0,0,0,0,0,0,0,0,0,0,0,0,0,0,0,0,0,0,0,0,6.64594,4.79807,6.78307
1.06682,2.08142,0.0871405,0.73809,-1.60565,1.64452,1.57234,-0.219889,1.44878,1.62293,0.992735,-0.0221422,0.0301152,-0.114372,0,0,0,0,0,0,0,0,0,0,0,0,0,0,0,0,0,0,0,0,0,0,0,0,0,0,0,0,6.64594,4.79807,6.78307
1.0843,2.10281,0.100476,0.699984,-1.60116,1.64647,1.59822,-0.218191,1.44403,1.61171,0.990799,-0.0309347,0.0242183,-0.129514,0,0,0,0,0,0,0,0,0,0,0,0,0,0,0,0,0,0,0,0,0,0,0,0,0,0,0,0,6.64594,4.79807,6.78307
1.10178,2.12419,0.113812,0.661879,-1.59668,1.64841,1.6241,-0.216394,1.43868,1.60052,0.988527,-0.0395947,0.0181305,-0.144628,0,0,0,0,0,0,0,0,0,0,0,0,0,0,0,0,0,0,0,0,0,0,0,0,0,0,0,0,6.64594,4.79807,6.78307
1.11926,2.14557,0.127148,0.623773,-1.59219,1.65036,1.64998,-0.214502,1.43274,1.58938,0.98592,-0.0481181,0.0118545,-0.159708,0,0,0,0,0,0,0,0,0,0,0,0,0,0,0,0,0,0,0,0,0,0,0,0,0,0,0,0,6.64594,4.79807,6.78307
1.11926,2.14557,0.127148,0.623773,-1.59219,1.65036,1.64998,-0.214502,1.43274,1.58938,0.98592,-0.0481181,0.0118545,-0.159708,0,0,0,0,0,0,0,0,0,0,0,0,0,0,0,0,0,0,0,0,0,0,0,0,0,0,0,0,6.64594,4.79807,6.78307
1.11926,2.14557,0.127148,0.623773,-1.59219,1.65036,1.64998,-0.214502,1.43274,1.58938,0.98592,-0.0481181,0.0118545,-0.159708,0,0,0,0,0,0,0,0,0,0,0,0,0,0,0,0,0,0,0,0,0,0,0,0,0,0,0,0,6.64594,4.79807,6.78307
1.11926,2.14557,0.127148,0.623773,-1.59219,1.65036,1.64998,-0.214502,1.43274,1.58938,0.98592,-0.0481181,0.0118545,-0.159708,0,0,0,0,0,0,0,0,0,0,0,0,0,0,0,0,0,0,0,0,0,0,0,0,0,0,0,0,6.64594,4.79807,6.78307
1.11926,2.14557,0.127148,0.623773,-1.59219,1.65036,1.64998,-0.214502,1.43274,1.58938,0.98592,-0.0481181,0.0118545,-0.159708,0,0,0,0,0,0,0,0,0,0,0,0,0,0,0,0,0,0,0,0,0,0,0,0,0,0,0,0,6.64594,4.79807,6.78307
1.11926,2.14557,0.127148,0.623773,-1.59219,1.65036,1.64998,-0.214502,1.43274,1.58938,0.98592,-0.0481181,0.0118545,-0.159708,0,0,0,0,0,0,0,0,0,0,0,0,0,0,0,0,0,0,0,0,0,0,0,0,0,0,0,0,6.64594,4.79807,6.78307
1.11926,2.14557,0.127148,0.623773,-1.59219,1.65036,1.64998,-0.214502,1.43274,1.58938,0.98592,-0.0481181,0.0118545,-0.159708,0,0,0,0,0,0,0,0,0,0,0,0,0,0,0,0,0,0,0,0,0,0,0,0,0,0,0,0,6.64594,4.79807,6.78307
1.11926,2.14557,0.127148,0.623773,-1.59219,1.65036,1.64998,-0.214502,1.43274,1.58938,0.98592,-0.0481181,0.0118545,-0.159708,0,0,0,0,0,0,0,0,0,0,0,0,0,0,0,0,0,0,0,0,0,0,0,0,0,0,0,0,6.64594,4.79807,6.78307
1.11926,2.14557,0.127148,0.623773,-1.59219,1.65036,1.64998,-0.214502,1.43274,1.58938,0.98592,-0.0481181,0.0118545,-0.159708,0,0,0,0,0,0,0,0,0,0,0,0,0,0,0,0,0,0,0,0,0,0,0,0,0,0,0,0,6.64594,4.79807,6.78307
1.11926,2.14557,0.127148,0.623773,-1.59219,1.65036,1.64998,-0.214502,1.43274,1.58938,0.98592,-0.0481181,0.0118545,-0.159708,0,0,0,0,0,0,0,0,0,0,0,0,0,0,0,0,0,0,0,0,0,0,0,0,0,0,0,0,6.64594,4.79807,6.78307
1.11926,2.14557,0.127148,0.623773,-1.59219,1.65036,1.64998,-0.214502,1.43274,1.58938,0.98592,-0.0481181,0.0118545,-0.159708,0,0,0,0,0,0,0,0,0,0,0,0,0,0,0,0,0,0,0,0,0,0,0,0,0,0,0,0,6.64594,4.79807,6.78307

1.82161e-17,2.16015e-17,2.25504e-17,-3.9744e-17,1.69925e-17,4.62492e-19,-3.34772e-18,-0.408996,0.478457,1.5421,0.500463,0.500298,-0.499138,0.500099,0,0,0,0,0,0,0,0,0,0,0,0,0,0,0,0,0,0,0,0,0,0,0,0,0,0,0,0,7.46741,0.473414,0.386615
0.126599,0.228461,-8.32895e-05,0.0928073,-0.171443,0.157733,0.133544,-0.435864,0.63755,1.53845,0.545053,0.483655,-0.453539,0.513125,0,0,0,0,0,0,0,0,0,0,0,0,0,0,0,0,0,0,0,0,0,0,0,0,0,0,0,0,7.46741,0.473414,0.386615
0.253197,0.456922,-0.000166579,0.185615,-0.342885,0.315466,0.267088,-0.451192,0.79495,1.53377,0.59947,0.457754,-0.405222,0.516615,0,0,0,0,0,0,0,0,0,0,0,0,0,0,0,0,0,0,0,0,0,0,0,0,0,0,0,0,7.46741,0.473414,0.386615
0.379796,0.685383,-0.000249868,0.278422,-0.514328,0.473199,0.400632,-0.454936,0.945688,1.52963,0.661426,0.423039,-0.354852,0.507577,0,0,0,0,0,0,0,0,0,0,0,0,0,0,0,0,0,0,0,0,0,0,0,0,0,0,0,0,7.46741,0.473414,0.386615
0.506394,0.913844,-0.000333158,0.371229,-0.685771,0.630933,0.534177,-0.448011,1.08509,1.52766,0.727867,0.380088,-0.303097,0.483606,0,0,0,0,0,0,0,0,0,0,0,0,0,0,0,0,0,0,0,0,0,0,0,0,0,0,0,0,7.46741,0.473414,0.386615
0.632993,1.14231,-0.000416447,0.464037,-0.857213,0.788666,0.667721,-0.432187,1.20912,1.52956,0.795136,0.32961,-0.250617,0.443066,0,0,0,0,0,0,0,0,0,0,0,0,0,0,0,0,0,0,0,0,0,0,0,0,0,0,0,0,7.46741,0.473414,0.386615
0.759592,1.37077,-0.000499737,0.556844,-1.02866,0.946399,0.801265,-0.409874,1.31458,1.53688,0.859162,0.272429,-0.198044,0.38523,0,0,0,0,0,0,0,0,0,0,0,0,0,0,0,0,0,0,0,0,0,0,0,0,0,0,0,0,7.46741,0.473414,0.386615
0.88619,1.59923,-0.000583026,0.649651,-1.2001,1.10413,0.934809,-0.383861,1.39939,1.551,0.915687,0.209472,-0.145978,0.310369,0,0,0,0,0,0,0,0,0,0,0,0,0,0,0,0,0,0,0,0,0,0,0,0,0,0,0,0,7.46741,0.473414,0.386615
1.01279,1.82769,-0.000666316,0.742459,-1.37154,1.26187,1.06835,-0.356992,1.46258,1.573,0.96051,0.141754,-0.0949706,0.21979,0,0,0,0,0,0,0,0,0,0,0,0,0,0,0,0,0,0,0,0,0,0,0,0,0,0,0,0,7.46741,0.473414,0.386615
1.13939,2.05615,-0.000749605,0.835266,-1.54298,1.4196,1.2019,-0.331852,1.50432,1.60358,0.989731,0.0703582,-0.045518,0.115805,0,0,0,0,0,0,0,0,0,0,0,0,0,0,0,0,0,0,0,0,0,0,0,0,0,0,0,0,7.46741,0.473414,0.386615
1.26599,2.28461,-0.000832895,0.928073,-1.71443,1.57733,1.33544,-0.310474,1.52577,1.643,0.99999,-0.00357966,0.00194526,0.00165696,0,0,0,0,0,0,0,0,0,0,0,0,0,0,0,0,0,0,0,0,0,0,0,0,0,0,0,0,7.46741,0.473414,0.386615
1.25965,2.278,-0.00691466,0.918068,-1.69933,1.57571,1.33629,-0.309081,1.52802,1.63111,0.999992,-0.00357849,0.000997358,0.0013659,0,0,0,0,0,0,0,0,0,0,0,0,0,0,0,0,0,0,0,0,0,0,0,0,0,0,0,0,7.46741,0.473414,0.386615
1.25331,2.27139,-0.0129964,0.908063,-1.68423,1.57408,1.33715,-0.30761,1.53012,1.61919,0.999993,-0.00357622,4.94758e-05,0.00107564,0,0,0,0,0,0,0,0,0,0,0,0,0,0,0,0,0,0,0,0,0,0,0,0,0,0,0,0,7.46741,0.473414,0.386615
1.24697,2.26478,-0.0190782,0.898058,-1.66914,1.57246,1.338,-0.30606,1.53205,1.60724,0.999993,-0.00357286,-0.000898387,0.000786191,0,0,0,0,0,0,0,0,0,0,0,0,0,0,0,0,0,0,0,0,0,0,0,0,0,0,0,0,7.46741,0.473414,0.386615
1.24063,2.25817,-0.02516,0.888052,-1.65404,1.57084,1.33885,-0.304431,1.53383,1.59526,0.999992,-0.0035684,-0.00184623,0.000497549,0,0,0,0,0,0,0,0,0,0,0,0,0,0,0,0,0,0,0,0,0,0,0,0,0,0,0,0,7.46741,0.473414,0.386615
1.23429,2.25156,-0.0312417,0.878047,-1.63894,1.56921,1.3397,-0.302724,1.53544,1.58325,0.99999,-0.00356285,-0.00279404,0.000209717,0,0,0,0,0,0,0,0,0,0,0,0,0,0,0,0,0,0,0,0,0,0,0,0,0,0,0,0,7.46741,0.473414,0.386615
1.22795,2.24495,-0.0373235,0.868042,-1.62385,1.56759,1.34055,-0.300938,1.5369,1.57122,0.999987,-0.0035562,-0.00374183,-7.73063e-05,0,0,0,0,0,0,0,0,0,0,0,0,0,0,0,0,0,0,0,0,0,0,0,0,0,0,0,0,7.46741,0.473414,0.386615
1.22161,2.23834,-0.0434052,0.858037,-1.60875,1.56597,1.34141,-0.299073,1.53819,1.55917,0.999983,-0.00354846,-0.0046896,-0.000363519,0,0,0,0,0,0,0,0,0,0,0,0,0,0,0,0,0,0,0,0,0,0,0,0,0,0,0,0,7.46741,0.473414,0.386615
1.21527,2.23173,-0.049487,0.848031,-1.59365,1.56434,1.34226,-0.297128,1.53932,1.5471,0.999978,-0.00353962,-0.00563733,-0.000648921,0,0,0,0,0,0,0,0,0,0,0,0,0,0,0,0,0,0,0,0,0,0,0,0,0,0,0,0,7.46741,0.473414,0.386615
1.20893,2.22512,-0.0555688,0.838026,-1.57856,1.56272,1.34311,-0.295105,1.5403,1.53502,0.999972,-0.00352968,-0.00658502,-0.000933511,0,0,0,0,0,0,0,0,0,0,0,0,0,0,0,0,0,0,0,0,0,0,0,0,0,0,0,0,7.46741,0.473414,0.386615
1.20893,2.22512,-0.0555688,0.838026,-1.57856,1.56272,1.34311,-0.295105,1.5403,1.53502,0.999972,-0.00352968,-0.00658502,-0.000933511,0,0,0,0,0,0,0,0,0,0,0,0,0,0,0,0,0,0,0,0,0,0,0,0,0,0,0,0,7.46741,0.473414,0.386615
1.20893,2.22512,-0.0555688,0.838026,-1.57856,1.56272,1.34311,-0.295105,1.5403,1.53502,0.999972,-0.00352968,-0.00658502,-0.000933511,0,0,0,0,0,0,0,0,0,0,0,0,0,0,0,0,0,0,0,0,0,0,0,0,0,0,0,0,7.46741,0.473414,0.386615
1.20893,2.22512,-0.0555688,0.838026,-1.57856,1.56272,1.34311,-0.295105,1.5403,1.53502,0.999972,-0.00352968,-0.00658502,-0.000933511,0,0,0,0,0,0,0,0,0,0,0,0,0,0,0,0,0,0,0,0,0,0,0,0,0,0,0,0,7.46741,0.473414,0.386615
1.20893,2.22512,-0.0555688,0.838026,-1.57856,1.56272,1.34311,-0.295105,1.5403,1.53502,0.999972,-0.00352968,-0.00658502,-0.000933511,0,0,0,0,0,0,0,0,0,0,0,0,0,0,0,0,0,0,0,0,0,0,0,0,0,0,0,0,7.46741,0.473414,0.386615
1.20893,2.22512,-0.0555688,0.838026,-1.57856,1.56272,1.34311,-0.295105,1.5403,1.53502,0.999972,-0.00352968,-0.00658502,-0.000933511,0,0,0,0,0,0,0,0,0,0,0,0,0,0,0,0,0,0,0,0,0,0,0,0,0,0,0,0,7.46741,0.473414,0.386615
1.20893,2.22512,-0.0555688,0.838026,-1.57856,1.56272,1.34311,-0.295105,1.5403,1.53502,0.999972,-0.00352968,-0.00658502,-0.000933511,0,0,0,0,0,0,0,0,0,0,0,0,0,0,0,0,0,0,0,0,0,0,0,0,0,0,0,0,7.46741,0.473414,0.386615
1.20893,2.22512,-0.0555688,0.838026,-1.57856,1.56272,1.34311,-0.295105,1.5403,1.53502,0.999972,-0.00352968,-0.00658502,-0.000933511,0,0,0,0,0,0,0,0,0,0,0,0,0,0,0,0,0,0,0,0,0,0,0,0,0,0,0,0,7.46741,0.473414,0.386615
1.20893,2.22512,-0.0555688,0.838026,-1.57856,1.56272,1.34311,-0.295105,1.5403,1.53502,0.999972,-0.00352968,-0.00658502,-0.000933511,0,0,0,0,0,0,0,0,0,0,0,0,0,0,0,0,0,0,0,0,0,0,0,0,0,0,0,0,7.46741,0.473414,0.386615
1.20893,2.22512,-0.0555688,0.838026,-1.57856,1.56272,1.34311,-0.295105,1.5403,1.53502,0.999972,-0.00352968,-0.00658502,-0.000933511,0,0,0,0,0,0,0,0,0,0,0,0,0,0,0,0,0,0,0,0,0,0,0,0,0,0,0,0,7.46741,0.473414,0.386615
1.20893,2.22512,-0.0555688,0.838026,-1.57856,1.56272,1.34311,-0.295105,1.5403,1.53502,0.999972,-0.00352968,-0.00658502,-0.000933511,0,0,0,0,0,0,0,0,0,0,0,0,0,0,0,0,0,0,0,0,0,0,0,0,0,0,0,0,7.46741,0.473414,0.386615

5.96254e-21,1.15882e-20,-1.04027e-21,6.89872e-21,-1.03422e-20,9.05315e-21,8.02934e-21,-0.408996,0.478457,1.5421,0.500463,0.500298,-0.499138,0.500099,0,0,0,0,0,0,0,0,0,0,0,0,0,0,0,0,0,0,0,0,0,0,0,0,0,0,0,0,7.52666,0.18739,0.185519
0.115104,0.215156,-0.0147177,0.118436,-0.182088,0.157054,0.135728,-0.446063,0.631064,1.53716,0.545198,0.484692,-0.452738,0.5127,0,0,0,0,0,0,0,0,0,0,0,0,0,0,0,0,0,0,0,0,0,0,0,0,0,0,0,0,7.52666,0.18739,0.185519
0.230208,0.430313,-0.0294354,0.236873,-0.364176,0.314107,0.271455,-0.46922,0.784135,1.53186,0.599688,0.459707,-0.403742,0.515787,0,0,0,0,0,0,0,0,0,0,0,0,0,0,0,0,0,0,0,0,0,0,0,0,0,0,0,0,7.52666,0.18739,0.185519
0.345312,0.645469,-0.0441531,0.355309,-0.546263,0.471161,0.407183,-0.47814,0.932659,1.52758,0.661653,0.425766,-0.352861,0.506387,0,0,0,0,0,0,0,0,0,0,0,0,0,0,0,0,0,0,0,0,0,0,0,0,0,0,0,0,7.52666,0.18739,0.185519
0.460417,0.860626,-0.0588708,0.473745,-0.728351,0.628215,0.542911,-0.473568,1.07184,1.52578,0.728055,0.383431,-0.300806,0.482112,0,0,0,0,0,0,0,0,0,0,0,0,0,0,0,0,0,0,0,0,0,0,0,0,0,0,0,0,7.52666,0.18739,0.185519
0.575521,1.07578,-0.0735884,0.592181,-0.910439,0.785268,0.678638,-0.457221,1.19744,1.52793,0.795254,0.333398,-0.24827,0.441338,0,0,0,0,0,0,0,0,0,0,0,0,0,0,0,0,0,0,0,0,0,0,0,0,0,0,0,0,7.52666,0.18739,0.185519
0.690625,1.29094,-0.0883061,0.710618,-1.09253,0.942322,0.814366,-0.431594,1.30604,1.53541,0.859198,0.276481,-0.195919,0.383344,0,0,0,0,0,0,0,0,0,0,0,0,0,0,0,0,0,0,0,0,0,0,0,0,0,0,0,0,7.52666,0.18739,0.185519
0.805729,1.50609,-0.103024,0.829054,-1.27461,1.09938,0.950094,-0.39969,1.39522,1.54938,0.915653,0.2136,-0.144375,0.308401,0,0,0,0,0,0,0,0,0,0,0,0,0,0,0,0,0,0,0,0,0,0,0,0,0,0,0,0,7.52666,0.18739,0.185519
0.920833,1.72125,-0.117742,0.94749,-1.4567,1.25643,1.08582,-0.36471,1.46373,1.57073,0.960436,0.145769,-0.0942039,0.217808,0,0,0,0,0,0,0,0,0,0,0,0,0,0,0,0,0,0,0,0,0,0,0,0,0,0,0,0,7.52666,0.18739,0.185519
1.03594,1.93641,-0.132459,1.06593,-1.63879,1.41348,1.22155,-0.329723,1.51141,1.59997,0.989667,0.0740704,-0.0459121,0.113865,0,0,0,0,0,0,0,0,0,0,0,0,0,0,0,0,0,0,0,0,0,0,0,0,0,0,0,0,7.52666,0.18739,0.185519
1.15104,2.15156,-0.147177,1.18436,-1.82088,1.57054,1.35728,-0.297359,1.53916,1.63722,1,-0.000354244,6.74722e-05,-0.000205218,0,0,0,0,0,0,0,0,0,0,0,0,0,0,0,0,0,0,0,0,0,0,0,0,0,0,0,0,7.52666,0.18739,0.185519
1.14251,2.14087,-0.151842,1.17371,-1.8056,1.57056,1.35944,-0.297701,1.5396,1.62641,1,-0.000383782,7.19759e-05,-0.000201941,0,0,0,0,0,0,0,0,0,0,0,0,0,0,0,0,0,0,0,0,0,0,0,0,0,0,0,0,7.52666,0.18739,0.185519
1.13398,2.13017,-0.156507,1.16305,-1.79033,1.57058,1.3616,-0.297992,1.53987,1.61555,1,-0.000413255,7.63842e-05,-0.000198664,0,0,0,0,0,0,0,0,0,0,0,0,0,0,0,0,0,0,0,0,0,0,0,0,0,0,0,0,7.52666,0.18739,0.185519
1.12545,2.11947,-0.161172,1.15239,-1.77506,1.5706,1.36376,-0.298232,1.53997,1.60466,1,-0.00044266,8.06966e-05,-0.000195387,0,0,0,0,0,0,0,0,0,0,0,0,0,0,0,0,0,0,0,0,0,0,0,0,0,0,0,0,7.52666,0.18739,0.185519
1.11692,2.10878,-0.165837,1.14174,-1.75978,1.57063,1.36592,-0.298419,1.53991,1.59374,1,-0.000471999,8.49127e-05,-0.000192111,0,0,0,0,0,0,0,0,0,0,0,0,0,0,0,0,0,0,0,0,0,0,0,0,0,0,0,0,7.52666,0.18739,0.185519
1.10839,2.09808,-0.170502,1.13108,-1.74451,1.57065,1.36808,-0.298553,1.53968,1.58278,1,-0.00050127,8.90322e-05,-0.000188834,0,0,0,0,0,0,0,0,0,0,0,0,0,0,0,0,0,0,0,0,0,0,0,0,0,0,0,0,7.52666,0.18739,0.185519
1.09986,2.08738,-0.175166,1.12042,-1.72924,1.57067,1.37024,-0.298633,1.53928,1.57179,1,-0.000530472,9.30544e-05,-0.000185558,0,0,0,0,0,0,0,0,0,0,0,0,0,0,0,0,0,0,0,0,0,0,0,0,0,0,0,0,7.52666,0.18739,0.185519
1.09133,2.07668,-0.179831,1.10977,-1.71396,1.5707,1.3724,-0.298658,1.53872,1.56077,1,-0.000559606,9.69792e-05,-0.000182281,0,0,0,0,0,0,0,0,0,0,0,0,0,0,0,0,0,0,0,0,0,0,0,0,0,0,0,0,7.52666,0.18739,0.185519
1.0828,2.06599,-0.184496,1.09911,-1.69869,1.57072,1.37456,-0.298628,1.53799,1.54973,1,-0.00058867,0.000100806,-0.000179005,0,0,0,0,0,0,0,0,0,0,0,0,0,0,0,0,0,0,0,0,0,0,0,0,0,0,0,0,7.52666,0.18739,0.185519
1.07427,2.05529,-0.189161,1.08845,-1.68342,1.57074,1.37672,-0.298542,1.5371,1.53866,1,-0.000617664,0.000104534,-0.000175729,0,0,0,0,0,0,0,0,0,0,0,0,0,0,0,0,0,0,0,0,0,0,0,0,0,0,0,0,7.52666,0.18739,0.185519
1.07427,2.05529,-0.189161,1.08845,-1.68342,1.57074,1.37672,-0.298542,1.5371,1.53866,1,-0.000617664,0.000104534,-0.000175729,0,0,0,0,0,0,0,0,0,0,0,0,0,0,0,0,0,0,0,0,0,0,0,0,0,0,0,0,7.52666,0.18739,0.185519
1.07427,2.05529,-0.189161,1.08845,-1.68342,1.57074,1.37672,-0.298542,1.5371,1.53866,1,-0.000617664,0.000104534,-0.000175729,0,0,0,0,0,0,0,0,0,0,0,0,0,0,0,0,0,0,0,0,0,0,0,0,0,0,0,0,7.52666,0.18739,0.185519
1.07427,2.05529,-0.189161,1.08845,-1.68342,1.57074,1.37672,-0.298542,1.5371,1.53866,1,-0.000617664,0.000104534,-0.000175729,0,0,0,0,0,0,0,0,0,0,0,0,0,0,0,0,0,0,0,0,0,0,0,0,0,0,0,0,7.52666,0.18739,0.185519
1.07427,2.05529,-0.189161,1.08845,-1.68342,1.57074,1.37672,-0.298542,1.5371,1.53866,1,-0.000617664,0.000104534,-0.000175729,0,0,0,0,0,0,0,0,0,0,0,0,0,0,0,0,0,0,0,0,0,0,0,0,0,0,0,0,7.52666,0.18739,0.185519
1.07427,2.05529,-0.189161,1.08845,-1.68342,1.57074,1.37672,-0.298542,1.5371,1.53866,1,-0.000617664,0.000104534,-0.000175729,0,0,0,0,0,0,0,0,0,0,0,0,0,0,0,0,0,0,0,0,0,0,0,0,0,0,0,0,7.52666,0.18739,0.185519
1.07427,2.05529,-0.189161,1.08845,-1.68342,1.57074,1.37672,-0.298542,1.5371,1.53866,1,-0.000617664,0.000104534,-0.000175729,0,0,0,0,0,0,0,0,0,0,0,0,0,0,0,0,0,0,0,0,0,0,0,0,0,0,0,0,7.52666,0.18739,0.185519
1.07427,2.05529,-0.189161,1.08845,-1.68342,1.57074,1.37672,-0.298542,1.5371,1.53866,1,-0.000617664,0.000104534,-0.000175729,0,0,0,0,0,0,0,0,0,0,0,0,0,0,0,0,0,0,0,0,0,0,0,0,0,0,0,0,7.52666,0.18739,0.185519
1.07427,2.05529,-0.189161,1.08845,-1.68342,1.57074,1.37672,-0.298542,1.5371,1.53866,1,-0.000617664,0.000104534,-0.000175729,0,0,0,0,0,0,0,0,0,0,0,0,0,0,0,0,0,0,0,0,0,0,0,0,0,0,0,0,7.52666,0.18739,0.185519
1.07427,2.05529,-0.189161,1.08845,-1.68342,1.57074,1.37672,-0.298542,1.5371,1.53866,1,-0.000617664,0.000104534,-0.000175729,0,0,0,0,0,0,0,0,0,0,0,0,0,0,0,0,0,0,0,0,0,0,0,0,0,0,0,0,7.52666,0.18739,0.185519
1.07427,2.05529,-0.189161,1.08845,-1.68342,1.57074,1.37672,-0.298542,1.5371,1.53866,1,-0.000617664,0.000104534,-0.000175729,0,0,0,0,0,0,0,0,0,0,0,0,0,0,0,0,0,0,0,0,0,0,0,0,0,0,0,0,7.52666,0.18739,0.185519

6.80015e-21,1.26904e-20,-2.98804e-22,5.62043e-21,-9.81239e-21,9.05882e-21,7.74221e-21,-0.408996,0.478457,1.5421,0.500463,0.500298,-0.499138,0.500099,0,0,0,0,0,0,0,0,0,0,0,0,0,0,0,0,0,0,0,0,0,0,0,0,0,0,0,0,7.68611,0.00340423,0.00468867
0.117924,0.219001,-0.0154452,0.120711,-0.183648,0.157053,0.134702,-0.446567,0.633551,1.53752,0.545194,0.484222,-0.453239,0.512706,0,0,0,0,0,0,0,0,0,0,0,0,0,0,0,0,0,0,0,0,0,0,0,0,0,0,0,0,7.68611,0.00340423,0.00468867
0.235847,0.438001,-0.0308903,0.241421,-0.367296,0.314106,0.269403,-0.470177,0.789206,1.53268,0.599682,0.458866,-0.404693,0.515798,0,0,0,0,0,0,0,0,0,0,0,0,0,0,0,0,0,0,0,0,0,0,0,0,0,0,0,0,7.68611,0.00340423,0.00468867
0.353771,0.657002,-0.0463355,0.362132,-0.550945,0.47116,0.404105,-0.479462,0.940229,1.52893,0.661646,0.424658,-0.354184,0.506403,0,0,0,0,0,0,0,0,0,0,0,0,0,0,0,0,0,0,0,0,0,0,0,0,0,0,0,0,7.68611,0.00340423,0.00468867
0.471694,0.876003,-0.0617807,0.482843,-0.734593,0.628213,0.538806,-0.475156,1.08166,1.52771,0.728048,0.382167,-0.302397,0.482131,0,0,0,0,0,0,0,0,0,0,0,0,0,0,0,0,0,0,0,0,0,0,0,0,0,0,0,0,7.68611,0.00340423,0.00468867
0.589618,1.095,-0.0772258,0.603553,-0.918241,0.785266,0.673508,-0.458986,1.20907,1.53047,0.795247,0.332087,-0.250006,0.441359,0,0,0,0,0,0,0,0,0,0,0,0,0,0,0,0,0,0,0,0,0,0,0,0,0,0,0,0,7.68611,0.00340423,0.00468867
0.707542,1.314,-0.092671,0.724264,-1.10189,0.942319,0.808209,-0.433476,1.31892,1.53855,0.859193,0.27523,-0.197655,0.383365,0,0,0,0,0,0,0,0,0,0,0,0,0,0,0,0,0,0,0,0,0,0,0,0,0,0,0,0,7.68611,0.00340423,0.00468867
0.825465,1.53301,-0.108116,0.844975,-1.28554,1.09937,0.942911,-0.401672,1.40868,1.55309,0.915649,0.212515,-0.145951,0.308421,0,0,0,0,0,0,0,0,0,0,0,0,0,0,0,0,0,0,0,0,0,0,0,0,0,0,0,0,7.68611,0.00340423,0.00468867
0.943389,1.75201,-0.123561,0.965685,-1.46919,1.25643,1.07761,-0.366824,1.47701,1.57495,0.960433,0.144945,-0.0954527,0.217825,0,0,0,0,0,0,0,0,0,0,0,0,0,0,0,0,0,0,0,0,0,0,0,0,0,0,0,0,7.68611,0.00340423,0.00468867
1.06131,1.97101,-0.139007,1.0864,-1.65283,1.41348,1.21231,-0.332045,1.52372,1.60462,0.989666,0.0735972,-0.0466578,0.113877,0,0,0,0,0,0,0,0,0,0,0,0,0,0,0,0,0,0,0,0,0,0,0,0,0,0,0,0,7.68611,0.00340423,0.00468867
1.17924,2.19001,-0.154452,1.20711,-1.83648,1.57053,1.34702,-0.300004,1.54969,1.64217,1,-0.000398301,7.48854e-07,-0.000199083,0,0,0,0,0,0,0,0,0,0,0,0,0,0,0,0,0,0,0,0,0,0,0,0,0,0,0,0,7.68611,0.00340423,0.00468867
1.16968,2.17814,-0.160203,1.19819,-1.82182,1.57051,1.34933,-0.300163,1.55039,1.63121,1,-0.000398784,3.12233e-07,-0.000199086,0,0,0,0,0,0,0,0,0,0,0,0,0,0,0,0,0,0,0,0,0,0,0,0,0,0,0,0,7.68611,0.00340423,0.00468867
1.16012,2.16627,-0.165954,1.18928,-1.80716,1.57049,1.35164,-0.300279,1.55091,1.6202,1,-0.00039916,-8.4248e-08,-0.000199088,0,0,0,0,0,0,0,0,0,0,0,0,0,0,0,0,0,0,0,0,0,0,0,0,0,0,0,0,7.68611,0.00340423,0.00468867
1.15057,2.1544,-0.171705,1.18037,-1.79251,1.57048,1.35396,-0.300354,1.55126,1.60916,1,-0.000399431,-4.41098e-07,-0.00019909,0,0,0,0,0,0,0,0,0,0,0,0,0,0,0,0,0,0,0,0,0,0,0,0,0,0,0,0,7.68611,0.00340423,0.00468867
1.14101,2.14253,-0.177456,1.17146,-1.77785,1.57046,1.35627,-0.300385,1.55144,1.59807,1,-0.000399595,-7.58825e-07,-0.000199093,0,0,0,0,0,0,0,0,0,0,0,0,0,0,0,0,0,0,0,0,0,0,0,0,0,0,0,0,7.68611,0.00340423,0.00468867
1.13145,2.13066,-0.183207,1.16254,-1.76319,1.57044,1.35858,-0.300373,1.55144,1.58695,1,-0.000399653,-1.03794e-06,-0.000199095,0,0,0,0,0,0,0,0,0,0,0,0,0,0,0,0,0,0,0,0,0,0,0,0,0,0,0,0,7.68611,0.00340423,0.00468867
1.1219,2.11879,-0.188958,1.15363,-1.74853,1.57042,1.3609,-0.300316,1.55127,1.57579,1,-0.000399604,-1.27897e-06,-0.000199097,0,0,0,0,0,0,0,0,0,0,0,0,0,0,0,0,0,0,0,0,0,0,0,0,0,0,0,0,7.68611,0.00340423,0.00468867
1.11234,2.10692,-0.19471,1.14472,-1.73387,1.5704,1.36321,-0.300214,1.55093,1.5646,1,-0.000399448,-1.48241e-06,-0.000199099,0,0,0,0,0,0,0,0,0,0,0,0,0,0,0,0,0,0,0,0,0,0,0,0,0,0,0,0,7.68611,0.00340423,0.00468867
1.10278,2.09505,-0.200461,1.13581,-1.71921,1.57038,1.36553,-0.300067,1.55041,1.55338,1,-0.000399185,-1.6488e-06,-0.000199101,0,0,0,0,0,0,0,0,0,0,0,0,0,0,0,0,0,0,0,0,0,0,0,0,0,0,0,0,7.68611,0.00340423,0.00468867
1.09323,2.08318,-0.206212,1.12689,-1.70455,1.57036,1.36784,-0.299873,1.54973,1.54214,1,-0.000398814,-1.77865e-06,-0.000199103,0,0,0,0,0,0,0,0,0,0,0,0,0,0,0,0,0,0,0,0,0,0,0,0,0,0,0,0,7.68611,0.00340423,0.00468867
1.09323,2.08318,-0.206212,1.12689,-1.70455,1.57036,1.36784,-0.299873,1.54973,1.54214,1,-0.000398814,-1.77865e-06,-0.000199103,0,0,0,0,0,0,0,0,0,0,0,0,0,0,0,0,0,0,0,0,0,0,0,0,0,0,0,0,7.68611,0.00340423,0.00468867
1.09323,2.08318,-0.206212,1.12689,-1.70455,1.57036,1.36784,-0.299873,1.54973,1.54214,1,-0.000398814,-1.77865e-06,-0.000199103,0,0,0,0,0,0,0,0,0,0,0,0,0,0,0,0,0,0,0,0,0,0,0,0,0,0,0,0,7.68611,0.00340423,0.00468867
1.09323,2.08318,-0.206212,1.12689,-1.70455,1.57036,1.36784,-0.299873,1.54973,1.54214,1,-0.000398814,-1.77865e-06,-0.000199103,0,0,0,0,0,0,0,0,0,0,0,0,0,0,0,0,0,0,0,0,0,0,0,0,0,0,0,0,7.68611,0.00340423,0.00468867
1.09323,2.08318,-0.206212,1.12689,-1.70455,1.57036,1.36784,-0.299873,1.54973,1.54214,1,-0.000398814,-1.77865e-06,-0.000199103,0,0,0,0,0,0,0,0,0,0,0,0,0,0,0,0,0,0,0,0,0,0,0,0,0,0,0,0,7.68611,0.00340423,0.00468867
1.09323,2.08318,-0.206212,1.12689,-1.70455,1.57036,1.36784,-0.299873,1.54973,1.54214,1,-0.000398814,-1.77865e-06,-0.000199103,0,0,0,0,0,0,0,0,0,0,0,0,0,0,0,0,0,0,0,0,0,0,0,0,0,0,0,0,7.68611,0.00340423,0.00468867
1.09323,2.08318,-0.206212,1.12689,-1.70455,1.57036,1.36784,-0.299873,1.54973,1.54214,1,-0.000398814,-1.77865e-06,-0.000199103,0,0,0,0,0,0,0,0,0,0,0,0,0,0,0,0,0,0,0,0,0,0,0,0,0,0,0,0,7.68611,0.00340423,0.00468867
1.09323,2.08318,-0.206212,1.12689,-1.70455,1.57036,1.36784,-0.299873,1.54973,1.54214,1,-0.000398814,-1.77865e-06,-0.000199103,0,0,0,0,0,0,0,0,0,0,0,0,0,0,0,0,0,0,0,0,0,0,0,0,0,0,0,0,7.68611,0.00340423,0.00468867
1.09323,2.08318,-0.206212,1.12689,-1.70455,1.57036,1.36784,-0.299873,1.54973,1.54214,1,-0.000398814,-1.77865e-06,-0.000199103,0,0,0,0,0,0,0,0,0,0,0,0,0,0,0,0,0,0,0,0,0,0,0,0,0,0,0,0,7.68611,0.00340423,0.00468867
1.09323,2.08318,-0.206212,1.12689,-1.70455,1.57036,1.36784,-0.299873,1.54973,1.54214,1,-0.000398814,-1.77865e-06,-0.000199103,0,0,0,0,0,0,0,0,0,0,0,0,0,0,0,0,0,0,0,0,0,0,0,0,0,0,0,0,7.68611,0.00340423,0.00468867
1.09323,2.08318,-0.206212,1.12689,-1.70455,1.57036,1.36784,-0.299873,1.54973,1.54214,1,-0.000398814,-1.77865e-06,-0.000199103,0,0,0,0,0,0,0,0,0,0,0,0,0,0,0,0,0,0,0,0,0,0,0,0,0,0,0,0,7.68611,0.00340423,0.00468867

6.53297e-21,1.23346e-20,-9.52915e-22,6.9443e-21,-1.04981e-20,9.05749e-21,7.81555e-21,-0.408996,0.478457,1.5421,0.500463,0.500298,-0.499138,0.500099,0,0,0,0,0,0,0,0,0,0,0,0,0,0,0,0,0,0,0,0,0,0,0,0,0,0,0,0,7.68322,9.64514e-05,8.16179e-05
0.118194,0.219357,-0.0151386,0.120134,-0.183378,0.157054,0.134615,-0.446313,0.633748,1.53753,0.545194,0.484183,-0.45328,0.512706,0,0,0,0,0,0,0,0,0,0,0,0,0,0,0,0,0,0,0,0,0,0,0,0,0,0,0,0,7.68322,9.64514e-05,8.16179e-05
0.236387,0.438714,-0.0302771,0.240268,-0.366756,0.314107,0.26923,-0.46972,0.789553,1.53269,0.599682,0.458795,-0.404772,0.515799,0,0,0,0,0,0,0,0,0,0,0,0,0,0,0,0,0,0,0,0,0,0,0,0,0,0,0,0,7.68322,9.64514e-05,8.16179e-05
0.354581,0.658072,-0.0454157,0.360402,-0.550134,0.471161,0.403845,-0.478862,0.940685,1.52893,0.661646,0.424566,-0.354294,0.506403,0,0,0,0,0,0,0,0,0,0,0,0,0,0,0,0,0,0,0,0,0,0,0,0,0,0,0,0,7.68322,9.64514e-05,8.16179e-05
0.472775,0.877429,-0.0605543,0.480536,-0.733513,0.628215,0.538461,-0.474474,1.08218,1.5277,0.728048,0.382061,-0.30253,0.482132,0,0,0,0,0,0,0,0,0,0,0,0,0,0,0,0,0,0,0,0,0,0,0,0,0,0,0,0,7.68322,9.64514e-05,8.16179e-05
0.590968,1.09679,-0.0756928,0.60067,-0.916891,0.785268,0.673076,-0.458286,1.20962,1.53043,0.795247,0.331978,-0.25015,0.44136,0,0,0,0,0,0,0,0,0,0,0,0,0,0,0,0,0,0,0,0,0,0,0,0,0,0,0,0,7.68322,9.64514e-05,8.16179e-05
0.709162,1.31614,-0.0908314,0.720804,-1.10027,0.942322,0.807691,-0.43282,1.31946,1.5385,0.859193,0.275127,-0.197798,0.383366,0,0,0,0,0,0,0,0,0,0,0,0,0,0,0,0,0,0,0,0,0,0,0,0,0,0,0,0,7.68322,9.64514e-05,8.16179e-05
0.827355,1.5355,-0.10597,0.840938,-1.28365,1.09938,0.942306,-0.401118,1.40919,1.55303,0.915648,0.212425,-0.14608,0.308422,0,0,0,0,0,0,0,0,0,0,0,0,0,0,0,0,0,0,0,0,0,0,0,0,0,0,0,0,7.68322,9.64514e-05,8.16179e-05
0.945549,1.75486,-0.121109,0.961072,-1.46703,1.25643,1.07692,-0.366419,1.47746,1.5749,0.960433,0.144878,-0.0955537,0.217825,0,0,0,0,0,0,0,0,0,0,0,0,0,0,0,0,0,0,0,0,0,0,0,0,0,0,0,0,7.68322,9.64514e-05,8.16179e-05
1.06374,1.97421,-0.136247,1.08121,-1.6504,1.41348,1.21154,-0.331829,1.5241,1.6046,0.989666,0.0735605,-0.0467161,0.113877,0,0,0,0,0,0,0,0,0,0,0,0,0,0,0,0,0,0,0,0,0,0,0,0,0,0,0,0,7.68322,9.64514e-05,8.16179e-05
1.18194,2.19357,-0.151386,1.20134,-1.83378,1.57054,1.34615,-0.299999,1.54999,1.6422,1,-0.000398159,8.10943e-08,-0.000199082,0,0,0,0,0,0,0,0,0,0,0,0,0,0,0,0,0,0,0,0,0,0,0,0,0,0,0,0,7.68322,9.64514e-05,8.16179e-05
1.17195,2.18115,-0.157807,1.19371,-1.81973,1.57052,1.34859,-0.300148,1.55069,1.63124,1,-0.00039862,-9.13191e-08,-0.000199082,0,0,0,0,0,0,0,0,0,0,0,0,0,0,0,0,0,0,0,0,0,0,0,0,0,0,0,0,7.68322,9.64514e-05,8.16179e-05
1.16196,2.16873,-0.164229,1.18608,-1.80568,1.5705,1.35102,-0.300261,1.55122,1.62024,1,-0.000398966,-2.19302e-07,-0.000199082,0,0,0,0,0,0,0,0,0,0,0,0,0,0,0,0,0,0,0,0,0,0,0,0,0,0,0,0,7.68322,9.64514e-05,8.16179e-05
1.15197,2.1563,-0.170651,1.17845,-1.79164,1.57048,1.35346,-0.300338,1.55156,1.6092,1,-0.000399197,-3.03436e-07,-0.000199082,0,0,0,0,0,0,0,0,0,0,0,0,0,0,0,0,0,0,0,0,0,0,0,0,0,0,0,0,7.68322,9.64514e-05,8.16179e-05
1.14198,2.14388,-0.177073,1.17082,-1.77759,1.57046,1.35589,-0.300378,1.55174,1.59812,1,-0.000399314,-3.44305e-07,-0.000199082,0,0,0,0,0,0,0,0,0,0,0,0,0,0,0,0,0,0,0,0,0,0,0,0,0,0,0,0,7.68322,9.64514e-05,8.16179e-05
1.132,2.13146,-0.183494,1.16319,-1.76354,1.57044,1.35832,-0.30038,1.55174,1.587,1,-0.000399315,-3.42498e-07,-0.000199082,0,0,0,0,0,0,0,0,0,0,0,0,0,0,0,0,0,0,0,0,0,0,0,0,0,0,0,0,7.68322,9.64514e-05,8.16179e-05
1.12201,2.11904,-0.189916,1.15555,-1.74949,1.57042,1.36076,-0.300343,1.55156,1.57585,1,-0.000399201,-2.98603e-07,-0.000199082,0,0,0,0,0,0,0,0,0,0,0,0,0,0,0,0,0,0,0,0,0,0,0,0,0,0,0,0,7.68322,9.64514e-05,8.16179e-05
1.11202,2.10661,-0.196338,1.14792,-1.73544,1.5704,1.36319,-0.300268,1.55121,1.56467,1,-0.000398971,-2.13216e-07,-0.000199082,0,0,0,0,0,0,0,0,0,0,0,0,0,0,0,0,0,0,0,0,0,0,0,0,0,0,0,0,7.68322,9.64514e-05,8.16179e-05
1.10203,2.09419,-0.20276,1.14029,-1.72139,1.57038,1.36563,-0.300153,1.55069,1.55345,1,-0.000398625,-8.69315e-08,-0.000199082,0,0,0,0,0,0,0,0,0,0,0,0,0,0,0,0,0,0,0,0,0,0,0,0,0,0,0,0,7.68322,9.64514e-05,8.16179e-05
1.09205,2.08177,-0.209181,1.13266,-1.70735,1.57036,1.36806,-0.299998,1.55,1.5422,1,-0.000398163,7.96511e-08,-0.000199082,0,0,0,0,0,0,0,0,0,0,0,0,0,0,0,0,0,0,0,0,0,0,0,0,0,0,0,0,7.68322,9.64514e-05,8.16179e-05
1.09205,2.08177,-0.209181,1.13266,-1.70735,1.57036,1.36806,-0.299998,1.55,1.5422,1,-0.000398163,7.96511e-08,-0.000199082,0,0,0,0,0,0,0,0,0,0,0,0,0,0,0,0,0,0,0,0,0,0,0,0,0,0,0,0,7.68322,9.64514e-05,8.16179e-05
1.09205,2.08177,-0.209181,1.13266,-1.70735,1.57036,1.36806,-0.299998,1.55,1.5422,1,-0.000398163,7.96511e-08,-0.000199082,0,0,0,0,0,0,0,0,0,0,0,0,0,0,0,0,0,0,0,0,0,0,0,0,0,0,0,0,7.68322,9.64514e-05,8.16179e-05
1.09205,2.08177,-0.209181,1.13266,-1.70735,1.57036,1.36806,-0.299998,1.55,1.5422,1,-0.000398163,7.96511e-08,-0.000199082,0,0,0,0,0,0,0,0,0,0,0,0,0,0,0,0,0,0,0,0,0,0,0,0,0,0,0,0,7.68322,9.64514e-05,8.16179e-05
1.09205,2.08177,-0.209181,1.13266,-1.70735,1.57036,1.36806,-0.299998,1.55,1.5422,1,-0.000398163,7.96511e-08,-0.000199082,0,0,0,0,0,0,0,0,0,0,0,0,0,0,0,0,0,0,0,0,0,0,0,0,0,0,0,0,7.68322,9.64514e-05,8.16179e-05
1.09205,2.08177,-0.209181,1.13266,-1.70735,1.57036,1.36806,-0.299998,1.55,1.5422,1,-0.000398163,7.96511e-08,-0.000199082,0,0,0,0,0,0,0,0,0,0,0,0,0,0,0,0,0,0,0,0,0,0,0,0,0,0,0,0,7.68322,9.64514e-05,8.16179e-05
1.09205,2.08177,-0.209181,1.13266,-1.70735,1.57036,1.36806,-0.299998,1.55,1.5422,1,-0.000398163,7.96511e-08,-0.000199082,0,0,0,0,0,0,0,0,0,0,0,0,0,0,0,0,0,0,0,0,0,0,0,0,0,0,0,0,7.68322,9.64514e-05,8.16179e-05
1.09205,2.08177,-0.209181,1.13266,-1.70735,1.57036,1.36806,-0.299998,1.55,1.5422,1,-0.000398163,7.96511e-08,-0.000199082,0,0,0,0,0,0,0,0,0,0,0,0,0,0,0,0,0,0,0,0,0,0,0,0,0,0,0,0,7.68322,9.64514e-05,8.16179e-05
1.09205,2.08177,-0.209181,1.13266,-1.70735,1.57036,1.36806,-0.299998,1.55,1.5422,1,-0.000398163,7.96511e-08,-0.000199082,0,0,0,0,0,0,0,0,0,0,0,0,0,0,0,0,0,0,0,0,0,0,0,0,0,0,0,0,7.68322,9.64514e-05,8.16179e-05
1.09205,2.08177,-0.209181,1.13266,-1.70735,1.57036,1.36806,-0.299998,1.55,1.5422,1,-0.000398163,7.96511e-08,-0.000199082,0,0,0,0,0,0,0,0,0,0,0,0,0,0,0,0,0,0,0,0,0,0,0,0,0,0,0,0,7.68322,9.64514e-05,8.16179e-05
1.09205,2.08177,-0.209181,1.13266,-1.70735,1.57036,1.36806,-0.299998,1.55,1.5422,1,-0.000398163,7.96511e-08,-0.000199082,0,0,0,0,0,0,0,0,0,0,0,0,0,0,0,0,0,0,0,0,0,0,0,0,0,0,0,0,7.68322,9.64514e-05,8.16179e-05

7.09759e-21,1.30231e-20,-7.36311e-22,6.75701e-21,-1.051e-20,9.0762e-21,7.70202e-21,-0.408996,0.478457,1.5421,0.500463,0.500298,-0.499138,0.500099,0,0,0,0,0,0,0,0,0,0,0,0,0,0,0,0,0,0,0,0,0,0,0,0,0,0,0,0,7.6751,0.000198944,1.20092e-05
0.118484,0.219726,-0.0146815,0.119269,-0.18297,0.157054,0.134537,-0.445952,0.633935,1.53755,0.545194,0.484147,-0.453318,0.512706,0,0,0,0,0,0,0,0,0,0,0,0,0,0,0,0,0,0,0,0,0,0,0,0,0,0,0,0,7.6751,0.000198944,1.20092e-05
0.236968,0.439451,-0.0293629,0.238538,-0.36594,0.314108,0.269074,-0.469072,0.789863,1.53271,0.599682,0.458732,-0.404843,0.515799,0,0,0,0,0,0,0,0,0,0,0,0,0,0,0,0,0,0,0,0,0,0,0,0,0,0,0,0,7.6751,0.000198944,1.20092e-05
0.355452,0.659177,-0.0440444,0.357807,-0.54891,0.471163,0.403611,-0.478011,0.941057,1.52893,0.661646,0.424482,-0.354393,0.506404,0,0,0,0,0,0,0,0,0,0,0,0,0,0,0,0,0,0,0,0,0,0,0,0,0,0,0,0,7.6751,0.000198944,1.20092e-05
0.473937,0.878903,-0.0587259,0.477076,-0.731881,0.628217,0.538149,-0.47351,1.08256,1.52766,0.728048,0.381966,-0.302648,0.482133,0,0,0,0,0,0,0,0,0,0,0,0,0,0,0,0,0,0,0,0,0,0,0,0,0,0,0,0,7.6751,0.000198944,1.20092e-05
0.592421,1.09863,-0.0734074,0.596345,-0.914851,0.785271,0.672686,-0.457301,1.20998,1.53036,0.795247,0.331879,-0.250279,0.441361,0,0,0,0,0,0,0,0,0,0,0,0,0,0,0,0,0,0,0,0,0,0,0,0,0,0,0,0,7.6751,0.000198944,1.20092e-05
0.710905,1.31835,-0.0880888,0.715614,-1.09782,0.942325,0.807223,-0.431902,1.31976,1.5384,0.859193,0.275033,-0.197927,0.383367,0,0,0,0,0,0,0,0,0,0,0,0,0,0,0,0,0,0,0,0,0,0,0,0,0,0,0,0,7.6751,0.000198944,1.20092e-05
0.829389,1.53808,-0.10277,0.834883,-1.28079,1.09938,0.94176,-0.400347,1.40941,1.55292,0.915648,0.212344,-0.146197,0.308422,0,0,0,0,0,0,0,0,0,0,0,0,0,0,0,0,0,0,0,0,0,0,0,0,0,0,0,0,7.6751,0.000198944,1.20092e-05
0.947873,1.75781,-0.117452,0.954152,-1.46376,1.25643,1.0763,-0.365862,1.4776,1.5748,0.960433,0.144817,-0.0956445,0.217825,0,0,0,0,0,0,0,0,0,0,0,0,0,0,0,0,0,0,0,0,0,0,0,0,0,0,0,0,7.6751,0.000198944,1.20092e-05
1.06636,1.97753,-0.132133,1.07342,-1.64673,1.41349,1.21083,-0.331534,1.52417,1.60452,0.989666,0.0735272,-0.0467681,0.113877,0,0,0,0,0,0,0,0,0,0,0,0,0,0,0,0,0,0,0,0,0,0,0,0,0,0,0,0,7.6751,0.000198944,1.20092e-05
1.18484,2.19726,-0.146815,1.19269,-1.8297,1.57054,1.34537,-0.299996,1.54999,1.6422,1,-0.000398161,8.65752e-08,-0.000199078,0,0,0,0,0,0,0,0,0,0,0,0,0,0,0,0,0,0,0,0,0,0,0,0,0,0,0,0,7.6751,0.000198944,1.20092e-05
1.17445,2.18433,-0.15387,1.18626,-1.81622,1.57052,1.34791,-0.300126,1.55069,1.63124,1,-0.000398659,-1.01444e-07,-0.000199079,0,0,0,0,0,0,0,0,0,0,0,0,0,0,0,0,0,0,0,0,0,0,0,0,0,0,0,0,7.6751,0.000198944,1.20092e-05
1.16406,2.1714,-0.160924,1.17983,-1.80274,1.5705,1.35045,-0.300224,1.55122,1.62025,1,-0.000399034,-2.41111e-07,-0.000199079,0,0,0,0,0,0,0,0,0,0,0,0,0,0,0,0,0,0,0,0,0,0,0,0,0,0,0,0,7.6751,0.000198944,1.20092e-05
1.15367,2.15847,-0.167979,1.1734,-1.78926,1.57048,1.35299,-0.300291,1.55158,1.60921,1,-0.000399284,-3.33079e-07,-0.00019908,0,0,0,0,0,0,0,0,0,0,0,0,0,0,0,0,0,0,0,0,0,0,0,0,0,0,0,0,7.6751,0.000198944,1.20092e-05
1.14328,2.14554,-0.175034,1.16697,-1.77578,1.57046,1.35553,-0.300326,1.55175,1.59813,1,-0.00039941,-3.78005e-07,-0.00019908,0,0,0,0,0,0,0,0,0,0,0,0,0,0,0,0,0,0,0,0,0,0,0,0,0,0,0,0,7.6751,0.000198944,1.20092e-05
1.13289,2.13261,-0.182089,1.16054,-1.76229,1.57044,1.35807,-0.300329,1.55175,1.58701,1,-0.000399411,-3.76548e-07,-0.000199081,0,0,0,0,0,0,0,0,0,0,0,0,0,0,0,0,0,0,0,0,0,0,0,0,0,0,0,0,7.6751,0.000198944,1.20092e-05
1.1225,2.11968,-0.189144,1.1541,-1.74881,1.57042,1.3606,-0.300298,1.55158,1.57586,1,-0.000399288,-3.29374e-07,-0.000199081,0,0,0,0,0,0,0,0,0,0,0,0,0,0,0,0,0,0,0,0,0,0,0,0,0,0,0,0,7.6751,0.000198944,1.20092e-05
1.11211,2.10675,-0.196198,1.14767,-1.73533,1.5704,1.36314,-0.300233,1.55122,1.56467,1,-0.000399038,-2.37147e-07,-0.000199081,0,0,0,0,0,0,0,0,0,0,0,0,0,0,0,0,0,0,0,0,0,0,0,0,0,0,0,0,7.6751,0.000198944,1.20092e-05
1.10171,2.09382,-0.203253,1.14124,-1.72185,1.57038,1.36568,-0.300134,1.5507,1.55345,1,-0.000398664,-1.0054e-07,-0.000199081,0,0,0,0,0,0,0,0,0,0,0,0,0,0,0,0,0,0,0,0,0,0,0,0,0,0,0,0,7.6751,0.000198944,1.20092e-05
1.09132,2.08089,-0.210308,1.13481,-1.70837,1.57036,1.36822,-0.3,1.55,1.5422,1,-0.000398164,7.97747e-08,-0.000199081,0,0,0,0,0,0,0,0,0,0,0,0,0,0,0,0,0,0,0,0,0,0,0,0,0,0,0,0,7.6751,0.000198944,1.20092e-05
1.09132,2.08089,-0.210308,1.13481,-1.70837,1.57036,1.36822,-0.3,1.55,1.5422,1,-0.000398164,7.97747e-08,-0.000199081,0,0,0,0,0,0,0,0,0,0,0,0,0,0,0,0,0,0,0,0,0,0,0,0,0,0,0,0,7.6751,0.000198944,1.20092e-05
1.09132,2.08089,-0.210308,1.13481,-1.70837,1.57036,1.36822,-0.3,1.55,1.5422,1,-0.000398164,7.97747e-08,-0.000199081,0,0,0,0,0,0,0,0,0,0,0,0,0,0,0,0,0,0,0,0,0,0,0,0,0,0,0,0,7.6751,0.000198944,1.20092e-05
1.09132,2.08089,-0.210308,1.13481,-1.70837,1.57036,1.36822,-0.3,1.55,1.5422,1,-0.000398164,7.97747e-08,-0.000199081,0,0,0,0,0,0,0,0,0,0,0,0,0,0,0,0,0,0,0,0,0,0,0,0,0,0,0,0,7.6751,0.000198944,1.20092e-05
1.09132,2.08089,-0.210308,1.13481,-1.70837,1.57036,1.36822,-0.3,1.55,1.5422,1,-0.000398164,7.97747e-08,-0.000199081,0,0,0,0,0,0,0,0,0,0,0,0,0,0,0,0,0,0,0,0,0,0,0,0,0,0,0,0,7.6751,0.000198944,1.20092e-05
1.09132,2.08089,-0.210308,1.13481,-1.70837,1.57036,1.36822,-0.3,1.55,1.5422,1,-0.000398164,7.97747e-08,-0.000199081,0,0,0,0,0,0,0,0,0,0,0,0,0,0,0,0,0,0,0,0,0,0,0,0,0,0,0,0,7.6751,0.000198944,1.20092e-05
1.09132,2.08089,-0.210308,1.13481,-1.70837,1.57036,1.36822,-0.3,1.55,1.5422,1,-0.000398164,7.97747e-08,-0.000199081,0,0,0,0,0,0,0,0,0,0,0,0,0,0,0,0,0,0,0,0,0,0,0,0,0,0,0,0,7.6751,0.000198944,1.20092e-05
1.09132,2.08089,-0.210308,1.13481,-1.70837,1.57036,1.36822,-0.3,1.55,1.5422,1,-0.000398164,7.97747e-08,-0.000199081,0,0,0,0,0,0,0,0,0,0,0,0,0,0,0,0,0,0,0,0,0,0,0,0,0,0,0,0,7.6751,0.000198944,1.20092e-05
1.09132,2.08089,-0.210308,1.13481,-1.70837,1.57036,1.36822,-0.3,1.55,1.5422,1,-0.000398164,7.97747e-08,-0.000199081,0,0,0,0,0,0,0,0,0,0,0,0,0,0,0,0,0,0,0,0,0,0,0,0,0,0,0,0,7.6751,0.000198944,1.20092e-05
1.09132,2.08089,-0.210308,1.13481,-1.70837,1.57036,1.36822,-0.3,1.55,1.5422,1,-0.000398164,7.97747e-08,-0.000199081,0,0,0,0,0,0,0,0,0,0,0,0,0,0,0,0,0,0,0,0,0,0,0,0,0,0,0,0,7.6751,0.000198944,1.20092e-05
1.09132,2.08089,-0.210308,1.13481,-1.70837,1.57036,1.36822,-0.3,1.55,1.5422,1,-0.000398164,7.97747e-08,-0.000199081,0,0,0,0,0,0,0,0,0,0,0,0,0,0,0,0,0,0,0,0,0,0,0,0,0,0,0,0,7.6751,0.000198944,1.20092e-05

7.0898e-21,1.30231e-20,-6.99388e-22,6.67633e-21,-1.04665e-20,9.08224e-21,7.70636e-21,-0.408996,0.478457,1.5421,0.500463,0.500298,-0.499138,0.500099,0,0,0,0,0,0,0,0,0,0,0,0,0,0,0,0,0,0,0,0,0,0,0,0,0,0,0,0,7.66388,0.000449878,0.000418477
0.118933,0.220295,-0.0139942,0.117972,-0.18236,0.157055,0.134416,-0.445408,0.634225,1.53758,0.545194,0.484092,-0.453376,0.512707,0,0,0,0,0,0,0,0,0,0,0,0,0,0,0,0,0,0,0,0,0,0,0,0,0,0,0,0,7.66388,0.000449878,0.000418477
0.237865,0.440591,-0.0279885,0.235943,-0.36472,0.31411,0.268832,-0.468096,0.790346,1.53273,0.599682,0.458633,-0.404953,0.5158,0,0,0,0,0,0,0,0,0,0,0,0,0,0,0,0,0,0,0,0,0,0,0,0,0,0,0,0,7.66388,0.000449878,0.000418477
0.356798,0.660886,-0.0419827,0.353915,-0.547079,0.471165,0.403248,-0.47673,0.941643,1.52892,0.661646,0.424352,-0.354546,0.506405,0,0,0,0,0,0,0,0,0,0,0,0,0,0,0,0,0,0,0,0,0,0,0,0,0,0,0,0,7.66388,0.000449878,0.000418477
0.475731,0.881181,-0.055977,0.471886,-0.729439,0.628221,0.537664,-0.472059,1.08317,1.52761,0.728048,0.381818,-0.302833,0.482134,0,0,0,0,0,0,0,0,0,0,0,0,0,0,0,0,0,0,0,0,0,0,0,0,0,0,0,0,7.66388,0.000449878,0.000418477
0.594664,1.10148,-0.0699712,0.589858,-0.911799,0.785276,0.67208,-0.455818,1.21055,1.53026,0.795247,0.331726,-0.250479,0.441362,0,0,0,0,0,0,0,0,0,0,0,0,0,0,0,0,0,0,0,0,0,0,0,0,0,0,0,0,7.66388,0.000449878,0.000418477
0.713596,1.32177,-0.0839654,0.707829,-1.09416,0.942331,0.806496,-0.430518,1.32024,1.53826,0.859193,0.274887,-0.198126,0.383368,0,0,0,0,0,0,0,0,0,0,0,0,0,0,0,0,0,0,0,0,0,0,0,0,0,0,0,0,7.66388,0.000449878,0.000418477
0.832529,1.54207,-0.0979597,0.825801,-1.27652,1.09939,0.940913,-0.399183,1.40978,1.55276,0.915648,0.212219,-0.146377,0.308423,0,0,0,0,0,0,0,0,0,0,0,0,0,0,0,0,0,0,0,0,0,0,0,0,0,0,0,0,7.66388,0.000449878,0.000418477
0.951462,1.76236,-0.111954,0.943773,-1.45888,1.25644,1.07533,-0.365019,1.47784,1.57464,0.960433,0.144723,-0.0957853,0.217826,0,0,0,0,0,0,0,0,0,0,0,0,0,0,0,0,0,0,0,0,0,0,0,0,0,0,0,0,7.66388,0.000449878,0.000418477
1.07039,1.98266,-0.125948,1.06174,-1.64124,1.4135,1.20974,-0.331088,1.52427,1.60442,0.989666,0.0734754,-0.0468489,0.113878,0,0,0,0,0,0,0,0,0,0,0,0,0,0,0,0,0,0,0,0,0,0,0,0,0,0,0,0,7.66388,0.000449878,0.000418477
1.18933,2.20295,-0.139942,1.17972,-1.8236,1.57055,1.34416,-0.299991,1.54997,1.64219,1,-0.000398161,8.76873e-08,-0.000199077,0,0,0,0,0,0,0,0,0,0,0,0,0,0,0,0,0,0,0,0,0,0,0,0,0,0,0,0,7.66388,0.000449878,0.000418477
1.17892,2.18998,-0.147016,1.17331,-1.81012,1.57053,1.34673,-0.300121,1.55068,1.63123,1,-0.000398661,-1.03635e-07,-0.000199078,0,0,0,0,0,0,0,0,0,0,0,0,0,0,0,0,0,0,0,0,0,0,0,0,0,0,0,0,7.66388,0.000449878,0.000418477
1.16851,2.17701,-0.154089,1.1669,-1.79664,1.57051,1.34929,-0.300219,1.55121,1.62024,1,-0.000399036,-2.45741e-07,-0.000199078,0,0,0,0,0,0,0,0,0,0,0,0,0,0,0,0,0,0,0,0,0,0,0,0,0,0,0,0,7.66388,0.000449878,0.000418477
1.15811,2.16403,-0.161162,1.16049,-1.78316,1.57049,1.35186,-0.300286,1.55156,1.6092,1,-0.000399287,-3.39282e-07,-0.000199079,0,0,0,0,0,0,0,0,0,0,0,0,0,0,0,0,0,0,0,0,0,0,0,0,0,0,0,0,7.66388,0.000449878,0.000418477
1.1477,2.15106,-0.168236,1.15408,-1.76968,1.57047,1.35443,-0.30032,1.55174,1.59812,1,-0.000399412,-3.84914e-07,-0.00019908,0,0,0,0,0,0,0,0,0,0,0,0,0,0,0,0,0,0,0,0,0,0,0,0,0,0,0,0,7.66388,0.000449878,0.000418477
1.1373,2.13809,-0.175309,1.14767,-1.7562,1.57045,1.357,-0.300322,1.55174,1.587,1,-0.000399412,-3.83293e-07,-0.00019908,0,0,0,0,0,0,0,0,0,0,0,0,0,0,0,0,0,0,0,0,0,0,0,0,0,0,0,0,7.66388,0.000449878,0.000418477
1.12689,2.12511,-0.182383,1.14126,-1.74273,1.57043,1.35956,-0.300291,1.55156,1.57585,1,-0.000399286,-3.35083e-07,-0.000199081,0,0,0,0,0,0,0,0,0,0,0,0,0,0,0,0,0,0,0,0,0,0,0,0,0,0,0,0,7.66388,0.000449878,0.000418477
1.11648,2.11214,-0.189456,1.13485,-1.72925,1.57041,1.36213,-0.300225,1.55121,1.56466,1,-0.000399035,-2.40948e-07,-0.000199081,0,0,0,0,0,0,0,0,0,0,0,0,0,0,0,0,0,0,0,0,0,0,0,0,0,0,0,0,7.66388,0.000449878,0.000418477
1.10608,2.09917,-0.196529,1.12844,-1.71577,1.57039,1.3647,-0.300126,1.55068,1.55344,1,-0.000398657,-1.01557e-07,-0.000199081,0,0,0,0,0,0,0,0,0,0,0,0,0,0,0,0,0,0,0,0,0,0,0,0,0,0,0,0,7.66388,0.000449878,0.000418477
1.09567,2.08619,-0.203603,1.12203,-1.70229,1.57037,1.36726,-0.299991,1.54998,1.54219,1,-0.000398153,8.24176e-08,-0.000199082,0,0,0,0,0,0,0,0,0,0,0,0,0,0,0,0,0,0,0,0,0,0,0,0,0,0,0,0,7.66388,0.000449878,0.000418477
1.09567,2.08619,-0.203603,1.12203,-1.70229,1.57037,1.36726,-0.299991,1.54998,1.54219,1,-0.000398153,8.24176e-08,-0.000199082,0,0,0,0,0,0,0,0,0,0,0,0,0,0,0,0,0,0,0,0,0,0,0,0,0,0,0,0,7.66388,0.000449878,0.000418477
1.09567,2.08619,-0.203603,1.12203,-1.70229,1.57037,1.36726,-0.299991,1.54998,1.54219,1,-0.000398153,8.24176e-08,-0.000199082,0,0,0,0,0,0,0,0,0,0,0,0,0,0,0,0,0,0,0,0,0,0,0,0,0,0,0,0,7.66388,0.000449878,0.000418477
1.09567,2.08619,-0.203603,1.12203,-1.70229,1.57037,1.36726,-0.299991,1.54998,1.54219,1,-0.000398153,8.24176e-08,-0.000199082,0,0,0,0,0,0,0,0,0,0,0,0,0,0,0,0,0,0,0,0,0,0,0,0,0,0,0,0,7.66388,0.000449878,0.000418477
1.09567,2.08619,-0.203603,1.12203,-1.70229,1.57037,1.36726,-0.299991,1.54998,1.54219,1,-0.000398153,8.24176e-08,-0.000199082,0,0,0,0,0,0,0,0,0,0,0,0,0,0,0,0,0,0,0,0,0,0,0,0,0,0,0,0,7.66388,0.000449878,0.000418477
1.09567,2.08619,-0.203603,1.12203,-1.70229,1.57037,1.36726,-0.299991,1.54998,1.54219,1,-0.000398153,8.24176e-08,-0.000199082,0,0,0,0,0,0,0,0,0,0,0,0,0,0,0,0,0,0,0,0,0,0,0,0,0,0,0,0,7.66388,0.000449878,0.000418477
1.09567,2.08619,-0.203603,1.12203,-1.70229,1.57037,1.36726,-0.299991,1.54998,1.54219,1,-0.000398153,8.24176e-08,-0.000199082,0,0,0,0,0,0,0,0,0,0,0,0,0,0,0,0,0,0,0,0,0,0,0,0,0,0,0,0,7.66388,0.000449878,0.000418477
1.09567,2.08619,-0.203603,1.12203,-1.70229,1.57037,1.36726,-0.299991,1.54998,1.54219,1,-0.000398153,8.24176e-08,-0.000199082,0,0,0,0,0,0,0,0,0,0,0,0,0,0,0,0,0,0,0,0,0,0,0,0,0,0,0,0,7.66388,0.000449878,0.000418477
1.09567,2.08619,-0.203603,1.12203,-1.70229,1.57037,1.36726,-0.299991,1.54998,1.54219,1,-0.000398153,8.24176e-08,-0.000199082,0,0,0,0,0,0,0,0,0,0,0,0,0,0,0,0,0,0,0,0,0,0,0,0,0,0,0,0,7.66388,0.000449878,0.000418477
1.09567,2.08619,-0.203603,1.12203,-1.70229,1.57037,1.36726,-0.299991,1.54998,1.54219,1,-0.000398153,8.24176e-08,-0.000199082,0,0,0,0,0,0,0,0,0,0,0,0,0,0,0,0,0,0,0,0,0,0,0,0,0,0,0,0,7.66388,0.000449878,0.000418477
1.09567,2.08619,-0.203603,1.12203,-1.70229,1.57037,1.36726,-0.299991,1.54998,1.54219,1,-0.000398153,8.24176e-08,-0.000199082,0,0,0,0,0,0,0,0,0,0,0,0,0,0,0,0,0,0,0,0,0,0,0,0,0,0,0,0,7.66388,0.000449878,0.000418477

6.54241e-21,1.23435e-20,-8.91622e-22,6.80604e-21,-1.0425e-20,9.06423e-21,7.80762e-21,-0.408996,0.478457,1.5421,0.500463,0.500298,-0.499138,0.500099,0,0,0,0,0,0,0,0,0,0,0,0,0,0,0,0,0,0,0,0,0,0,0,0,0,0,0,0,7.66266,1.07049e-05,1.02669e-05
0.119011,0.220396,-0.0138898,0.117777,-0.18227,0.157055,0.134394,-0.445325,0.634278,1.53758,0.545194,0.484082,-0.453387,0.512707,0,0,0,0,0,0,0,0,0,0,0,0,0,0,0,0,0,0,0,0,0,0,0,0,0,0,0,0,7.66266,1.07049e-05,1.02669e-05
0.238022,0.440791,-0.0277796,0.235554,-0.364539,0.314111,0.268788,-0.467948,0.790437,1.53274,0.599682,0.458615,-0.404973,0.5158,0,0,0,0,0,0,0,0,0,0,0,0,0,0,0,0,0,0,0,0,0,0,0,0,0,0,0,0,7.66266,1.07049e-05,1.02669e-05
0.357033,0.661187,-0.0416695,0.353331,-0.546809,0.471166,0.403183,-0.476535,0.941757,1.52892,0.661646,0.424329,-0.354574,0.506406,0,0,0,0,0,0,0,0,0,0,0,0,0,0,0,0,0,0,0,0,0,0,0,0,0,0,0,0,7.66266,1.07049e-05,1.02669e-05
0.476044,0.881582,-0.0555593,0.471108,-0.729078,0.628221,0.537577,-0.471839,1.08329,1.5276,0.728048,0.381791,-0.302866,0.482134,0,0,0,0,0,0,0,0,0,0,0,0,0,0,0,0,0,0,0,0,0,0,0,0,0,0,0,0,7.66266,1.07049e-05,1.02669e-05
0.595055,1.10198,-0.0694491,0.588885,-0.911348,0.785276,0.671971,-0.455593,1.21067,1.53025,0.795247,0.331698,-0.250516,0.441362,0,0,0,0,0,0,0,0,0,0,0,0,0,0,0,0,0,0,0,0,0,0,0,0,0,0,0,0,7.66266,1.07049e-05,1.02669e-05
0.714066,1.32237,-0.0833389,0.706662,-1.09362,0.942332,0.806365,-0.43031,1.32035,1.53824,0.859193,0.274861,-0.198162,0.383368,0,0,0,0,0,0,0,0,0,0,0,0,0,0,0,0,0,0,0,0,0,0,0,0,0,0,0,0,7.66266,1.07049e-05,1.02669e-05
0.833078,1.54277,-0.0972287,0.824439,-1.27589,1.09939,0.94076,-0.399009,1.40987,1.55274,0.915648,0.212196,-0.146409,0.308424,0,0,0,0,0,0,0,0,0,0,0,0,0,0,0,0,0,0,0,0,0,0,0,0,0,0,0,0,7.66266,1.07049e-05,1.02669e-05
0.952089,1.76316,-0.111119,0.942216,-1.45816,1.25644,1.07515,-0.364895,1.47791,1.57463,0.960433,0.144706,-0.0958107,0.217826,0,0,0,0,0,0,0,0,0,0,0,0,0,0,0,0,0,0,0,0,0,0,0,0,0,0,0,0,7.66266,1.07049e-05,1.02669e-05
1.0711,1.98356,-0.125008,1.05999,-1.64043,1.4135,1.20955,-0.331026,1.52432,1.60441,0.989666,0.0734661,-0.0468634,0.113878,0,0,0,0,0,0,0,0,0,0,0,0,0,0,0,0,0,0,0,0,0,0,0,0,0,0,0,0,7.66266,1.07049e-05,1.02669e-05
1.19011,2.20396,-0.138898,1.17777,-1.8227,1.57055,1.34394,-0.3,1.55,1.6422,1,-0.000398174,8.27491e-08,-0.000199076,0,0,0,0,0,0,0,0,0,0,0,0,0,0,0,0,0,0,0,0,0,0,0,0,0,0,0,0,7.66266,1.07049e-05,1.02669e-05
1.1797,2.19097,-0.145973,1.17136,-1.80922,1.57053,1.34651,-0.300129,1.55071,1.63124,1,-0.000398674,-1.07601e-07,-0.000199076,0,0,0,0,0,0,0,0,0,0,0,0,0,0,0,0,0,0,0,0,0,0,0,0,0,0,0,0,7.66266,1.07049e-05,1.02669e-05
1.16929,2.17799,-0.153048,1.16495,-1.79574,1.57051,1.34909,-0.300227,1.55124,1.62025,1,-0.00039905,-2.48583e-07,-0.000199076,0,0,0,0,0,0,0,0,0,0,0,0,0,0,0,0,0,0,0,0,0,0,0,0,0,0,0,0,7.66266,1.07049e-05,1.02669e-05
1.15888,2.16501,-0.160122,1.15854,-1.78226,1.57049,1.35166,-0.300294,1.55159,1.60921,1,-0.000399301,-3.40845e-07,-0.000199076,0,0,0,0,0,0,0,0,0,0,0,0,0,0,0,0,0,0,0,0,0,0,0,0,0,0,0,0,7.66266,1.07049e-05,1.02669e-05
1.14847,2.15203,-0.167197,1.15213,-1.76877,1.57047,1.35423,-0.300329,1.55176,1.59813,1,-0.000399426,-3.85043e-07,-0.000199076,0,0,0,0,0,0,0,0,0,0,0,0,0,0,0,0,0,0,0,0,0,0,0,0,0,0,0,0,7.66266,1.07049e-05,1.02669e-05
1.13807,2.13905,-0.174272,1.14572,-1.75529,1.57045,1.3568,-0.300331,1.55176,1.58701,1,-0.000399427,-3.81835e-07,-0.000199076,0,0,0,0,0,0,0,0,0,0,0,0,0,0,0,0,0,0,0,0,0,0,0,0,0,0,0,0,7.66266,1.07049e-05,1.02669e-05
1.12766,2.12607,-0.181347,1.13931,-1.74181,1.57043,1.35937,-0.300299,1.55159,1.57586,1,-0.000399301,-3.31883e-07,-0.000199075,0,0,0,0,0,0,0,0,0,0,0,0,0,0,0,0,0,0,0,0,0,0,0,0,0,0,0,0,7.66266,1.07049e-05,1.02669e-05
1.11725,2.11309,-0.188422,1.1329,-1.72833,1.57041,1.36195,-0.300234,1.55123,1.56467,1,-0.000399049,-2.35852e-07,-0.000199075,0,0,0,0,0,0,0,0,0,0,0,0,0,0,0,0,0,0,0,0,0,0,0,0,0,0,0,0,7.66266,1.07049e-05,1.02669e-05
1.10684,2.10011,-0.195496,1.12649,-1.71485,1.57039,1.36452,-0.300134,1.5507,1.55345,1,-0.000398671,-9.44096e-08,-0.000199074,0,0,0,0,0,0,0,0,0,0,0,0,0,0,0,0,0,0,0,0,0,0,0,0,0,0,0,0,7.66266,1.07049e-05,1.02669e-05
1.09643,2.08712,-0.202571,1.12008,-1.70137,1.57037,1.36709,-0.3,1.55,1.5422,1,-0.000398167,9.17713e-08,-0.000199074,0,0,0,0,0,0,0,0,0,0,0,0,0,0,0,0,0,0,0,0,0,0,0,0,0,0,0,0,7.66266,1.07049e-05,1.02669e-05
1.09643,2.08712,-0.202571,1.12008,-1.70137,1.57037,1.36709,-0.3,1.55,1.5422,1,-0.000398167,9.17713e-08,-0.000199074,0,0,0,0,0,0,0,0,0,0,0,0,0,0,0,0,0,0,0,0,0,0,0,0,0,0,0,0,7.66266,1.07049e-05,1.02669e-05
1.09643,2.08712,-0.202571,1.12008,-1.70137,1.57037,1.36709,-0.3,1.55,1.5422,1,-0.000398167,9.17713e-08,-0.000199074,0,0,0,0,0,0,0,0,0,0,0,0,0,0,0,0,0,0,0,0,0,0,0,0,0,0,0,0,7.66266,1.07049e-05,1.02669e-05
1.09643,2.08712,-0.202571,1.12008,-1.70137,1.57037,1.36709,-0.3,1.55,1.5422,1,-0.000398167,9.17713e-08,-0.000199074,0,0,0,0,0,0,0,0,0,0,0,0,0,0,0,0,0,0,0,0,0,0,0,0,0,0,0,0,7.66266,1.07049e-05,1.02669e-05
1.09643,2.08712,-0.202571,1.12008,-1.70137,1.57037,1.36709,-0.3,1.55,1.5422,1,-0.000398167,9.17713e-08,-0.000199074,0,0,0,0,0,0,0,0,0,0,0,0,0,0,0,0,0,0,0,0,0,0,0,0,0,0,0,0,7.66266,1.07049e-05,1.02669e-05
1.09643,2.08712,-0.202571,1.12008,-1.70137,1.57037,1.36709,-0.3,1.55,1.5422,1,-0.000398167,9.17713e-08,-0.000199074,0,0,0,0,0,0,0,0,0,0,0,0,0,0,0,0,0,0,0,0,0,0,0,0,0,0,0,0,7.66266,1.07049e-05,1.02669e-05
1.09643,2.08712,-0.202571,1.12008,-1.70137,1.57037,1.36709,-0.3,1.55,1.5422,1,-0.000398167,9.17713e-08,-0.000199074,0,0,0,0,0,0,0,0,0,0,0,0,0,0,0,0,0,0,0,0,0,0,0,0,0,0,0,0,7.66266,1.07049e-05,1.02669e-05
1.09643,2.08712,-0.202571,1.12008,-1.70137,1.57037,1.36709,-0.3,1.55,1.5422,1,-0.000398167,9.17713e-08,-0.000199074,0,0,0,0,0,0,0,0,0,0,0,0,0,0,0,0,0,0,0,0,0,0,0,0,0,0,0,0,7.66266,1.07049e-05,1.02669e-05
1.09643,2.08712,-0.202571,1.12008,-1.70137,1.57037,1.36709,-0.3,1.55,1.5422,1,-0.000398167,9.17713e-08,-0.000199074,0,0,0,0,0,0,0,0,0,0,0,0,0,0,0,0,0,0,0,0,0,0,0,0,0,0,0,0,7.66266,1.07049e-05,1.02669e-05
1.09643,2.08712,-0.202571,1.12008,-1.70137,1.57037,1.36709,-0.3,1.55,1.5422,1,-0.000398167,9.17713e-08,-0.000199074,0,0,0,0,0,0,0,0,0,0,0,0,0,0,0,0,0,0,0,0,0,0,0,0,0,0,0,0,7.66266,1.07049e-05,1.02669e-05
1.09643,2.08712,-0.202571,1.12008,-1.70137,1.57037,1.36709,-0.3,1.55,1.5422,1,-0.000398167,9.17713e-08,-0.000199074,0,0,0,0,0,0,0,0,0,0,0,0,0,0,0,0,0,0,0,0,0,0,0,0,0,0,0,0,7.66266,1.07049e-05,1.02669e-05

6.5545e-21,1.23607e-20,-8.81362e-22,6.79035e-21,-1.04131e-20,9.06242e-21,7.80926e-21,-0.408996,0.478457,1.5421,0.500463,0.500298,-0.499138,0.500099,0,0,0,0,0,0,0,0,0,0,0,0,0,0,0,0,0,0,0,0,0,0,0,0,0,0,0,0,7.66035,2.3189e-05,2.22051e-05
0.119116,0.220529,-0.0137347,0.117485,-0.182133,0.157056,0.134366,-0.445202,0.634347,1.53759,0.545194,0.484069,-0.453401,0.512707,0,0,0,0,0,0,0,0,0,0,0,0,0,0,0,0,0,0,0,0,0,0,0,0,0,0,0,0,7.66035,2.3189e-05,2.22051e-05
0.238232,0.441058,-0.0274694,0.23497,-0.364265,0.314111,0.268731,-0.467727,0.790552,1.53274,0.599682,0.458592,-0.404999,0.515801,0,0,0,0,0,0,0,0,0,0,0,0,0,0,0,0,0,0,0,0,0,0,0,0,0,0,0,0,7.66035,2.3189e-05,2.22051e-05
0.357348,0.661587,-0.0412041,0.352455,-0.546398,0.471167,0.403097,-0.476245,0.941898,1.52892,0.661646,0.424298,-0.35461,0.506406,0,0,0,0,0,0,0,0,0,0,0,0,0,0,0,0,0,0,0,0,0,0,0,0,0,0,0,0,7.66035,2.3189e-05,2.22051e-05
0.476464,0.882116,-0.0549388,0.46994,-0.728531,0.628222,0.537463,-0.471511,1.08344,1.52759,0.728048,0.381756,-0.30291,0.482135,0,0,0,0,0,0,0,0,0,0,0,0,0,0,0,0,0,0,0,0,0,0,0,0,0,0,0,0,7.66035,2.3189e-05,2.22051e-05
0.59558,1.10265,-0.0686736,0.587425,-0.910664,0.785278,0.671828,-0.455258,1.21081,1.53023,0.795247,0.331662,-0.250563,0.441363,0,0,0,0,0,0,0,0,0,0,0,0,0,0,0,0,0,0,0,0,0,0,0,0,0,0,0,0,7.66035,2.3189e-05,2.22051e-05
0.714696,1.32317,-0.0824083,0.70491,-1.0928,0.942333,0.806194,-0.429997,1.32048,1.53821,0.859193,0.274827,-0.19821,0.383369,0,0,0,0,0,0,0,0,0,0,0,0,0,0,0,0,0,0,0,0,0,0,0,0,0,0,0,0,7.66035,2.3189e-05,2.22051e-05
0.833812,1.5437,-0.096143,0.822395,-1.27493,1.09939,0.94056,-0.398745,1.40997,1.55271,0.915648,0.212166,-0.146452,0.308424,0,0,0,0,0,0,0,0,0,0,0,0,0,0,0,0,0,0,0,0,0,0,0,0,0,0,0,0,7.66035,2.3189e-05,2.22051e-05
0.952928,1.76423,-0.109878,0.93988,-1.45706,1.25644,1.07493,-0.364705,1.47797,1.57459,0.960433,0.144684,-0.0958439,0.217826,0,0,0,0,0,0,0,0,0,0,0,0,0,0,0,0,0,0,0,0,0,0,0,0,0,0,0,0,7.66035,2.3189e-05,2.22051e-05
1.07204,1.98476,-0.123612,1.05737,-1.63919,1.4135,1.20929,-0.330926,1.52435,1.60439,0.989666,0.0734538,-0.0468825,0.113878,0,0,0,0,0,0,0,0,0,0,0,0,0,0,0,0,0,0,0,0,0,0,0,0,0,0,0,0,7.66035,2.3189e-05,2.22051e-05
1.19116,2.20529,-0.137347,1.17485,-1.82133,1.57056,1.34366,-0.3,1.55,1.6422,1,-0.000398167,6.64901e-08,-0.000199087,0,0,0,0,0,0,0,0,0,0,0,0,0,0,0,0,0,0,0,0,0,0,0,0,0,0,0,0,7.66035,2.3189e-05,2.22051e-05
1.18075,2.1923,-0.144424,1.16844,-1.80785,1.57053,1.34624,-0.300129,1.55071,1.63124,1,-0.00039867,-1.24614e-07,-0.000199086,0,0,0,0,0,0,0,0,0,0,0,0,0,0,0,0,0,0,0,0,0,0,0,0,0,0,0,0,7.66035,2.3189e-05,2.22051e-05
1.17034,2.17931,-0.1515,1.16203,-1.79436,1.57051,1.34881,-0.300227,1.55124,1.62024,1,-0.000399048,-2.66172e-07,-0.000199086,0,0,0,0,0,0,0,0,0,0,0,0,0,0,0,0,0,0,0,0,0,0,0,0,0,0,0,0,7.66035,2.3189e-05,2.22051e-05
1.15993,2.16632,-0.158577,1.15562,-1.78088,1.57049,1.35139,-0.300294,1.55159,1.60921,1,-0.000399301,-3.58835e-07,-0.000199085,0,0,0,0,0,0,0,0,0,0,0,0,0,0,0,0,0,0,0,0,0,0,0,0,0,0,0,0,7.66035,2.3189e-05,2.22051e-05
1.14952,2.15333,-0.165653,1.14921,-1.7674,1.57047,1.35397,-0.300329,1.55177,1.59813,1,-0.000399429,-4.03257e-07,-0.000199084,0,0,0,0,0,0,0,0,0,0,0,0,0,0,0,0,0,0,0,0,0,0,0,0,0,0,0,0,7.66035,2.3189e-05,2.22051e-05
1.13911,2.14034,-0.172729,1.1428,-1.75392,1.57045,1.35655,-0.300331,1.55176,1.58701,1,-0.000399431,-4.00094e-07,-0.000199083,0,0,0,0,0,0,0,0,0,0,0,0,0,0,0,0,0,0,0,0,0,0,0,0,0,0,0,0,7.66035,2.3189e-05,2.22051e-05
1.12869,2.12735,-0.179806,1.13639,-1.74044,1.57043,1.35913,-0.300299,1.55159,1.57586,1,-0.000399307,-3.50008e-07,-0.000199082,0,0,0,0,0,0,0,0,0,0,0,0,0,0,0,0,0,0,0,0,0,0,0,0,0,0,0,0,7.66035,2.3189e-05,2.22051e-05
1.11828,2.11437,-0.186882,1.12998,-1.72695,1.57041,1.3617,-0.300234,1.55123,1.56467,1,-0.000399057,-2.53663e-07,-0.000199081,0,0,0,0,0,0,0,0,0,0,0,0,0,0,0,0,0,0,0,0,0,0,0,0,0,0,0,0,7.66035,2.3189e-05,2.22051e-05
1.10787,2.10138,-0.193959,1.12357,-1.71347,1.57039,1.36428,-0.300134,1.5507,1.55345,1,-0.000398681,-1.11726e-07,-0.00019908,0,0,0,0,0,0,0,0,0,0,0,0,0,0,0,0,0,0,0,0,0,0,0,0,0,0,0,0,7.66035,2.3189e-05,2.22051e-05
1.09746,2.08839,-0.201035,1.11716,-1.69999,1.57037,1.36686,-0.3,1.55,1.5422,1,-0.000398178,7.51302e-08,-0.000199079,0,0,0,0,0,0,0,0,0,0,0,0,0,0,0,0,0,0,0,0,0,0,0,0,0,0,0,0,7.66035,2.3189e-05,2.22051e-05
1.09746,2.08839,-0.201035,1.11716,-1.69999,1.57037,1.36686,-0.3,1.55,1.5422,1,-0.000398178,7.51302e-08,-0.000199079,0,0,0,0,0,0,0,0,0,0,0,0,0,0,0,0,0,0,0,0,0,0,0,0,0,0,0,0,7.66035,2.3189e-05,2.22051e-05
1.09746,2.08839,-0.201035,1.11716,-1.69999,1.57037,1.36686,-0.3,1.55,1.5422,1,-0.000398178,7.51302e-08,-0.000199079,0,0,0,0,0,0,0,0,0,0,0,0,0,0,0,0,0,0,0,0,0,0,0,0,0,0,0,0,7.66035,2.3189e-05,2.22051e-05
1.09746,2.08839,-0.201035,1.11716,-1.69999,1.57037,1.36686,-0.3,1.55,1.5422,1,-0.000398178,7.51302e-08,-0.000199079,0,0,0,0,0,0,0,0,0,0,0,0,0,0,0,0,0,0,0,0,0,0,0,0,0,0,0,0,7.66035,2.3189e-05,2.22051e-05
1.09746,2.08839,-0.201035,1.11716,-1.69999,1.57037,1.36686,-0.3,1.55,1.5422,1,-0.000398178,7.51302e-08,-0.000199079,0,0,0,0,0,0,0,0,0,0,0,0,0,0,0,0,0,0,0,0,0,0,0,0,0,0,0,0,7.66035,2.3189e-05,2.22051e-05
1.09746,2.08839,-0.201035,1.11716,-1.69999,1.57037,1.36686,-0.3,1.55,1.5422,1,-0.000398178,7.51302e-08,-0.000199079,0,0,0,0,0,0,0,0,0,0,0,0,0,0,0,0,0,0,0,0,0,0,0,0,0,0,0,0,7.66035,2.3189e-05,2.22051e-05
1.09746,2.08839,-0.201035,1.11716,-1.69999,1.57037,1.36686,-0.3,1.55,1.5422,1,-0.000398178,7.51302e-08,-0.000199079,0,0,0,0,0,0,0,0,0,0,0,0,0,0,0,0,0,0,0,0,0,0,0,0,0,0,0,0,7.66035,2.3189e-05,2.22051e-05
1.09746,2.08839,-0.201035,1.11716,-1.69999,1.57037,1.36686,-0.3,1.55,1.5422,1,-0.000398178,7.51302e-08,-0.000199079,0,0,0,0,0,0,0,0,0,0,0,0,0,0,0,0,0,0,0,0,0,0,0,0,0,0,0,0,7.66035,2.3189e-05,2.22051e-05
1.09746,2.08839,-0.201035,1.11716,-1.69999,1.57037,1.36686,-0.3,1.55,1.5422,1,-0.000398178,7.51302e-08,-0.000199079,0,0,0,0,0,0,0,0,0,0,0,0,0,0,0,0,0,0,0,0,0,0,0,0,0,0,0,0,7.66035,2.3189e-05,2.22051e-05
1.09746,2.08839,-0.201035,1.11716,-1.69999,1.57037,1.36686,-0.3,1.55,1.5422,1,-0.000398178,7.51302e-08,-0.000199079,0,0,0,0,0,0,0,0,0,0,0,0,0,0,0,0,0,0,0,0,0,0,0,0,0,0,0,0,7.66035,2.3189e-05,2.22051e-05
1.09746,2.08839,-0.201035,1.11716,-1.69999,1.57037,1.36686,-0.3,1.55,1.5422,1,-0.000398178,7.51302e-08,-0.000199079,0,0,0,0,0,0,0,0,0,0,0,0,0,0,0,0,0,0,0,0,0,0,0,0,0,0,0,0,7.66035,2.3189e-05,2.22051e-05

6.54572e-21,1.23567e-20,-8.68786e-22,6.77328e-21,-1.03886e-20,9.05869e-21,7.82085e-21,-0.408996,0.478457,1.5421,0.500463,0.500298,-0.499138,0.500099,0,0,0,0,0,0,0,0,0,0,0,0,0,0,0,0,0,0,0,0,0,0,0,0,0,0,0,0,7.65697,5.20352e-05,4.99045e-05
0.119275,0.220731,-0.0135019,0.117047,-0.181928,0.157056,0.134322,-0.445018,0.634451,1.5376,0.545194,0.484049,-0.453421,0.512707,0,0,0,0,0,0,0,0,0,0,0,0,0,0,0,0,0,0,0,0,0,0,0,0,0,0,0,0,7.65697,5.20352e-05,4.99045e-05
0.23855,0.441463,-0.0270037,0.234094,-0.363855,0.314112,0.268645,-0.467396,0.790727,1.53275,0.599682,0.458556,-0.405039,0.515801,0,0,0,0,0,0,0,0,0,0,0,0,0,0,0,0,0,0,0,0,0,0,0,0,0,0,0,0,7.65697,5.20352e-05,4.99045e-05
0.357825,0.662194,-0.0405056,0.351141,-0.545783,0.471167,0.402967,-0.475811,0.942113,1.52892,0.661646,0.424252,-0.354665,0.506406,0,0,0,0,0,0,0,0,0,0,0,0,0,0,0,0,0,0,0,0,0,0,0,0,0,0,0,0,7.65697,5.20352e-05,4.99045e-05
0.4771,0.882925,-0.0540075,0.468189,-0.72771,0.628223,0.537289,-0.471018,1.08367,1.52758,0.728048,0.381703,-0.302976,0.482135,0,0,0,0,0,0,0,0,0,0,0,0,0,0,0,0,0,0,0,0,0,0,0,0,0,0,0,0,7.65697,5.20352e-05,4.99045e-05
0.596375,1.10366,-0.0675094,0.585236,-0.909638,0.785279,0.671612,-0.454754,1.21103,1.5302,0.795247,0.331607,-0.250635,0.441363,0,0,0,0,0,0,0,0,0,0,0,0,0,0,0,0,0,0,0,0,0,0,0,0,0,0,0,0,7.65697,5.20352e-05,4.99045e-05
0.71565,1.32439,-0.0810112,0.702283,-1.09157,0.942335,0.805934,-0.429526,1.32066,1.53817,0.859193,0.274774,-0.198281,0.383369,0,0,0,0,0,0,0,0,0,0,0,0,0,0,0,0,0,0,0,0,0,0,0,0,0,0,0,0,7.65697,5.20352e-05,4.99045e-05
0.834924,1.54512,-0.0945131,0.81933,-1.27349,1.09939,0.940256,-0.39835,1.41011,1.55266,0.915648,0.212121,-0.146516,0.308424,0,0,0,0,0,0,0,0,0,0,0,0,0,0,0,0,0,0,0,0,0,0,0,0,0,0,0,0,7.65697,5.20352e-05,4.99045e-05
0.954199,1.76585,-0.108015,0.936377,-1.45542,1.25645,1.07458,-0.364418,1.47807,1.57454,0.960433,0.14465,-0.0958943,0.217827,0,0,0,0,0,0,0,0,0,0,0,0,0,0,0,0,0,0,0,0,0,0,0,0,0,0,0,0,7.65697,5.20352e-05,4.99045e-05
1.07347,1.98658,-0.121517,1.05342,-1.63735,1.4135,1.2089,-0.330774,1.5244,1.60436,0.989666,0.0734353,-0.0469114,0.113878,0,0,0,0,0,0,0,0,0,0,0,0,0,0,0,0,0,0,0,0,0,0,0,0,0,0,0,0,7.65697,5.20352e-05,4.99045e-05
1.19275,2.20731,-0.135019,1.17047,-1.81928,1.57056,1.34322,-0.299999,1.55,1.6422,1,-0.000398146,7.51765e-08,-0.00019909,0,0,0,0,0,0,0,0,0,0,0,0,0,0,0,0,0,0,0,0,0,0,0,0,0,0,0,0,7.65697,5.20352e-05,4.99045e-05
1.18234,2.19431,-0.142098,1.16406,-1.80579,1.57054,1.34581,-0.300129,1.55071,1.63124,1,-0.000398649,-1.19561e-07,-0.00019909,0,0,0,0,0,0,0,0,0,0,0,0,0,0,0,0,0,0,0,0,0,0,0,0,0,0,0,0,7.65697,5.20352e-05,4.99045e-05
1.17192,2.18131,-0.149177,1.15765,-1.79231,1.57052,1.3484,-0.300227,1.55124,1.62024,1,-0.000399028,-2.64468e-07,-0.000199091,0,0,0,0,0,0,0,0,0,0,0,0,0,0,0,0,0,0,0,0,0,0,0,0,0,0,0,0,7.65697,5.20352e-05,4.99045e-05
1.16151,2.16831,-0.156256,1.15124,-1.77882,1.5705,1.35099,-0.300294,1.55159,1.6092,1,-0.000399281,-3.60194e-07,-0.000199091,0,0,0,0,0,0,0,0,0,0,0,0,0,0,0,0,0,0,0,0,0,0,0,0,0,0,0,0,7.65697,5.20352e-05,4.99045e-05
1.15109,2.15531,-0.163335,1.14483,-1.76534,1.57048,1.35357,-0.300329,1.55177,1.59813,1,-0.000399409,-4.07391e-07,-0.000199092,0,0,0,0,0,0,0,0,0,0,0,0,0,0,0,0,0,0,0,0,0,0,0,0,0,0,0,0,7.65697,5.20352e-05,4.99045e-05
1.14068,2.1423,-0.170414,1.13842,-1.75185,1.57046,1.35616,-0.30033,1.55176,1.58701,1,-0.000399411,-4.06716e-07,-0.000199092,0,0,0,0,0,0,0,0,0,0,0,0,0,0,0,0,0,0,0,0,0,0,0,0,0,0,0,0,7.65697,5.20352e-05,4.99045e-05
1.13027,2.1293,-0.177493,1.13201,-1.73837,1.57044,1.35875,-0.300299,1.55159,1.57586,1,-0.000399287,-3.58828e-07,-0.000199093,0,0,0,0,0,0,0,0,0,0,0,0,0,0,0,0,0,0,0,0,0,0,0,0,0,0,0,0,7.65697,5.20352e-05,4.99045e-05
1.11985,2.1163,-0.184572,1.1256,-1.72488,1.57042,1.36134,-0.300234,1.55123,1.56467,1,-0.000399037,-2.6439e-07,-0.000199093,0,0,0,0,0,0,0,0,0,0,0,0,0,0,0,0,0,0,0,0,0,0,0,0,0,0,0,0,7.65697,5.20352e-05,4.99045e-05
1.10944,2.1033,-0.191651,1.11919,-1.7114,1.5704,1.36392,-0.300134,1.5507,1.55345,1,-0.00039866,-1.2407e-07,-0.000199093,0,0,0,0,0,0,0,0,0,0,0,0,0,0,0,0,0,0,0,0,0,0,0,0,0,0,0,0,7.65697,5.20352e-05,4.99045e-05
1.09902,2.0903,-0.19873,1.11278,-1.69792,1.57038,1.36651,-0.299999,1.55,1.5422,1,-0.000398157,6.14631e-08,-0.000199093,0,0,0,0,0,0,0,0,0,0,0,0,0,0,0,0,0,0,0,0,0,0,0,0,0,0,0,0,7.65697,5.20352e-05,4.99045e-05
