jianye0428/UNICAR_TrajOpt/src/pick_and_place/config/csvfile_3_position/position2/file_output_place.csv
shoulder_lift_joint,shoulder_pan_joint,elbow_joint,wrist_2_joint,wrist_1_joint,wrist_3_joint,drehkranz_joint,x,y,z,q_w,q_x,q_y,q_z,collision_1,collision_2,collision_3,collision_4,collision_5,collision_6,collision_7,collision_8,collision_9,collision_10,collision_11,collision_12,collision_13,collision_14,collision_15,collision_16,collision_17,collision_18,collision_19,collision_20,collision_21,collision_22,collision_23,collision_24,collision_25,collision_26,collision_27,collision_28,joint_velocity_cost,pose_9,pose_extra_19
1.13585,2.13574,-0.150177,1.02143,-1.6551,1.57045,1.3579,-0.3,1.55,1.5422,1,-0.000398251,7.65303e-08,-0.000199053
1.13585,2.13574,-0.150177,1.02143,-1.6551,1.57045,1.3579,-0.3,1.55,1.5422,1,-0.000398251,7.65303e-08,-0.000199053
1.13585,2.13574,-0.150177,1.02143,-1.6551,1.57045,1.3579,-0.3,1.55,1.5422,1,-0.000398251,7.65303e-08,-0.000199053
1.13585,2.13574,-0.150177,1.02143,-1.6551,1.57045,1.3579,-0.3,1.55,1.5422,1,-0.000398251,7.65303e-08,-0.000199053
1.13585,2.13574,-0.150177,1.02143,-1.6551,1.57045,1.3579,-0.3,1.55,1.5422,1,-0.000398251,7.65303e-08,-0.000199053
1.13585,2.13574,-0.150177,1.02143,-1.6551,1.57045,1.3579,-0.3,1.55,1.5422,1,-0.000398251,7.65303e-08,-0.000199053
1.13585,2.13574,-0.150177,1.02143,-1.6551,1.57045,1.3579,-0.3,1.55,1.5422,1,-0.000398251,7.65303e-08,-0.000199053
1.13585,2.13574,-0.150177,1.02143,-1.6551,1.57045,1.3579,-0.3,1.55,1.5422,1,-0.000398251,7.65303e-08,-0.000199053
1.13585,2.13574,-0.150177,1.02143,-1.6551,1.57045,1.3579,-0.3,1.55,1.5422,1,-0.000398251,7.65303e-08,-0.000199053
1.13585,2.13574,-0.150177,1.02143,-1.6551,1.57045,1.3579,-0.3,1.55,1.5422,1,-0.000398251,7.65303e-08,-0.000199053
1.13585,2.13574,-0.150177,1.02143,-1.6551,1.57045,1.3579,-0.3,1.55,1.5422,1,-0.000398251,7.65303e-08,-0.000199053
1.13585,2.13574,-0.150177,1.02143,-1.6551,1.57045,1.3579,-0.3,1.55,1.5422,1,-0.000398251,7.65303e-08,-0.000199053
1.13585,2.13574,-0.150177,1.02143,-1.6551,1.57045,1.3579,-0.3,1.55,1.5422,1,-0.000398251,7.65303e-08,-0.000199053
1.13585,2.13574,-0.150177,1.02143,-1.6551,1.57045,1.3579,-0.3,1.55,1.5422,1,-0.000398251,7.65303e-08,-0.000199053
1.13585,2.13574,-0.150177,1.02143,-1.6551,1.57045,1.3579,-0.3,1.55,1.5422,1,-0.000398251,7.65303e-08,-0.000199053
1.13585,2.13574,-0.150177,1.02143,-1.6551,1.57045,1.3579,-0.3,1.55,1.5422,1,-0.000398251,7.65303e-08,-0.000199053
1.13585,2.13574,-0.150177,1.02143,-1.6551,1.57045,1.3579,-0.3,1.55,1.5422,1,-0.000398251,7.65303e-08,-0.000199053
1.13585,2.13574,-0.150177,1.02143,-1.6551,1.57045,1.3579,-0.3,1.55,1.5422,1,-0.000398251,7.65303e-08,-0.000199053
1.13585,2.13574,-0.150177,1.02143,-1.6551,1.57045,1.3579,-0.3,1.55,1.5422,1,-0.000398251,7.65303e-08,-0.000199053
1.13585,2.13574,-0.150177,1.02143,-1.6551,1.57045,1.3579,-0.3,1.55,1.5422,1,-0.000398251,7.65303e-08,-0.000199053
1.13585,2.13574,-0.150177,1.02143,-1.6551,1.57045,1.3579,-0.3,1.55,1.5422,1,-0.000398251,7.65303e-08,-0.000199053
1.13585,2.13574,-0.150177,1.02143,-1.6551,1.57045,1.3579,-0.3,1.55,1.5422,1,-0.000398251,7.65303e-08,-0.000199053
1.13585,2.13574,-0.150177,1.02143,-1.6551,1.57045,1.3579,-0.3,1.55,1.5422,1,-0.000398251,7.65303e-08,-0.000199053
1.13585,2.13574,-0.150177,1.02143,-1.6551,1.57045,1.3579,-0.3,1.55,1.5422,1,-0.000398251,7.65303e-08,-0.000199053
1.13585,2.13574,-0.150177,1.02143,-1.6551,1.57045,1.3579,-0.3,1.55,1.5422,1,-0.000398251,7.65303e-08,-0.000199053
1.13585,2.13574,-0.150177,1.02143,-1.6551,1.57045,1.3579,-0.3,1.55,1.5422,1,-0.000398251,7.65303e-08,-0.000199053
1.13585,2.13574,-0.150177,1.02143,-1.6551,1.57045,1.3579,-0.3,1.55,1.5422,1,-0.000398251,7.65303e-08,-0.000199053
1.13585,2.13574,-0.150177,1.02143,-1.6551,1.57045,1.3579,-0.3,1.55,1.5422,1,-0.000398251,7.65303e-08,-0.000199053
1.13585,2.13574,-0.150177,1.02143,-1.6551,1.57045,1.3579,-0.3,1.55,1.5422,1,-0.000398251,7.65303e-08,-0.000199053
1.13585,2.13574,-0.150177,1.02143,-1.6551,1.57045,1.3579,-0.3,1.55,1.5422,1,-0.000398251,7.65303e-08,-0.000199053

1.13585,2.13574,-0.150177,1.02143,-1.6551,1.57045,1.3579,-0.3,1.55,1.5422,1,-0.000398251,7.65303e-08,-0.000199053,0,0,0,0,0,0,0,0,0,0,0,0,0,0,0,0,0,0,0,0,0,0,0,0,0,0,0,0,0.000875841,2.45431,22.6099
1.13679,2.13685,-0.149065,1.02143,-1.65621,1.57045,1.35773,-0.3,1.54989,1.54338,1,-0.00039824,6.48935e-08,-0.000199063,0,0,0,0,0,0,0,0,0,0,0,0,0,0,0,0,0,0,0,0,0,0,0,0,0,0,0,0,0.000875841,2.45431,22.6099
1.13772,2.13796,-0.147954,1.02143,-1.65732,1.57045,1.35755,-0.299999,1.54978,1.54456,1,-0.000398229,5.35917e-08,-0.000199073,0,0,0,0,0,0,0,0,0,0,0,0,0,0,0,0,0,0,0,0,0,0,0,0,0,0,0,0,0.000875841,2.45431,22.6099
1.13865,2.13907,-0.146843,1.02143,-1.65843,1.57045,1.35737,-0.299998,1.54967,1.54574,1,-0.000398216,4.26254e-08,-0.000199082,0,0,0,0,0,0,0,0,0,0,0,0,0,0,0,0,0,0,0,0,0,0,0,0,0,0,0,0,0.000875841,2.45431,22.6099
1.13959,2.14018,-0.145732,1.02143,-1.65954,1.57045,1.35719,-0.299997,1.54956,1.54692,1,-0.000398203,3.19953e-08,-0.000199092,0,0,0,0,0,0,0,0,0,0,0,0,0,0,0,0,0,0,0,0,0,0,0,0,0,0,0,0,0.000875841,2.45431,22.6099
1.14052,2.14129,-0.144621,1.02143,-1.66065,1.57045,1.35701,-0.299995,1.54944,1.5481,1,-0.000398189,2.17018e-08,-0.000199102,0,0,0,0,0,0,0,0,0,0,0,0,0,0,0,0,0,0,0,0,0,0,0,0,0,0,0,0,0.000875841,2.45431,22.6099
1.14145,2.1424,-0.14351,1.02143,-1.66177,1.57046,1.35684,-0.299993,1.54933,1.54928,1,-0.000398174,1.17455e-08,-0.000199111,0,0,0,0,0,0,0,0,0,0,0,0,0,0,0,0,0,0,0,0,0,0,0,0,0,0,0,0,0.000875841,2.45431,22.6099
1.14239,2.14352,-0.142399,1.02143,-1.66288,1.57046,1.35666,-0.29999,1.54921,1.55046,1,-0.000398158,2.12689e-09,-0.000199121,0,0,0,0,0,0,0,0,0,0,0,0,0,0,0,0,0,0,0,0,0,0,0,0,0,0,0,0,0.000875841,2.45431,22.6099
1.14332,2.14463,-0.141288,1.02143,-1.66399,1.57046,1.35648,-0.299987,1.54909,1.55164,1,-0.000398141,-7.15346e-09,-0.000199131,0,0,0,0,0,0,0,0,0,0,0,0,0,0,0,0,0,0,0,0,0,0,0,0,0,0,0,0,0.000875841,2.45431,22.6099
1.14426,2.14574,-0.140177,1.02143,-1.6651,1.57046,1.3563,-0.299983,1.54897,1.55281,1,-0.000398123,-1.6095e-08,-0.00019914,0,0,0,0,0,0,0,0,0,0,0,0,0,0,0,0,0,0,0,0,0,0,0,0,0,0,0,0,0.000875841,2.45431,22.6099
1.14442,2.14374,-0.142177,1.02143,-1.6631,1.57046,1.35746,-0.30284,1.54863,1.5507,1,-0.000398136,-2.20016e-07,0.000300868,0,0,0,0,0,0,0,0,0,0,0,0,0,0,0,0,0,0,0,0,0,0,0,0,0,0,0,0,0.000875841,2.45431,22.6099
1.14458,2.14174,-0.144177,1.02143,-1.6611,1.57046,1.35862,-0.305694,1.54828,1.54857,1,-0.000398146,-4.22857e-07,0.000800876,0,0,0,0,0,0,0,0,0,0,0,0,0,0,0,0,0,0,0,0,0,0,0,0,0,0,0,0,0.000875841,2.45431,22.6099
1.14474,2.13974,-0.146177,1.02143,-1.6591,1.57045,1.35978,-0.308547,1.54792,1.54645,0.999999,-0.000398153,-6.24609e-07,0.00130088,0,0,0,0,0,0,0,0,0,0,0,0,0,0,0,0,0,0,0,0,0,0,0,0,0,0,0,0,0.000875841,2.45431,22.6099
1.14489,2.13774,-0.148177,1.02143,-1.6571,1.57045,1.36094,-0.311398,1.54755,1.54433,0.999998,-0.000398157,-8.25263e-07,0.00180089,0,0,0,0,0,0,0,0,0,0,0,0,0,0,0,0,0,0,0,0,0,0,0,0,0,0,0,0,0.000875841,2.45431,22.6099
1.14505,2.13574,-0.150177,1.02143,-1.6551,1.57045,1.3621,-0.314248,1.54717,1.5422,0.999997,-0.000398158,-1.02481e-06,0.0023009,0,0,0,0,0,0,0,0,0,0,0,0,0,0,0,0,0,0,0,0,0,0,0,0,0,0,0,0,0.000875841,2.45431,22.6099
1.14521,2.13374,-0.152177,1.02143,-1.6531,1.57044,1.36326,-0.317096,1.54678,1.54007,0.999996,-0.000398156,-1.22324e-06,0.0028009,0,0,0,0,0,0,0,0,0,0,0,0,0,0,0,0,0,0,0,0,0,0,0,0,0,0,0,0,0.000875841,2.45431,22.6099
1.14537,2.13174,-0.154177,1.02143,-1.6511,1.57044,1.36442,-0.319942,1.54638,1.53794,0.999994,-0.000398151,-1.42055e-06,0.00330091,0,0,0,0,0,0,0,0,0,0,0,0,0,0,0,0,0,0,0,0,0,0,0,0,0,0,0,0,0.000875841,2.45431,22.6099
1.14553,2.12974,-0.156177,1.02143,-1.6491,1.57044,1.36558,-0.322786,1.54597,1.53581,0.999993,-0.000398142,-1.61672e-06,0.00380092,0,0,0,0,0,0,0,0,0,0,0,0,0,0,0,0,0,0,0,0,0,0,0,0,0,0,0,0,0.000875841,2.45431,22.6099
1.14569,2.12774,-0.158177,1.02143,-1.6471,1.57043,1.36674,-0.325628,1.54555,1.53368,0.999991,-0.000398131,-1.81175e-06,0.00430092,0,0,0,0,0,0,0,0,0,0,0,0,0,0,0,0,0,0,0,0,0,0,0,0,0,0,0,0,0.000875841,2.45431,22.6099
1.14585,2.12574,-0.160177,1.02143,-1.6451,1.57043,1.3679,-0.328469,1.54511,1.53154,0.999988,-0.000398117,-2.00563e-06,0.00480092,0,0,0,0,0,0,0,0,0,0,0,0,0,0,0,0,0,0,0,0,0,0,0,0,0,0,0,0,0.000875841,2.45431,22.6099
1.14585,2.12574,-0.160177,1.02143,-1.6451,1.57043,1.3679,-0.328469,1.54511,1.53154,0.999988,-0.000398117,-2.00563e-06,0.00480092,0,0,0,0,0,0,0,0,0,0,0,0,0,0,0,0,0,0,0,0,0,0,0,0,0,0,0,0,0.000875841,2.45431,22.6099
1.14585,2.12574,-0.160177,1.02143,-1.6451,1.57043,1.3679,-0.328469,1.54511,1.53154,0.999988,-0.000398117,-2.00563e-06,0.00480092,0,0,0,0,0,0,0,0,0,0,0,0,0,0,0,0,0,0,0,0,0,0,0,0,0,0,0,0,0.000875841,2.45431,22.6099
1.14585,2.12574,-0.160177,1.02143,-1.6451,1.57043,1.3679,-0.328469,1.54511,1.53154,0.999988,-0.000398117,-2.00563e-06,0.00480092,0,0,0,0,0,0,0,0,0,0,0,0,0,0,0,0,0,0,0,0,0,0,0,0,0,0,0,0,0.000875841,2.45431,22.6099
1.14585,2.12574,-0.160177,1.02143,-1.6451,1.57043,1.3679,-0.328469,1.54511,1.53154,0.999988,-0.000398117,-2.00563e-06,0.00480092,0,0,0,0,0,0,0,0,0,0,0,0,0,0,0,0,0,0,0,0,0,0,0,0,0,0,0,0,0.000875841,2.45431,22.6099
1.14585,2.12574,-0.160177,1.02143,-1.6451,1.57043,1.3679,-0.328469,1.54511,1.53154,0.999988,-0.000398117,-2.00563e-06,0.00480092,0,0,0,0,0,0,0,0,0,0,0,0,0,0,0,0,0,0,0,0,0,0,0,0,0,0,0,0,0.000875841,2.45431,22.6099
1.14585,2.12574,-0.160177,1.02143,-1.6451,1.57043,1.3679,-0.328469,1.54511,1.53154,0.999988,-0.000398117,-2.00563e-06,0.00480092,0,0,0,0,0,0,0,0,0,0,0,0,0,0,0,0,0,0,0,0,0,0,0,0,0,0,0,0,0.000875841,2.45431,22.6099
1.14585,2.12574,-0.160177,1.02143,-1.6451,1.57043,1.3679,-0.328469,1.54511,1.53154,0.999988,-0.000398117,-2.00563e-06,0.00480092,0,0,0,0,0,0,0,0,0,0,0,0,0,0,0,0,0,0,0,0,0,0,0,0,0,0,0,0,0.000875841,2.45431,22.6099
1.14585,2.12574,-0.160177,1.02143,-1.6451,1.57043,1.3679,-0.328469,1.54511,1.53154,0.999988,-0.000398117,-2.00563e-06,0.00480092,0,0,0,0,0,0,0,0,0,0,0,0,0,0,0,0,0,0,0,0,0,0,0,0,0,0,0,0,0.000875841,2.45431,22.6099
1.14585,2.12574,-0.160177,1.02143,-1.6451,1.57043,1.3679,-0.328469,1.54511,1.53154,0.999988,-0.000398117,-2.00563e-06,0.00480092,0,0,0,0,0,0,0,0,0,0,0,0,0,0,0,0,0,0,0,0,0,0,0,0,0,0,0,0,0.000875841,2.45431,22.6099
1.14585,2.12574,-0.160177,1.02143,-1.6451,1.57043,1.3679,-0.328469,1.54511,1.53154,0.999988,-0.000398117,-2.00563e-06,0.00480092,0,0,0,0,0,0,0,0,0,0,0,0,0,0,0,0,0,0,0,0,0,0,0,0,0,0,0,0,0.000875841,2.45431,22.6099

1.13585,2.13574,-0.150177,1.02143,-1.6551,1.57045,1.3579,-0.3,1.55,1.5422,1,-0.000398251,7.65303e-08,-0.000199053,0,0,0,0,0,0,0,0,0,0,0,0,0,0,0,0,0,0,0,0,0,0,0,0,0,0,0,0,0.00115821,2.43996,22.5584
1.13693,2.13702,-0.148899,1.02143,-1.65638,1.57045,1.3577,-0.300002,1.54988,1.54356,1,-0.000398232,8.0741e-08,-0.000199058,0,0,0,0,0,0,0,0,0,0,0,0,0,0,0,0,0,0,0,0,0,0,0,0,0,0,0,0,0.00115821,2.43996,22.5584
1.138,2.13829,-0.147621,1.02143,-1.65765,1.57045,1.3575,-0.300004,1.54975,1.54492,1,-0.000398213,8.53924e-08,-0.000199063,0,0,0,0,0,0,0,0,0,0,0,0,0,0,0,0,0,0,0,0,0,0,0,0,0,0,0,0,0.00115821,2.43996,22.5584
1.13908,2.13957,-0.146343,1.02143,-1.65893,1.57045,1.35729,-0.300005,1.54962,1.54627,1,-0.000398192,9.04855e-08,-0.000199067,0,0,0,0,0,0,0,0,0,0,0,0,0,0,0,0,0,0,0,0,0,0,0,0,0,0,0,0,0.00115821,2.43996,22.5584
1.14015,2.14085,-0.145065,1.02143,-1.66021,1.57045,1.35709,-0.300005,1.54949,1.54763,1,-0.000398171,9.6021e-08,-0.000199072,0,0,0,0,0,0,0,0,0,0,0,0,0,0,0,0,0,0,0,0,0,0,0,0,0,0,0,0,0.00115821,2.43996,22.5584
1.14123,2.14213,-0.143788,1.02143,-1.66149,1.57046,1.35689,-0.300005,1.54936,1.54899,1,-0.000398148,1.02e-07,-0.000199077,0,0,0,0,0,0,0,0,0,0,0,0,0,0,0,0,0,0,0,0,0,0,0,0,0,0,0,0,0.00115821,2.43996,22.5584
1.1423,2.1434,-0.14251,1.02143,-1.66277,1.57046,1.35669,-0.300005,1.54922,1.55034,1,-0.000398123,1.08423e-07,-0.000199081,0,0,0,0,0,0,0,0,0,0,0,0,0,0,0,0,0,0,0,0,0,0,0,0,0,0,0,0,0.00115821,2.43996,22.5584
1.14338,2.14468,-0.141232,1.02143,-1.66404,1.57046,1.35648,-0.300003,1.54908,1.5517,1,-0.000398098,1.1529e-07,-0.000199086,0,0,0,0,0,0,0,0,0,0,0,0,0,0,0,0,0,0,0,0,0,0,0,0,0,0,0,0,0.00115821,2.43996,22.5584
1.14445,2.14596,-0.139954,1.02143,-1.66532,1.57046,1.35628,-0.300002,1.54894,1.55305,1,-0.000398071,1.22604e-07,-0.000199091,0,0,0,0,0,0,0,0,0,0,0,0,0,0,0,0,0,0,0,0,0,0,0,0,0,0,0,0,0.00115821,2.43996,22.5584
1.14553,2.14724,-0.138677,1.02144,-1.6666,1.57046,1.35608,-0.3,1.5488,1.5544,1,-0.000398043,1.30364e-07,-0.000199095,0,0,0,0,0,0,0,0,0,0,0,0,0,0,0,0,0,0,0,0,0,0,0,0,0,0,0,0,0.00115821,2.43996,22.5584
1.14571,2.14494,-0.140977,1.02143,-1.6643,1.57046,1.35741,-0.303283,1.54842,1.55197,1,-0.000398061,-1.04898e-07,0.000375908,0,0,0,0,0,0,0,0,0,0,0,0,0,0,0,0,0,0,0,0,0,0,0,0,0,0,0,0,0.00115821,2.43996,22.5584
1.14589,2.14264,-0.143277,1.02143,-1.662,1.57046,1.35874,-0.306564,1.54802,1.54953,0.999999,-0.000398075,-3.38735e-07,0.000950912,0,0,0,0,0,0,0,0,0,0,0,0,0,0,0,0,0,0,0,0,0,0,0,0,0,0,0,0,0.00115821,2.43996,22.5584
1.14608,2.14034,-0.145577,1.02143,-1.6597,1.57045,1.36008,-0.309842,1.5476,1.54709,0.999999,-0.000398085,-5.71133e-07,0.00152591,0,0,0,0,0,0,0,0,0,0,0,0,0,0,0,0,0,0,0,0,0,0,0,0,0,0,0,0,0.00115821,2.43996,22.5584
1.14626,2.13804,-0.147877,1.02143,-1.6574,1.57045,1.36141,-0.313119,1.54718,1.54465,0.999998,-0.00039809,-8.0208e-07,0.00210092,0,0,0,0,0,0,0,0,0,0,0,0,0,0,0,0,0,0,0,0,0,0,0,0,0,0,0,0,0.00115821,2.43996,22.5584
1.14644,2.13574,-0.150177,1.02143,-1.6551,1.57045,1.36274,-0.316394,1.54674,1.5422,0.999996,-0.000398092,-1.03156e-06,0.00267592,0,0,0,0,0,0,0,0,0,0,0,0,0,0,0,0,0,0,0,0,0,0,0,0,0,0,0,0,0.00115821,2.43996,22.5584
1.14662,2.13344,-0.152477,1.02143,-1.6528,1.57044,1.36407,-0.319666,1.54628,1.53975,0.999995,-0.000398089,-1.25956e-06,0.00325092,0,0,0,0,0,0,0,0,0,0,0,0,0,0,0,0,0,0,0,0,0,0,0,0,0,0,0,0,0.00115821,2.43996,22.5584
1.14681,2.13114,-0.154777,1.02143,-1.6505,1.57044,1.36541,-0.322935,1.54581,1.5373,0.999993,-0.000398083,-1.48607e-06,0.00382592,0,0,0,0,0,0,0,0,0,0,0,0,0,0,0,0,0,0,0,0,0,0,0,0,0,0,0,0,0.00115821,2.43996,22.5584
1.14699,2.12884,-0.157077,1.02143,-1.6482,1.57044,1.36674,-0.326203,1.54533,1.53485,0.99999,-0.000398072,-1.71107e-06,0.00440092,0,0,0,0,0,0,0,0,0,0,0,0,0,0,0,0,0,0,0,0,0,0,0,0,0,0,0,0,0.00115821,2.43996,22.5584
1.14717,2.12654,-0.159377,1.02143,-1.6459,1.57043,1.36807,-0.329467,1.54484,1.5324,0.999988,-0.000398057,-1.93456e-06,0.00497592,0,0,0,0,0,0,0,0,0,0,0,0,0,0,0,0,0,0,0,0,0,0,0,0,0,0,0,0,0.00115821,2.43996,22.5584
1.14735,2.12424,-0.161677,1.02143,-1.6436,1.57043,1.3694,-0.33273,1.54433,1.52994,0.999985,-0.000398038,-2.15651e-06,0.00555091,0,0,0,0,0,0,0,0,0,0,0,0,0,0,0,0,0,0,0,0,0,0,0,0,0,0,0,0,0.00115821,2.43996,22.5584
1.14735,2.12424,-0.161677,1.02143,-1.6436,1.57043,1.3694,-0.33273,1.54433,1.52994,0.999985,-0.000398038,-2.15651e-06,0.00555091,0,0,0,0,0,0,0,0,0,0,0,0,0,0,0,0,0,0,0,0,0,0,0,0,0,0,0,0,0.00115821,2.43996,22.5584
1.14735,2.12424,-0.161677,1.02143,-1.6436,1.57043,1.3694,-0.33273,1.54433,1.52994,0.999985,-0.000398038,-2.15651e-06,0.00555091,0,0,0,0,0,0,0,0,0,0,0,0,0,0,0,0,0,0,0,0,0,0,0,0,0,0,0,0,0.00115821,2.43996,22.5584
1.14735,2.12424,-0.161677,1.02143,-1.6436,1.57043,1.3694,-0.33273,1.54433,1.52994,0.999985,-0.000398038,-2.15651e-06,0.00555091,0,0,0,0,0,0,0,0,0,0,0,0,0,0,0,0,0,0,0,0,0,0,0,0,0,0,0,0,0.00115821,2.43996,22.5584
1.14735,2.12424,-0.161677,1.02143,-1.6436,1.57043,1.3694,-0.33273,1.54433,1.52994,0.999985,-0.000398038,-2.15651e-06,0.00555091,0,0,0,0,0,0,0,0,0,0,0,0,0,0,0,0,0,0,0,0,0,0,0,0,0,0,0,0,0.00115821,2.43996,22.5584
1.14735,2.12424,-0.161677,1.02143,-1.6436,1.57043,1.3694,-0.33273,1.54433,1.52994,0.999985,-0.000398038,-2.15651e-06,0.00555091,0,0,0,0,0,0,0,0,0,0,0,0,0,0,0,0,0,0,0,0,0,0,0,0,0,0,0,0,0.00115821,2.43996,22.5584
1.14735,2.12424,-0.161677,1.02143,-1.6436,1.57043,1.3694,-0.33273,1.54433,1.52994,0.999985,-0.000398038,-2.15651e-06,0.00555091,0,0,0,0,0,0,0,0,0,0,0,0,0,0,0,0,0,0,0,0,0,0,0,0,0,0,0,0,0.00115821,2.43996,22.5584
1.14735,2.12424,-0.161677,1.02143,-1.6436,1.57043,1.3694,-0.33273,1.54433,1.52994,0.999985,-0.000398038,-2.15651e-06,0.00555091,0,0,0,0,0,0,0,0,0,0,0,0,0,0,0,0,0,0,0,0,0,0,0,0,0,0,0,0,0.00115821,2.43996,22.5584
1.14735,2.12424,-0.161677,1.02143,-1.6436,1.57043,1.3694,-0.33273,1.54433,1.52994,0.999985,-0.000398038,-2.15651e-06,0.00555091,0,0,0,0,0,0,0,0,0,0,0,0,0,0,0,0,0,0,0,0,0,0,0,0,0,0,0,0,0.00115821,2.43996,22.5584
1.14735,2.12424,-0.161677,1.02143,-1.6436,1.57043,1.3694,-0.33273,1.54433,1.52994,0.999985,-0.000398038,-2.15651e-06,0.00555091,0,0,0,0,0,0,0,0,0,0,0,0,0,0,0,0,0,0,0,0,0,0,0,0,0,0,0,0,0.00115821,2.43996,22.5584
1.14735,2.12424,-0.161677,1.02143,-1.6436,1.57043,1.3694,-0.33273,1.54433,1.52994,0.999985,-0.000398038,-2.15651e-06,0.00555091,0,0,0,0,0,0,0,0,0,0,0,0,0,0,0,0,0,0,0,0,0,0,0,0,0,0,0,0,0.00115821,2.43996,22.5584

1.13585,2.13574,-0.150177,1.02143,-1.6551,1.57045,1.3579,-0.3,1.55,1.5422,1,-0.000398251,7.65303e-08,-0.000199053,0,0,0,0,0,0,0,0,0,0,0,0,0,0,0,0,0,0,0,0,0,0,0,0,0,0,0,0,0.00165692,2.41872,22.4811
1.13714,2.13727,-0.148649,1.02143,-1.65663,1.57045,1.35766,-0.300003,1.54985,1.54382,1,-0.000398255,7.43342e-08,-0.000199057,0,0,0,0,0,0,0,0,0,0,0,0,0,0,0,0,0,0,0,0,0,0,0,0,0,0,0,0,0.00165692,2.41872,22.4811
1.13843,2.13879,-0.147121,1.02143,-1.65815,1.57045,1.35742,-0.300005,1.5497,1.54545,1,-0.000398257,7.27811e-08,-0.00019906,0,0,0,0,0,0,0,0,0,0,0,0,0,0,0,0,0,0,0,0,0,0,0,0,0,0,0,0,0.00165692,2.41872,22.4811
1.13971,2.14032,-0.145593,1.02143,-1.65968,1.57045,1.35718,-0.300007,1.54954,1.54707,1,-0.000398258,7.18725e-08,-0.000199063,0,0,0,0,0,0,0,0,0,0,0,0,0,0,0,0,0,0,0,0,0,0,0,0,0,0,0,0,0.00165692,2.41872,22.4811
1.141,2.14185,-0.144065,1.02143,-1.66121,1.57046,1.35693,-0.300007,1.54938,1.54869,1,-0.000398257,7.16097e-08,-0.000199066,0,0,0,0,0,0,0,0,0,0,0,0,0,0,0,0,0,0,0,0,0,0,0,0,0,0,0,0,0.00165692,2.41872,22.4811
1.14228,2.14338,-0.142538,1.02143,-1.66274,1.57046,1.35669,-0.300007,1.54922,1.55031,1,-0.000398254,7.19941e-08,-0.000199069,0,0,0,0,0,0,0,0,0,0,0,0,0,0,0,0,0,0,0,0,0,0,0,0,0,0,0,0,0.00165692,2.41872,22.4811
1.14357,2.1449,-0.14101,1.02143,-1.66427,1.57046,1.35645,-0.300006,1.54906,1.55193,1,-0.000398249,7.30271e-08,-0.000199072,0,0,0,0,0,0,0,0,0,0,0,0,0,0,0,0,0,0,0,0,0,0,0,0,0,0,0,0,0.00165692,2.41872,22.4811
1.14485,2.14643,-0.139482,1.02143,-1.66579,1.57046,1.35621,-0.300005,1.54889,1.55355,1,-0.000398243,7.47101e-08,-0.000199075,0,0,0,0,0,0,0,0,0,0,0,0,0,0,0,0,0,0,0,0,0,0,0,0,0,0,0,0,0.00165692,2.41872,22.4811
1.14614,2.14796,-0.137954,1.02144,-1.66732,1.57047,1.35597,-0.300002,1.54872,1.55517,1,-0.000398235,7.70445e-08,-0.000199079,0,0,0,0,0,0,0,0,0,0,0,0,0,0,0,0,0,0,0,0,0,0,0,0,0,0,0,0,0.00165692,2.41872,22.4811
1.14743,2.14949,-0.136427,1.02144,-1.66885,1.57047,1.35572,-0.299999,1.54854,1.55678,1,-0.000398225,8.00317e-08,-0.000199082,0,0,0,0,0,0,0,0,0,0,0,0,0,0,0,0,0,0,0,0,0,0,0,0,0,0,0,0,0.00165692,2.41872,22.4811
1.14764,2.14674,-0.139176,1.02144,-1.6661,1.57046,1.35732,-0.303922,1.54809,1.55387,1,-0.000398132,-1.73489e-07,0.00048735,0,0,0,0,0,0,0,0,0,0,0,0,0,0,0,0,0,0,0,0,0,0,0,0,0,0,0,0,0.00165692,2.41872,22.4811
1.14786,2.14399,-0.141925,1.02143,-1.66335,1.57046,1.35891,-0.307842,1.54762,1.55096,0.999999,-0.000398032,-4.24427e-07,0.00117378,0,0,0,0,0,0,0,0,0,0,0,0,0,0,0,0,0,0,0,0,0,0,0,0,0,0,0,0,0.00165692,2.41872,22.4811
1.14808,2.14124,-0.144674,1.02143,-1.6606,1.57045,1.3605,-0.31176,1.54713,1.54805,0.999998,-0.000397927,-6.72746e-07,0.00186021,0,0,0,0,0,0,0,0,0,0,0,0,0,0,0,0,0,0,0,0,0,0,0,0,0,0,0,0,0.00165692,2.41872,22.4811
1.14829,2.13849,-0.147423,1.02143,-1.65785,1.57045,1.3621,-0.315674,1.54661,1.54513,0.999997,-0.000397816,-9.18418e-07,0.00254664,0,0,0,0,0,0,0,0,0,0,0,0,0,0,0,0,0,0,0,0,0,0,0,0,0,0,0,0,0.00165692,2.41872,22.4811
1.14851,2.13574,-0.150173,1.02143,-1.6551,1.57045,1.36369,-0.319584,1.54608,1.54221,0.999995,-0.000397699,-1.16142e-06,0.00323307,0,0,0,0,0,0,0,0,0,0,0,0,0,0,0,0,0,0,0,0,0,0,0,0,0,0,0,0,0.00165692,2.41872,22.4811
1.14873,2.13299,-0.152922,1.02143,-1.65235,1.57044,1.36528,-0.323492,1.54553,1.53928,0.999992,-0.000397576,-1.40172e-06,0.0039195,0,0,0,0,0,0,0,0,0,0,0,0,0,0,0,0,0,0,0,0,0,0,0,0,0,0,0,0,0.00165692,2.41872,22.4811
1.14894,2.13025,-0.155671,1.02143,-1.64961,1.57044,1.36687,-0.327396,1.54496,1.53635,0.999989,-0.000397448,-1.6393e-06,0.00460592,0,0,0,0,0,0,0,0,0,0,0,0,0,0,0,0,0,0,0,0,0,0,0,0,0,0,0,0,0.00165692,2.41872,22.4811
1.14916,2.1275,-0.15842,1.02143,-1.64686,1.57043,1.36847,-0.331296,1.54436,1.53342,0.999986,-0.000397314,-1.87415e-06,0.00529234,0,0,0,0,0,0,0,0,0,0,0,0,0,0,0,0,0,0,0,0,0,0,0,0,0,0,0,0,0.00165692,2.41872,22.4811
1.14938,2.12475,-0.16117,1.02143,-1.64411,1.57043,1.37006,-0.335193,1.54375,1.53049,0.999982,-0.000397175,-2.10624e-06,0.00597876,0,0,0,0,0,0,0,0,0,0,0,0,0,0,0,0,0,0,0,0,0,0,0,0,0,0,0,0,0.00165692,2.41872,22.4811
1.14959,2.122,-0.163919,1.02143,-1.64136,1.57042,1.37165,-0.339086,1.54312,1.52755,0.999978,-0.000397029,-2.33558e-06,0.00666518,0,0,0,0,0,0,0,0,0,0,0,0,0,0,0,0,0,0,0,0,0,0,0,0,0,0,0,0,0.00165692,2.41872,22.4811
1.14926,2.12224,-0.163515,1.02164,-1.64135,1.57035,1.37165,-0.338301,1.54339,1.52817,0.99998,-0.000118958,0.00013945,0.00637711,0,0,0,0,0,0,0,0,0,0,0,0,0,0,0,0,0,0,0,0,0,0,0,0,0,0,0,0,0.00165692,2.41872,22.4811
1.14926,2.12224,-0.163514,1.02164,-1.64135,1.57035,1.37165,-0.338301,1.54339,1.52817,0.99998,-0.000118749,0.000139584,0.00637708,0,0,0,0,0,0,0,0,0,0,0,0,0,0,0,0,0,0,0,0,0,0,0,0,0,0,0,0,0.00165692,2.41872,22.4811
1.14926,2.12224,-0.163514,1.02164,-1.64135,1.57035,1.37165,-0.338301,1.54339,1.52817,0.99998,-0.000118548,0.000139713,0.00637705,0,0,0,0,0,0,0,0,0,0,0,0,0,0,0,0,0,0,0,0,0,0,0,0,0,0,0,0,0.00165692,2.41872,22.4811
1.14926,2.12224,-0.163514,1.02164,-1.64135,1.57035,1.37165,-0.338301,1.54339,1.52817,0.99998,-0.000118361,0.000139832,0.00637702,0,0,0,0,0,0,0,0,0,0,0,0,0,0,0,0,0,0,0,0,0,0,0,0,0,0,0,0,0.00165692,2.41872,22.4811
1.14926,2.12224,-0.163514,1.02164,-1.64135,1.57035,1.37165,-0.338301,1.54339,1.52817,0.99998,-0.000118193,0.00013994,0.006377,0,0,0,0,0,0,0,0,0,0,0,0,0,0,0,0,0,0,0,0,0,0,0,0,0,0,0,0,0.00165692,2.41872,22.4811
1.14926,2.12224,-0.163513,1.02164,-1.64135,1.57035,1.37165,-0.3383,1.54339,1.52817,0.99998,-0.000118048,0.000140032,0.00637698,0,0,0,0,0,0,0,0,0,0,0,0,0,0,0,0,0,0,0,0,0,0,0,0,0,0,0,0,0.00165692,2.41872,22.4811
1.14926,2.12224,-0.163513,1.02164,-1.64135,1.57035,1.37165,-0.3383,1.54339,1.52817,0.99998,-0.00011793,0.000140107,0.00637696,0,0,0,0,0,0,0,0,0,0,0,0,0,0,0,0,0,0,0,0,0,0,0,0,0,0,0,0,0.00165692,2.41872,22.4811
1.14926,2.12224,-0.163513,1.02164,-1.64135,1.57035,1.37165,-0.3383,1.54339,1.52817,0.99998,-0.000117844,0.000140162,0.00637695,0,0,0,0,0,0,0,0,0,0,0,0,0,0,0,0,0,0,0,0,0,0,0,0,0,0,0,0,0.00165692,2.41872,22.4811
1.14926,2.12224,-0.163513,1.02164,-1.64135,1.57035,1.37165,-0.3383,1.54339,1.52817,0.99998,-0.000117791,0.000140196,0.00637694,0,0,0,0,0,0,0,0,0,0,0,0,0,0,0,0,0,0,0,0,0,0,0,0,0,0,0,0,0.00165692,2.41872,22.4811
1.14926,2.12224,-0.163513,1.02164,-1.64135,1.57035,1.37165,-0.3383,1.54339,1.52817,0.99998,-0.000117773,0.000140208,0.00637694,0,0,0,0,0,0,0,0,0,0,0,0,0,0,0,0,0,0,0,0,0,0,0,0,0,0,0,0,0.00165692,2.41872,22.4811

1.13585,2.13574,-0.150177,1.02143,-1.6551,1.57045,1.3579,-0.3,1.55,1.5422,1,-0.000398251,7.65303e-08,-0.000199053,0,0,0,0,0,0,0,0,0,0,0,0,0,0,0,0,0,0,0,0,0,0,0,0,0,0,0,0,0.00222622,2.38702,22.4158
1.13746,2.13764,-0.148274,1.02143,-1.657,1.57045,1.3576,-0.300005,1.54981,1.54422,1,-0.000398251,6.43671e-08,-0.000199061,0,0,0,0,0,0,0,0,0,0,0,0,0,0,0,0,0,0,0,0,0,0,0,0,0,0,0,0,0.00222622,2.38702,22.4158
1.13906,2.13954,-0.146371,1.02143,-1.6589,1.57045,1.3573,-0.300008,1.54962,1.54624,1,-0.000398249,5.31994e-08,-0.000199069,0,0,0,0,0,0,0,0,0,0,0,0,0,0,0,0,0,0,0,0,0,0,0,0,0,0,0,0,0.00222622,2.38702,22.4158
1.14066,2.14145,-0.144468,1.02143,-1.66081,1.57046,1.357,-0.30001,1.54943,1.54826,1,-0.000398245,4.30298e-08,-0.000199076,0,0,0,0,0,0,0,0,0,0,0,0,0,0,0,0,0,0,0,0,0,0,0,0,0,0,0,0,0.00222622,2.38702,22.4158
1.14226,2.14335,-0.142565,1.02143,-1.66271,1.57046,1.3567,-0.300011,1.54922,1.55028,1,-0.000398237,3.3861e-08,-0.000199084,0,0,0,0,0,0,0,0,0,0,0,0,0,0,0,0,0,0,0,0,0,0,0,0,0,0,0,0,0.00222622,2.38702,22.4158
1.14386,2.14525,-0.140663,1.02143,-1.66461,1.57046,1.3564,-0.300011,1.54902,1.5523,1,-0.000398227,2.56958e-08,-0.000199092,0,0,0,0,0,0,0,0,0,0,0,0,0,0,0,0,0,0,0,0,0,0,0,0,0,0,0,0,0.00222622,2.38702,22.4158
1.14547,2.14715,-0.13876,1.02143,-1.66652,1.57046,1.3561,-0.30001,1.54881,1.55432,1,-0.000398215,1.85369e-08,-0.000199099,0,0,0,0,0,0,0,0,0,0,0,0,0,0,0,0,0,0,0,0,0,0,0,0,0,0,0,0,0.00222622,2.38702,22.4158
1.14707,2.14906,-0.136857,1.02144,-1.66842,1.57047,1.3558,-0.300007,1.54859,1.55633,1,-0.000398199,1.2387e-08,-0.000199107,0,0,0,0,0,0,0,0,0,0,0,0,0,0,0,0,0,0,0,0,0,0,0,0,0,0,0,0,0.00222622,2.38702,22.4158
1.14867,2.15096,-0.134954,1.02144,-1.67032,1.57047,1.3555,-0.300003,1.54837,1.55834,1,-0.000398181,7.2487e-09,-0.000199115,0,0,0,0,0,0,0,0,0,0,0,0,0,0,0,0,0,0,0,0,0,0,0,0,0,0,0,0,0.00222622,2.38702,22.4158
1.15027,2.15286,-0.133052,1.02144,-1.67222,1.57047,1.35519,-0.299998,1.54815,1.56035,1,-0.00039816,3.12478e-09,-0.000199122,0,0,0,0,0,0,0,0,0,0,0,0,0,0,0,0,0,0,0,0,0,0,0,0,0,0,0,0,0.00222622,2.38702,22.4158
1.15054,2.14944,-0.135801,1.02119,-1.66923,1.57047,1.35718,-0.304738,1.54737,1.5573,1,-0.000398199,-3.4481e-07,0.000656063,0,0,0,0,0,0,0,0,0,0,0,0,0,0,0,0,0,0,0,0,0,0,0,0,0,0,0,0,0.00222622,2.38702,22.4158
1.15081,2.14602,-0.13855,1.02094,-1.66623,1.57046,1.35916,-0.309473,1.54656,1.55425,0.999999,-0.000398229,-6.8961e-07,0.00151125,0,0,0,0,0,0,0,0,0,0,0,0,0,0,0,0,0,0,0,0,0,0,0,0,0,0,0,0,0.00222622,2.38702,22.4158
1.15108,2.14259,-0.141299,1.02069,-1.66323,1.57046,1.36114,-0.314205,1.54572,1.5512,0.999997,-0.00039825,-1.03123e-06,0.00236643,0,0,0,0,0,0,0,0,0,0,0,0,0,0,0,0,0,0,0,0,0,0,0,0,0,0,0,0,0.00222622,2.38702,22.4158
1.15135,2.13917,-0.144048,1.02044,-1.66023,1.57045,1.36313,-0.318931,1.54486,1.54814,0.999995,-0.000398261,-1.36963e-06,0.00322161,0,0,0,0,0,0,0,0,0,0,0,0,0,0,0,0,0,0,0,0,0,0,0,0,0,0,0,0,0.00222622,2.38702,22.4158
1.15162,2.13574,-0.146798,1.02019,-1.65723,1.57045,1.36511,-0.323653,1.54397,1.54508,0.999992,-0.000398264,-1.70475e-06,0.00407679,0,0,0,0,0,0,0,0,0,0,0,0,0,0,0,0,0,0,0,0,0,0,0,0,0,0,0,0,0.00222622,2.38702,22.4158
1.15189,2.13232,-0.149547,1.01994,-1.65423,1.57044,1.36709,-0.32837,1.54306,1.54202,0.999988,-0.000398258,-2.03657e-06,0.00493197,0,0,0,0,0,0,0,0,0,0,0,0,0,0,0,0,0,0,0,0,0,0,0,0,0,0,0,0,0.00222622,2.38702,22.4158
1.15216,2.1289,-0.152296,1.01969,-1.65124,1.57044,1.36908,-0.333082,1.54212,1.53895,0.999983,-0.000398243,-2.36502e-06,0.00578714,0,0,0,0,0,0,0,0,0,0,0,0,0,0,0,0,0,0,0,0,0,0,0,0,0,0,0,0,0.00222622,2.38702,22.4158
1.15243,2.12547,-0.155045,1.01944,-1.64824,1.57043,1.37106,-0.337789,1.54115,1.53588,0.999978,-0.000398219,-2.69007e-06,0.00664231,0,0,0,0,0,0,0,0,0,0,0,0,0,0,0,0,0,0,0,0,0,0,0,0,0,0,0,0,0.00222622,2.38702,22.4158
1.1527,2.12205,-0.157795,1.01919,-1.64524,1.57042,1.37304,-0.342491,1.54015,1.53281,0.999972,-0.000398186,-3.01168e-06,0.00749747,0,0,0,0,0,0,0,0,0,0,0,0,0,0,0,0,0,0,0,0,0,0,0,0,0,0,0,0,0.00222622,2.38702,22.4158
1.15297,2.11862,-0.160544,1.01894,-1.64224,1.57042,1.37503,-0.347187,1.53913,1.52973,0.999965,-0.000398144,-3.3298e-06,0.00835263,0,0,0,0,0,0,0,0,0,0,0,0,0,0,0,0,0,0,0,0,0,0,0,0,0,0,0,0,0.00222622,2.38702,22.4158
1.15263,2.11886,-0.160493,1.01896,-1.64224,1.57041,1.37503,-0.346413,1.53938,1.52981,0.999967,-0.000362027,1.63181e-05,0.00806462,0,0,0,0,0,0,0,0,0,0,0,0,0,0,0,0,0,0,0,0,0,0,0,0,0,0,0,0,0.00222622,2.38702,22.4158
1.15261,2.11888,-0.160467,1.01898,-1.64224,1.57041,1.37503,-0.346371,1.5394,1.52985,0.999968,-0.000343997,2.61698e-05,0.00804901,0,0,0,0,0,0,0,0,0,0,0,0,0,0,0,0,0,0,0,0,0,0,0,0,0,0,0,0,0.00222622,2.38702,22.4158
1.15261,2.11888,-0.160467,1.01898,-1.64224,1.57041,1.37503,-0.346371,1.5394,1.52985,0.999968,-0.000343997,2.61698e-05,0.00804901,0,0,0,0,0,0,0,0,0,0,0,0,0,0,0,0,0,0,0,0,0,0,0,0,0,0,0,0,0.00222622,2.38702,22.4158
1.15261,2.11888,-0.160467,1.01898,-1.64224,1.57041,1.37503,-0.346371,1.5394,1.52985,0.999968,-0.000343997,2.61698e-05,0.00804901,0,0,0,0,0,0,0,0,0,0,0,0,0,0,0,0,0,0,0,0,0,0,0,0,0,0,0,0,0.00222622,2.38702,22.4158
1.15261,2.11888,-0.160467,1.01898,-1.64224,1.57041,1.37503,-0.346371,1.5394,1.52985,0.999968,-0.000343997,2.61698e-05,0.00804901,0,0,0,0,0,0,0,0,0,0,0,0,0,0,0,0,0,0,0,0,0,0,0,0,0,0,0,0,0.00222622,2.38702,22.4158
1.15261,2.11888,-0.160467,1.01898,-1.64224,1.57041,1.37503,-0.346371,1.5394,1.52985,0.999968,-0.000343997,2.61698e-05,0.00804901,0,0,0,0,0,0,0,0,0,0,0,0,0,0,0,0,0,0,0,0,0,0,0,0,0,0,0,0,0.00222622,2.38702,22.4158
1.15261,2.11888,-0.160467,1.01898,-1.64224,1.57041,1.37503,-0.346371,1.5394,1.52985,0.999968,-0.000343997,2.61698e-05,0.00804901,0,0,0,0,0,0,0,0,0,0,0,0,0,0,0,0,0,0,0,0,0,0,0,0,0,0,0,0,0.00222622,2.38702,22.4158
1.15261,2.11888,-0.160467,1.01898,-1.64224,1.57041,1.37503,-0.346371,1.5394,1.52985,0.999968,-0.000343997,2.61698e-05,0.00804901,0,0,0,0,0,0,0,0,0,0,0,0,0,0,0,0,0,0,0,0,0,0,0,0,0,0,0,0,0.00222622,2.38702,22.4158
1.15261,2.11888,-0.160467,1.01898,-1.64224,1.57041,1.37503,-0.346371,1.5394,1.52985,0.999968,-0.000343997,2.61698e-05,0.00804901,0,0,0,0,0,0,0,0,0,0,0,0,0,0,0,0,0,0,0,0,0,0,0,0,0,0,0,0,0.00222622,2.38702,22.4158
1.15261,2.11888,-0.160467,1.01898,-1.64224,1.57041,1.37503,-0.346371,1.5394,1.52985,0.999968,-0.000343997,2.61698e-05,0.00804901,0,0,0,0,0,0,0,0,0,0,0,0,0,0,0,0,0,0,0,0,0,0,0,0,0,0,0,0,0.00222622,2.38702,22.4158

1.13585,2.13574,-0.150177,1.02143,-1.6551,1.57045,1.3579,-0.3,1.55,1.5422,1,-0.000398251,7.65303e-08,-0.000199053,0,0,0,0,0,0,0,0,0,0,0,0,0,0,0,0,0,0,0,0,0,0,0,0,0,0,0,0,0.00236912,2.38227,22.3983
1.1375,2.1377,-0.148217,1.02143,-1.65706,1.57045,1.35759,-0.300005,1.54981,1.54428,1,-0.000398242,7.30639e-08,-0.00019906,0,0,0,0,0,0,0,0,0,0,0,0,0,0,0,0,0,0,0,0,0,0,0,0,0,0,0,0,0.00236912,2.38227,22.3983
1.13915,2.13966,-0.146258,1.02143,-1.65902,1.57045,1.35728,-0.300009,1.54961,1.54636,1,-0.00039823,7.06469e-08,-0.000199066,0,0,0,0,0,0,0,0,0,0,0,0,0,0,0,0,0,0,0,0,0,0,0,0,0,0,0,0,0.00236912,2.38227,22.3983
1.1408,2.14162,-0.144299,1.02143,-1.66098,1.57046,1.35697,-0.300011,1.54941,1.54844,1,-0.000398215,6.92821e-08,-0.000199073,0,0,0,0,0,0,0,0,0,0,0,0,0,0,0,0,0,0,0,0,0,0,0,0,0,0,0,0,0.00236912,2.38227,22.3983
1.14245,2.14357,-0.14234,1.02143,-1.66294,1.57046,1.35666,-0.300013,1.5492,1.55052,1,-0.000398198,6.89726e-08,-0.000199079,0,0,0,0,0,0,0,0,0,0,0,0,0,0,0,0,0,0,0,0,0,0,0,0,0,0,0,0,0.00236912,2.38227,22.3983
1.1441,2.14553,-0.140381,1.02143,-1.66489,1.57046,1.35636,-0.300013,1.54899,1.5526,1,-0.000398178,6.97213e-08,-0.000199086,0,0,0,0,0,0,0,0,0,0,0,0,0,0,0,0,0,0,0,0,0,0,0,0,0,0,0,0,0.00236912,2.38227,22.3983
1.14575,2.14749,-0.138422,1.02144,-1.66685,1.57046,1.35605,-0.300011,1.54877,1.55467,1,-0.000398155,7.15311e-08,-0.000199092,0,0,0,0,0,0,0,0,0,0,0,0,0,0,0,0,0,0,0,0,0,0,0,0,0,0,0,0,0.00236912,2.38227,22.3983
1.1474,2.14945,-0.136463,1.02144,-1.66881,1.57047,1.35574,-0.300009,1.54855,1.55675,1,-0.000398128,7.4405e-08,-0.000199099,0,0,0,0,0,0,0,0,0,0,0,0,0,0,0,0,0,0,0,0,0,0,0,0,0,0,0,0,0.00236912,2.38227,22.3983
1.14905,2.15141,-0.134504,1.02144,-1.67077,1.57047,1.35543,-0.300005,1.54832,1.55882,1,-0.0003981,7.83459e-08,-0.000199105,0,0,0,0,0,0,0,0,0,0,0,0,0,0,0,0,0,0,0,0,0,0,0,0,0,0,0,0,0.00236912,2.38227,22.3983
1.1507,2.15337,-0.132545,1.02144,-1.67273,1.57047,1.35512,-0.3,1.54809,1.56089,1,-0.000398068,8.33568e-08,-0.000199112,0,0,0,0,0,0,0,0,0,0,0,0,0,0,0,0,0,0,0,0,0,0,0,0,0,0,0,0,0.00236912,2.38227,22.3983
1.15098,2.14984,-0.135396,1.02119,-1.66963,1.57047,1.35716,-0.304884,1.54729,1.55773,1,-0.000398119,-2.82166e-07,0.000681385,0,0,0,0,0,0,0,0,0,0,0,0,0,0,0,0,0,0,0,0,0,0,0,0,0,0,0,0,0.00236912,2.38227,22.3983
1.15125,2.14632,-0.138246,1.02094,-1.66653,1.57046,1.3592,-0.309764,1.54647,1.55458,0.999999,-0.00039816,-6.44423e-07,0.00156188,0,0,0,0,0,0,0,0,0,0,0,0,0,0,0,0,0,0,0,0,0,0,0,0,0,0,0,0,0.00236912,2.38227,22.3983
1.15153,2.14279,-0.141097,1.02069,-1.66343,1.57046,1.36124,-0.314639,1.54561,1.55141,0.999997,-0.000398191,-1.00336e-06,0.00244238,0,0,0,0,0,0,0,0,0,0,0,0,0,0,0,0,0,0,0,0,0,0,0,0,0,0,0,0,0.00236912,2.38227,22.3983
1.15181,2.13927,-0.143947,1.02044,-1.66033,1.57045,1.36328,-0.319509,1.54473,1.54825,0.999994,-0.000398213,-1.35894e-06,0.00332287,0,0,0,0,0,0,0,0,0,0,0,0,0,0,0,0,0,0,0,0,0,0,0,0,0,0,0,0,0.00236912,2.38227,22.3983
1.15209,2.13574,-0.146798,1.02019,-1.65723,1.57045,1.36533,-0.324375,1.54382,1.54508,0.999991,-0.000398225,-1.71111e-06,0.00420336,0,0,0,0,0,0,0,0,0,0,0,0,0,0,0,0,0,0,0,0,0,0,0,0,0,0,0,0,0.00236912,2.38227,22.3983
1.15236,2.13222,-0.149648,1.01994,-1.65413,1.57044,1.36737,-0.329235,1.54288,1.54191,0.999987,-0.000398228,-2.05981e-06,0.00508385,0,0,0,0,0,0,0,0,0,0,0,0,0,0,0,0,0,0,0,0,0,0,0,0,0,0,0,0,0.00236912,2.38227,22.3983
1.15264,2.12869,-0.152499,1.01969,-1.65103,1.57044,1.36941,-0.334089,1.54192,1.53873,0.999982,-0.000398221,-2.405e-06,0.00596433,0,0,0,0,0,0,0,0,0,0,0,0,0,0,0,0,0,0,0,0,0,0,0,0,0,0,0,0,0.00236912,2.38227,22.3983
1.15292,2.12517,-0.155349,1.01944,-1.64793,1.57043,1.37145,-0.338939,1.54092,1.53556,0.999976,-0.000398205,-2.74664e-06,0.00684481,0,0,0,0,0,0,0,0,0,0,0,0,0,0,0,0,0,0,0,0,0,0,0,0,0,0,0,0,0.00236912,2.38227,22.3983
1.1532,2.12164,-0.1582,1.01919,-1.64484,1.57042,1.37349,-0.343782,1.5399,1.53237,0.99997,-0.000398179,-3.08466e-06,0.00772528,0,0,0,0,0,0,0,0,0,0,0,0,0,0,0,0,0,0,0,0,0,0,0,0,0,0,0,0,0.00236912,2.38227,22.3983
1.15347,2.11812,-0.16105,1.01893,-1.64174,1.57042,1.37553,-0.34862,1.53885,1.52919,0.999963,-0.000398143,-3.41904e-06,0.00860575,0,0,0,0,0,0,0,0,0,0,0,0,0,0,0,0,0,0,0,0,0,0,0,0,0,0,0,0,0.00236912,2.38227,22.3983
1.15314,2.11836,-0.160999,1.01893,-1.64174,1.57042,1.37553,-0.347844,1.53909,1.52925,0.999965,-0.000376739,1.10793e-05,0.00831774,0,0,0,0,0,0,0,0,0,0,0,0,0,0,0,0,0,0,0,0,0,0,0,0,0,0,0,0,0.00236912,2.38227,22.3983
1.15312,2.11837,-0.160974,1.01893,-1.64173,1.57042,1.37553,-0.3478,1.5391,1.52928,0.999965,-0.000365933,1.8447e-05,0.00830213,0,0,0,0,0,0,0,0,0,0,0,0,0,0,0,0,0,0,0,0,0,0,0,0,0,0,0,0,0.00236912,2.38227,22.3983
1.15312,2.11837,-0.160974,1.01893,-1.64173,1.57042,1.37553,-0.347801,1.5391,1.52928,0.999965,-0.000365668,1.86278e-05,0.00830213,0,0,0,0,0,0,0,0,0,0,0,0,0,0,0,0,0,0,0,0,0,0,0,0,0,0,0,0,0.00236912,2.38227,22.3983
1.15312,2.11837,-0.160974,1.01893,-1.64173,1.57042,1.37553,-0.347801,1.5391,1.52928,0.999965,-0.000365403,1.88085e-05,0.00830213,0,0,0,0,0,0,0,0,0,0,0,0,0,0,0,0,0,0,0,0,0,0,0,0,0,0,0,0,0.00236912,2.38227,22.3983
1.15312,2.11837,-0.160974,1.01893,-1.64173,1.57042,1.37553,-0.347801,1.5391,1.52928,0.999965,-0.000365138,1.89893e-05,0.00830213,0,0,0,0,0,0,0,0,0,0,0,0,0,0,0,0,0,0,0,0,0,0,0,0,0,0,0,0,0.00236912,2.38227,22.3983
1.15312,2.11837,-0.160974,1.01893,-1.64173,1.57042,1.37553,-0.347801,1.5391,1.52928,0.999965,-0.000364873,1.91701e-05,0.00830213,0,0,0,0,0,0,0,0,0,0,0,0,0,0,0,0,0,0,0,0,0,0,0,0,0,0,0,0,0.00236912,2.38227,22.3983
1.15312,2.11837,-0.160974,1.01893,-1.64173,1.57042,1.37553,-0.347801,1.5391,1.52928,0.999965,-0.000364609,1.93509e-05,0.00830213,0,0,0,0,0,0,0,0,0,0,0,0,0,0,0,0,0,0,0,0,0,0,0,0,0,0,0,0,0.00236912,2.38227,22.3983
1.15312,2.11837,-0.160974,1.01893,-1.64173,1.57042,1.37553,-0.347801,1.5391,1.52928,0.999965,-0.000364344,1.95317e-05,0.00830213,0,0,0,0,0,0,0,0,0,0,0,0,0,0,0,0,0,0,0,0,0,0,0,0,0,0,0,0,0.00236912,2.38227,22.3983
1.15312,2.11837,-0.160974,1.01893,-1.64173,1.57042,1.37553,-0.347801,1.5391,1.52928,0.999965,-0.000364079,1.97124e-05,0.00830213,0,0,0,0,0,0,0,0,0,0,0,0,0,0,0,0,0,0,0,0,0,0,0,0,0,0,0,0,0.00236912,2.38227,22.3983
1.15312,2.11837,-0.160974,1.01893,-1.64173,1.57042,1.37553,-0.347801,1.5391,1.52928,0.999965,-0.000364079,1.97124e-05,0.00830213,0,0,0,0,0,0,0,0,0,0,0,0,0,0,0,0,0,0,0,0,0,0,0,0,0,0,0,0,0.00236912,2.38227,22.3983

1.13585,2.13574,-0.150177,1.02143,-1.6551,1.57045,1.3579,-0.3,1.55,1.5422,1,-0.000398251,7.6522e-08,-0.000199053,0,0,0,0,0,0,0,0,0,0,0,0,0,0,0,0,0,0,0,0,0,0,0,0,0,0,0,0,0.00259215,2.3752,22.372
1.13757,2.13778,-0.148128,1.02144,-1.65714,1.57045,1.35758,-0.300005,1.5498,1.54438,1,-0.000393112,3.10177e-06,-0.000199293,0,0,0,0,0,0,0,0,0,0,0,0,0,0,0,0,0,0,0,0,0,0,0,0,0,0,0,0,0.00259215,2.3752,22.372
1.1393,2.13983,-0.14608,1.02144,-1.65918,1.57045,1.35726,-0.30001,1.5496,1.54656,1,-0.000388068,6.10516e-06,-0.000199435,0,0,0,0,0,0,0,0,0,0,0,0,0,0,0,0,0,0,0,0,0,0,0,0,0,0,0,0,0.00259215,2.3752,22.372
1.14102,2.14187,-0.144031,1.02145,-1.66123,1.57045,1.35693,-0.300013,1.54938,1.54874,1,-0.000383241,9.06365e-06,-0.000199331,0,0,0,0,0,0,0,0,0,0,0,0,0,0,0,0,0,0,0,0,0,0,0,0,0,0,0,0,0.00259215,2.3752,22.372
1.14274,2.14391,-0.141982,1.02145,-1.66327,1.57046,1.35661,-0.300016,1.54917,1.55092,1,-0.000378918,1.18275e-05,-0.000198879,0,0,0,0,0,0,0,0,0,0,0,0,0,0,0,0,0,0,0,0,0,0,0,0,0,0,0,0,0.00259215,2.3752,22.372
1.14446,2.14596,-0.139934,1.02146,-1.66531,1.57046,1.35629,-0.300018,1.54894,1.55309,1,-0.000375756,1.39754e-05,-0.000198156,0,0,0,0,0,0,0,0,0,0,0,0,0,0,0,0,0,0,0,0,0,0,0,0,0,0,0,0,0.00259215,2.3752,22.372
1.14618,2.148,-0.137889,1.02146,-1.66735,1.57046,1.35597,-0.300018,1.54871,1.55526,1,-0.000375282,1.44768e-05,-0.000197465,0,0,0,0,0,0,0,0,0,0,0,0,0,0,0,0,0,0,0,0,0,0,0,0,0,0,0,0,0.00259215,2.3752,22.372
1.1479,2.15004,-0.135849,1.02145,-1.6694,1.57047,1.35564,-0.300015,1.54848,1.55741,1,-0.000378871,1.23582e-05,-0.000197383,0,0,0,0,0,0,0,0,0,0,0,0,0,0,0,0,0,0,0,0,0,0,0,0,0,0,0,0,0.00259215,2.3752,22.372
1.14962,2.15208,-0.133815,1.02145,-1.67144,1.57047,1.35532,-0.300009,1.54824,1.55956,1,-0.000386319,7.71659e-06,-0.000197893,0,0,0,0,0,0,0,0,0,0,0,0,0,0,0,0,0,0,0,0,0,0,0,0,0,0,0,0,0.00259215,2.3752,22.372
1.15134,2.15413,-0.131787,1.02144,-1.67349,1.57048,1.355,-0.3,1.54799,1.56169,1,-0.000398388,4.10158e-08,-0.000199009,0,0,0,0,0,0,0,0,0,0,0,0,0,0,0,0,0,0,0,0,0,0,0,0,0,0,0,0,0.00259215,2.3752,22.372
1.15163,2.15045,-0.134746,1.02122,-1.67023,1.57047,1.35713,-0.305102,1.54718,1.55844,1,-0.000366276,2.01198e-05,0.000719274,0,0,0,0,0,0,0,0,0,0,0,0,0,0,0,0,0,0,0,0,0,0,0,0,0,0,0,0,0.00259215,2.3752,22.372
1.15192,2.14678,-0.137714,1.02099,-1.66698,1.57046,1.35926,-0.310197,1.54633,1.55518,0.999999,-0.000340786,3.61066e-05,0.00163705,0,0,0,0,0,0,0,0,0,0,0,0,0,0,0,0,0,0,0,0,0,0,0,0,0,0,0,0,0.00259215,2.3752,22.372
1.15221,2.1431,-0.140693,1.02076,-1.66373,1.57046,1.36139,-0.315286,1.54546,1.5519,0.999997,-0.000322866,4.72928e-05,0.00255421,0,0,0,0,0,0,0,0,0,0,0,0,0,0,0,0,0,0,0,0,0,0,0,0,0,0,0,0,0.00259215,2.3752,22.372
1.15249,2.13942,-0.143684,1.02051,-1.66047,1.57045,1.36352,-0.32037,1.54455,1.5486,0.999994,-0.000313651,5.29782e-05,0.00347144,0,0,0,0,0,0,0,0,0,0,0,0,0,0,0,0,0,0,0,0,0,0,0,0,0,0,0,0,0.00259215,2.3752,22.372
1.15278,2.13575,-0.146686,1.02027,-1.65722,1.57044,1.36565,-0.325448,1.54361,1.54527,0.99999,-0.000313071,5.30508e-05,0.00438861,0,0,0,0,0,0,0,0,0,0,0,0,0,0,0,0,0,0,0,0,0,0,0,0,0,0,0,0,0.00259215,2.3752,22.372
1.15307,2.13207,-0.149698,1.02001,-1.65397,1.57044,1.36778,-0.330521,1.54264,1.54192,0.999986,-0.000319597,4.85993e-05,0.00530656,0,0,0,0,0,0,0,0,0,0,0,0,0,0,0,0,0,0,0,0,0,0,0,0,0,0,0,0,0.00259215,2.3752,22.372
1.15336,2.12839,-0.152717,1.01975,-1.65072,1.57043,1.3699,-0.335592,1.54163,1.53856,0.999981,-0.000332563,4.00241e-05,0.00622558,0,0,0,0,0,0,0,0,0,0,0,0,0,0,0,0,0,0,0,0,0,0,0,0,0,0,0,0,0.00259215,2.3752,22.372
1.15365,2.12472,-0.155744,1.01948,-1.64747,1.57043,1.37203,-0.340657,1.54059,1.53517,0.999974,-0.000350988,2.78742e-05,0.00714534,0,0,0,0,0,0,0,0,0,0,0,0,0,0,0,0,0,0,0,0,0,0,0,0,0,0,0,0,0.00259215,2.3752,22.372
1.15394,2.12104,-0.158775,1.01921,-1.64422,1.57042,1.37416,-0.345717,1.53952,1.53178,0.999967,-0.000373537,1.29183e-05,0.00806536,0,0,0,0,0,0,0,0,0,0,0,0,0,0,0,0,0,0,0,0,0,0,0,0,0,0,0,0,0.00259215,2.3752,22.372
1.15423,2.11736,-0.161809,1.01893,-1.64098,1.57042,1.37629,-0.350769,1.53842,1.52838,0.99996,-0.000398161,-3.57361e-06,0.00898542,0,0,0,0,0,0,0,0,0,0,0,0,0,0,0,0,0,0,0,0,0,0,0,0,0,0,0,0,0.00259215,2.3752,22.372
1.1539,2.1176,-0.161697,1.019,-1.64098,1.57042,1.37629,-0.35,1.53867,1.52856,0.999962,-0.000324176,4.7222e-05,0.00869741,0,0,0,0,0,0,0,0,0,0,0,0,0,0,0,0,0,0,0,0,0,0,0,0,0,0,0,0,0.00259215,2.3752,22.372
1.15388,2.11761,-0.161589,1.01907,-1.64098,1.57042,1.37629,-0.349962,1.53869,1.52873,0.999962,-0.000252794,9.63185e-05,0.00868189,0,0,0,0,0,0,0,0,0,0,0,0,0,0,0,0,0,0,0,0,0,0,0,0,0,0,0,0,0.00259215,2.3752,22.372
1.15388,2.11761,-0.161488,1.01913,-1.64097,1.57042,1.37629,-0.349965,1.53869,1.52889,0.999962,-0.000186327,0.000142024,0.00868197,0,0,0,0,0,0,0,0,0,0,0,0,0,0,0,0,0,0,0,0,0,0,0,0,0,0,0,0,0.00259215,2.3752,22.372
1.15388,2.11761,-0.161398,1.01918,-1.64097,1.57042,1.37629,-0.349968,1.5387,1.52903,0.999962,-0.000126701,0.000183004,0.00868204,0,0,0,0,0,0,0,0,0,0,0,0,0,0,0,0,0,0,0,0,0,0,0,0,0,0,0,0,0.00259215,2.3752,22.372
1.15388,2.11761,-0.161321,1.01923,-1.64097,1.57042,1.37629,-0.349971,1.5387,1.52916,0.999962,-7.53168e-05,0.000218295,0.00868211,0,0,0,0,0,0,0,0,0,0,0,0,0,0,0,0,0,0,0,0,0,0,0,0,0,0,0,0,0.00259215,2.3752,22.372
1.15388,2.11761,-0.161257,1.01926,-1.64097,1.57042,1.37629,-0.349973,1.53871,1.52926,0.999962,-3.30227e-05,0.00024732,0.00868217,0,0,0,0,0,0,0,0,0,0,0,0,0,0,0,0,0,0,0,0,0,0,0,0,0,0,0,0,0.00259215,2.3752,22.372
1.15388,2.11761,-0.161207,1.01929,-1.64097,1.57042,1.37629,-0.349975,1.53871,1.52934,0.999962,-1.82864e-07,0.000269837,0.00868221,0,0,0,0,0,0,0,0,0,0,0,0,0,0,0,0,0,0,0,0,0,0,0,0,0,0,0,0,0.00259215,2.3752,22.372
1.15388,2.11761,-0.161172,1.01931,-1.64097,1.57042,1.37629,-0.349976,1.53871,1.52939,0.999962,2.31859e-05,0.000285844,0.00868224,0,0,0,0,0,0,0,0,0,0,0,0,0,0,0,0,0,0,0,0,0,0,0,0,0,0,0,0,0.00259215,2.3752,22.372
1.15388,2.11761,-0.161151,1.01933,-1.64097,1.57042,1.37629,-0.349977,1.53871,1.52943,0.999962,3.72445e-05,0.000295462,0.00868226,0,0,0,0,0,0,0,0,0,0,0,0,0,0,0,0,0,0,0,0,0,0,0,0,0,0,0,0,0.00259215,2.3752,22.372
1.15388,2.11761,-0.161144,1.01933,-1.64097,1.57042,1.37629,-0.349977,1.53871,1.52944,0.999962,4.19042e-05,0.000298637,0.00868227,0,0,0,0,0,0,0,0,0,0,0,0,0,0,0,0,0,0,0,0,0,0,0,0,0,0,0,0,0.00259215,2.3752,22.372

1.13585,2.13574,-0.150177,1.02143,-1.6551,1.57045,1.3579,-0.3,1.55,1.5422,1,-0.000398251,7.65303e-08,-0.000199053,0,0,0,0,0,0,0,0,0,0,0,0,0,0,0,0,0,0,0,0,0,0,0,0,0,0,0,0,0.00294516,2.36456,22.3324
1.13768,2.13791,-0.148007,1.02143,-1.65727,1.57045,1.35756,-0.300006,1.54979,1.54451,1,-0.000398249,7.19394e-08,-0.000199056,0,0,0,0,0,0,0,0,0,0,0,0,0,0,0,0,0,0,0,0,0,0,0,0,0,0,0,0,0.00294516,2.36456,22.3324
1.13951,2.14008,-0.145837,1.02143,-1.65944,1.57045,1.35722,-0.300011,1.54957,1.54681,1,-0.000398244,6.86121e-08,-0.000199059,0,0,0,0,0,0,0,0,0,0,0,0,0,0,0,0,0,0,0,0,0,0,0,0,0,0,0,0,0.00294516,2.36456,22.3324
1.14134,2.14225,-0.143667,1.02143,-1.66161,1.57046,1.35688,-0.300014,1.54934,1.54911,1,-0.000398236,6.65102e-08,-0.000199063,0,0,0,0,0,0,0,0,0,0,0,0,0,0,0,0,0,0,0,0,0,0,0,0,0,0,0,0,0.00294516,2.36456,22.3324
1.14316,2.14442,-0.141497,1.02143,-1.66378,1.57046,1.35653,-0.300015,1.54911,1.55141,1,-0.000398224,6.56115e-08,-0.000199066,0,0,0,0,0,0,0,0,0,0,0,0,0,0,0,0,0,0,0,0,0,0,0,0,0,0,0,0,0.00294516,2.36456,22.3324
1.14499,2.14659,-0.139328,1.02143,-1.66595,1.57046,1.35619,-0.300015,1.54887,1.55371,1,-0.000398209,6.59068e-08,-0.000199069,0,0,0,0,0,0,0,0,0,0,0,0,0,0,0,0,0,0,0,0,0,0,0,0,0,0,0,0,0.00294516,2.36456,22.3324
1.14682,2.14876,-0.137158,1.02144,-1.66812,1.57047,1.35585,-0.300014,1.54863,1.55601,1,-0.000398191,6.74037e-08,-0.000199072,0,0,0,0,0,0,0,0,0,0,0,0,0,0,0,0,0,0,0,0,0,0,0,0,0,0,0,0,0.00294516,2.36456,22.3324
1.14865,2.15093,-0.134988,1.02144,-1.67029,1.57047,1.35551,-0.300011,1.54838,1.55831,1,-0.000398169,7.01228e-08,-0.000199075,0,0,0,0,0,0,0,0,0,0,0,0,0,0,0,0,0,0,0,0,0,0,0,0,0,0,0,0,0.00294516,2.36456,22.3324
1.15047,2.1531,-0.132818,1.02144,-1.67246,1.57047,1.35516,-0.300006,1.54812,1.5606,1,-0.000398144,7.40974e-08,-0.000199078,0,0,0,0,0,0,0,0,0,0,0,0,0,0,0,0,0,0,0,0,0,0,0,0,0,0,0,0,0.00294516,2.36456,22.3324
1.1523,2.15527,-0.130648,1.02144,-1.67463,1.57048,1.35482,-0.3,1.54786,1.56289,1,-0.000398115,7.93709e-08,-0.000199082,0,0,0,0,0,0,0,0,0,0,0,0,0,0,0,0,0,0,0,0,0,0,0,0,0,0,0,0,0.00294516,2.36456,22.3324
1.15261,2.15136,-0.133876,1.02119,-1.67115,1.57047,1.35708,-0.305426,1.54701,1.55934,1,-0.000396373,8.30971e-07,0.000776328,0,0,0,0,0,0,0,0,0,0,0,0,0,0,0,0,0,0,0,0,0,0,0,0,0,0,0,0,0.00294516,2.36456,22.3324
1.15292,2.14746,-0.137103,1.02094,-1.66767,1.57046,1.35934,-0.310848,1.54612,1.55579,0.999998,-0.000394814,1.47476e-06,0.00175172,0,0,0,0,0,0,0,0,0,0,0,0,0,0,0,0,0,0,0,0,0,0,0,0,0,0,0,0,0.00294516,2.36456,22.3324
1.15322,2.14355,-0.140332,1.02069,-1.66419,1.57046,1.3616,-0.316263,1.5452,1.55223,0.999996,-0.000393606,1.89707e-06,0.00272709,0,0,0,0,0,0,0,0,0,0,0,0,0,0,0,0,0,0,0,0,0,0,0,0,0,0,0,0,0.00294516,2.36456,22.3324
1.15353,2.13965,-0.14356,1.02044,-1.66071,1.57045,1.36387,-0.321673,1.54424,1.54866,0.999993,-0.000392852,2.02633e-06,0.00370245,0,0,0,0,0,0,0,0,0,0,0,0,0,0,0,0,0,0,0,0,0,0,0,0,0,0,0,0,0.00294516,2.36456,22.3324
1.15384,2.13574,-0.14679,1.02019,-1.65723,1.57045,1.36613,-0.327076,1.54325,1.54509,0.999989,-0.000392619,1.81284e-06,0.00467781,0,0,0,0,0,0,0,0,0,0,0,0,0,0,0,0,0,0,0,0,0,0,0,0,0,0,0,0,0.00294516,2.36456,22.3324
1.15414,2.13184,-0.150021,1.01994,-1.65375,1.57044,1.36839,-0.332473,1.54223,1.54152,0.999984,-0.000392916,1.25095e-06,0.00565322,0,0,0,0,0,0,0,0,0,0,0,0,0,0,0,0,0,0,0,0,0,0,0,0,0,0,0,0,0.00294516,2.36456,22.3324
1.15445,2.12793,-0.153252,1.01969,-1.65027,1.57043,1.37065,-0.337864,1.54116,1.53794,0.999978,-0.000393705,3.56387e-07,0.00662866,0,0,0,0,0,0,0,0,0,0,0,0,0,0,0,0,0,0,0,0,0,0,0,0,0,0,0,0,0.00294516,2.36456,22.3324
1.15476,2.12403,-0.156484,1.01944,-1.64679,1.57043,1.37291,-0.343247,1.54007,1.53435,0.999971,-0.00039493,-8.43269e-07,0.00760411,0,0,0,0,0,0,0,0,0,0,0,0,0,0,0,0,0,0,0,0,0,0,0,0,0,0,0,0,0.00294516,2.36456,22.3324
1.15507,2.12012,-0.159716,1.01919,-1.64332,1.57042,1.37517,-0.348623,1.53893,1.53076,0.999963,-0.000396466,-2.2714e-06,0.00857954,0,0,0,0,0,0,0,0,0,0,0,0,0,0,0,0,0,0,0,0,0,0,0,0,0,0,0,0,0.00294516,2.36456,22.3324
1.15537,2.11622,-0.162948,1.01893,-1.63984,1.57042,1.37743,-0.353992,1.53777,1.52716,0.999954,-0.000398151,-3.82314e-06,0.00955493,0,0,0,0,0,0,0,0,0,0,0,0,0,0,0,0,0,0,0,0,0,0,0,0,0,0,0,0,0.00294516,2.36456,22.3324
1.15504,2.11646,-0.162836,1.01899,-1.63984,1.57042,1.37743,-0.353222,1.53802,1.52733,0.999957,-0.000329837,4.39553e-05,0.00926692,0,0,0,0,0,0,0,0,0,0,0,0,0,0,0,0,0,0,0,0,0,0,0,0,0,0,0,0,0.00294516,2.36456,22.3324
1.15502,2.11647,-0.162728,1.01904,-1.63984,1.57042,1.37743,-0.353182,1.53803,1.5275,0.999957,-0.000263586,9.03993e-05,0.0092514,0,0,0,0,0,0,0,0,0,0,0,0,0,0,0,0,0,0,0,0,0,0,0,0,0,0,0,0,0.00294516,2.36456,22.3324
1.15502,2.11647,-0.162628,1.01909,-1.63984,1.57042,1.37743,-0.353185,1.53804,1.52765,0.999957,-0.000201269,0.000134114,0.00925148,0,0,0,0,0,0,0,0,0,0,0,0,0,0,0,0,0,0,0,0,0,0,0,0,0,0,0,0,0.00294516,2.36456,22.3324
1.15502,2.11647,-0.162537,1.01914,-1.63983,1.57042,1.37743,-0.353187,1.53804,1.52779,0.999957,-0.000144519,0.000173954,0.00925156,0,0,0,0,0,0,0,0,0,0,0,0,0,0,0,0,0,0,0,0,0,0,0,0,0,0,0,0,0.00294516,2.36456,22.3324
1.15502,2.11647,-0.16246,1.01918,-1.63983,1.57042,1.37743,-0.35319,1.53804,1.52791,0.999957,-9.46237e-05,0.000209015,0.00925162,0,0,0,0,0,0,0,0,0,0,0,0,0,0,0,0,0,0,0,0,0,0,0,0,0,0,0,0,0.00294516,2.36456,22.3324
1.15502,2.11647,-0.162396,1.01922,-1.63983,1.57042,1.37743,-0.353192,1.53805,1.52801,0.999957,-5.25358e-05,0.000238626,0.00925168,0,0,0,0,0,0,0,0,0,0,0,0,0,0,0,0,0,0,0,0,0,0,0,0,0,0,0,0,0.00294516,2.36456,22.3324
1.15502,2.11647,-0.162346,1.01925,-1.63983,1.57043,1.37743,-0.353195,1.53805,1.5281,0.999957,-1.89347e-05,0.0002623,0.00925172,0,0,0,0,0,0,0,0,0,0,0,0,0,0,0,0,0,0,0,0,0,0,0,0,0,0,0,0,0.00294516,2.36456,22.3324
1.15502,2.11647,-0.162311,1.01928,-1.63983,1.57043,1.37743,-0.353197,1.53805,1.52815,0.999957,5.74032e-06,0.00027972,0.00925175,0,0,0,0,0,0,0,0,0,0,0,0,0,0,0,0,0,0,0,0,0,0,0,0,0,0,0,0,0.00294516,2.36456,22.3324
1.15502,2.11647,-0.16229,1.01929,-1.63983,1.57043,1.37743,-0.353198,1.53805,1.52819,0.999957,2.13626e-05,0.000290771,0.00925177,0,0,0,0,0,0,0,0,0,0,0,0,0,0,0,0,0,0,0,0,0,0,0,0,0,0,0,0,0.00294516,2.36456,22.3324
1.15502,2.11647,-0.162282,1.0193,-1.63983,1.57043,1.37743,-0.353199,1.53805,1.5282,0.999957,2.68982e-05,0.000294699,0.00925178,0,0,0,0,0,0,0,0,0,0,0,0,0,0,0,0,0,0,0,0,0,0,0,0,0,0,0,0,0.00294516,2.36456,22.3324

1.13585,2.13574,-0.150177,1.02143,-1.6551,1.57045,1.3579,-0.3,1.55,1.5422,1,-0.000398251,7.65303e-08,-0.000199053,0,0,0,0,0,0,0,0,0,0,0,0,0,0,0,0,0,0.0041241,0.0041241,0,0,0,0,0,0,0,0,0,0.00300784,2.3628,22.3259
1.1377,2.13793,-0.147993,1.02144,-1.65729,1.57045,1.35756,-0.300007,1.54979,1.54453,1,-0.00039602,1.51815e-06,-0.000199053,0,0,0,0,0,0,0,0,0,0,0,0,0,0,0,0,0,0.0041241,0.0041241,0,0,0,0,0,0,0,0,0,0.00300784,2.3628,22.3259
1.13954,2.14012,-0.145809,1.02146,-1.65948,1.57045,1.35721,-0.300012,1.54957,1.54686,1,-0.000393786,2.95954e-06,-0.000199053,0,0,0,0,0,0,0,0,0,0,0,0,0,0,0,0,0,0.0041241,0.0041241,0,0,0,0,0,0,0,0,0,0.00300784,2.3628,22.3259
1.14138,2.14231,-0.143626,1.02147,-1.66167,1.57046,1.35686,-0.300016,1.54934,1.54918,1,-0.000391546,4.40071e-06,-0.000199052,0,0,0,0,0,0,0,0,0,0,0,0,0,0,0,0,0,0.0041241,0.0041241,0,0,0,0,0,0,0,0,0,0.00300784,2.3628,22.3259
1.14323,2.14449,-0.141442,1.02149,-1.66386,1.57046,1.35652,-0.300018,1.54911,1.55151,1,-0.000389302,5.84166e-06,-0.000199052,0,0,0,0,0,0,0,0,0,0,0,0,0,0,0,0,0,0.0041241,0.0041241,0,0,0,0,0,0,0,0,0,0.00300784,2.3628,22.3259
1.14507,2.14668,-0.139259,1.0215,-1.66605,1.57046,1.35617,-0.300018,1.54887,1.55383,1,-0.000387054,7.28239e-06,-0.000199052,0,0,0,0,0,0,0,0,0,0,0,0,0,0,0,0,0,0.0041241,0.0041241,0,0,0,0,0,0,0,0,0,0.00300784,2.3628,22.3259
1.14691,2.14887,-0.137075,1.02151,-1.66825,1.57047,1.35583,-0.300017,1.54863,1.55615,1,-0.000384801,8.72291e-06,-0.000199051,0,0,0,0,0,0,0,0,0,0,0,0,0,0,0,0,0,0.0041241,0.0041241,0,0,0,0,0,0,0,0,0,0.00300784,2.3628,22.3259
1.14875,2.15106,-0.134891,1.02153,-1.67044,1.57047,1.35548,-0.300015,1.54838,1.55846,1,-0.000382543,1.01632e-05,-0.000199051,0,0,0,0,0,0,0,0,0,0,0,0,0,0,0,0,0,0.0041241,0.0041241,0,0,0,0,0,0,0,0,0,0.00300784,2.3628,22.3259
1.1506,2.15325,-0.132708,1.02154,-1.67263,1.57047,1.35513,-0.30001,1.54812,1.56078,1,-0.000380281,1.16033e-05,-0.00019905,0,0,0,0,0,0,0,0,0,0,0,0,0,0,0,0,0,0.0041241,0.0041241,0,0,0,0,0,0,0,0,0,0.00300784,2.3628,22.3259
1.15244,2.15544,-0.130524,1.02155,-1.67485,1.57048,1.35479,-0.299999,1.54785,1.56309,1,-0.000392165,3.98126e-06,-0.000199048,0,0,0,0,0,0,0,0,0,0,0,0,0,0,0,0,0,0.0041241,0.0041241,0,0,0,0,0,0,0,0,0,0.00300784,2.3628,22.3259
1.15272,2.15151,-0.133778,1.02129,-1.67132,1.57045,1.35707,-0.305418,1.54701,1.55951,1,-0.000378427,9.81535e-07,0.000766175,0,0,0,0,0,0,0,0,0,0,0,0,0,0,0,0,0,0.0041241,0.0041241,0,0,0,0,0,0,0,0,0,0.00300784,2.3628,22.3259
1.153,2.14758,-0.137032,1.02103,-1.6678,1.57043,1.35935,-0.31083,1.54614,1.55592,0.999998,-0.000371228,-6.17152e-06,0.00173155,0,0,0,0,0,0,0,0,0,0,0,0,0,0,0,0,0,0.0041241,0.0041241,0,0,0,0,0,0,0,0,0,0.00300784,2.3628,22.3259
1.15329,2.14365,-0.140286,1.02077,-1.66428,1.5704,1.36163,-0.316236,1.54523,1.55233,0.999996,-0.000363947,-1.32196e-05,0.00269719,0,0,0,0,0,0,0,0,0,0,0,0,0,0,0,0,0,0.0041241,0.0041241,0,0,0,0,0,0,0,0,0,0.00300784,2.3628,22.3259
1.15357,2.13972,-0.143539,1.02051,-1.66076,1.57038,1.36391,-0.321639,1.54428,1.54873,0.999993,-0.000356588,-2.01307e-05,0.00366333,0,0,0,0,0,0,0,0,0,0,0,0,0,0,0,0,0,0.0041241,0.0041241,0,0,0,0,0,0,0,0,0,0.00300784,2.3628,22.3259
1.15385,2.13578,-0.146793,1.02025,-1.65724,1.57035,1.3662,-0.327036,1.54329,1.54513,0.999989,-0.00034925,-2.69542e-05,0.00463002,0,0,0,0,0,0,0,0,0,0,0,0,0,0,0,0,0,0.0041241,0.0041241,0,0,0,0,0,0,0,0,0,0.00300784,2.3628,22.3259
1.15413,2.13185,-0.150047,1.01999,-1.65373,1.57033,1.36848,-0.332428,1.54227,1.54152,0.999984,-0.000342004,-3.37482e-05,0.00559721,0,0,0,0,0,0,0,0,0,0,0,0,0,0,0,0,0,0.0041241,0.0041241,0,0,0,0,0,0,0,0,0,0.00300784,2.3628,22.3259
1.15442,2.12792,-0.153301,1.01972,-1.65021,1.5703,1.37076,-0.337815,1.54122,1.53791,0.999978,-0.000334879,-4.05459e-05,0.00656485,0,0,0,0,0,0,0,0,0,0,0,0,0,0,0,0,0,0.0041241,0.0041241,0,0,0,0,0,0,0,0,0,0.00300784,2.3628,22.3259
1.1547,2.12399,-0.156555,1.01946,-1.64669,1.57028,1.37304,-0.343197,1.54013,1.53429,0.999972,-0.000327732,-4.72372e-05,0.00753302,0,0,0,0,0,0,0,0,0,0,0,0,0,0,0,0,0,0.0041241,0.0041241,0,0,0,0,0,0,0,0,0,0.00300784,2.3628,22.3259
1.15499,2.12005,-0.159809,1.0192,-1.64317,1.57025,1.37532,-0.348573,1.539,1.53068,0.999964,-0.000320412,-5.367e-05,0.00850202,0,0,0,0,0,0,0,0,0,0,0,0,0,0,0,0,0,0.0041241,0.0041241,0,0,0,0,0,0,0,0,0,0.00300784,2.3628,22.3259
1.15554,2.11605,-0.163182,1.01888,-1.63958,1.57042,1.3776,-0.354486,1.53768,1.52688,0.999953,-0.000409082,-1.13759e-05,0.00964041,0,0,0,0,0,0,0,0,0,0,0,0,0,0,0,0,0,0.0041241,0.0041241,0,0,0,0,0,0,0,0,0,0.00300784,2.3628,22.3259
1.15521,2.11629,-0.162966,1.01898,-1.6397,1.57025,1.3776,-0.353655,1.53794,1.52719,0.999956,-0.000277865,-2.38093e-05,0.00935234,0,0,0,0,0,0,0,0,0,0,0,0,0,0,0,0,0,0.0041241,0.0041241,0,0,0,0,0,0,0,0,0,0.00300784,2.3628,22.3259
1.15519,2.1163,-0.162617,1.01918,-1.63967,1.57025,1.3776,-0.353627,1.53797,1.52774,0.999956,-4.53234e-05,0.000136885,0.00933672,0,0,0,0,0,0,0,0,0,0,0,0,0,0,0,0,0,0.0041241,0.0041241,0,0,0,0,0,0,0,0,0,0.00300784,2.3628,22.3259
1.15519,2.1163,-0.162595,1.01918,-1.63967,1.57025,1.3776,-0.353624,1.53797,1.52777,0.999956,-3.66503e-05,0.000143758,0.00933576,0,0,0,0,0,0,0,0,0,0,0,0,0,0,0,0,0,0.0041241,0.0041241,0,0,0,0,0,0,0,0,0,0.00300784,2.3628,22.3259
1.15519,2.1163,-0.162572,1.01918,-1.63967,1.57025,1.3776,-0.35362,1.53797,1.52779,0.999956,-2.7946e-05,0.000150612,0.00933483,0,0,0,0,0,0,0,0,0,0,0,0,0,0,0,0,0,0.0041241,0.0041241,0,0,0,0,0,0,0,0,0,0.00300784,2.3628,22.3259
1.15519,2.1163,-0.16255,1.01918,-1.63967,1.57025,1.3776,-0.353617,1.53797,1.52782,0.999956,-1.91852e-05,0.000157432,0.00933396,0,0,0,0,0,0,0,0,0,0,0,0,0,0,0,0,0,0.0041241,0.0041241,0,0,0,0,0,0,0,0,0,0.00300784,2.3628,22.3259
1.15518,2.1163,-0.162527,1.01918,-1.63967,1.57025,1.3776,-0.353613,1.53797,1.52785,0.999956,-1.03495e-05,0.000164214,0.0093332,0,0,0,0,0,0,0,0,0,0,0,0,0,0,0,0,0,0.0041241,0.0041241,0,0,0,0,0,0,0,0,0,0.00300784,2.3628,22.3259
1.15518,2.1163,-0.162505,1.01918,-1.63967,1.57025,1.3776,-0.35361,1.53796,1.52787,0.999956,-1.42157e-06,0.000170951,0.00933258,0,0,0,0,0,0,0,0,0,0,0,0,0,0,0,0,0,0.0041241,0.0041241,0,0,0,0,0,0,0,0,0,0.00300784,2.3628,22.3259
1.15518,2.1163,-0.162482,1.01918,-1.63967,1.57026,1.3776,-0.353608,1.53796,1.5279,0.999956,7.61212e-06,0.000177634,0.00933211,0,0,0,0,0,0,0,0,0,0,0,0,0,0,0,0,0,0.0041241,0.0041241,0,0,0,0,0,0,0,0,0,0.00300784,2.3628,22.3259
1.15518,2.11631,-0.162461,1.01918,-1.63967,1.57026,1.3776,-0.353606,1.53796,1.52792,0.999956,1.62655e-05,0.000183903,0.00933182,0,0,0,0,0,0,0,0,0,0,0,0,0,0,0,0,0,0.0041241,0.0041241,0,0,0,0,0,0,0,0,0,0.00300784,2.3628,22.3259
1.15518,2.11631,-0.162453,1.01918,-1.63967,1.57026,1.3776,-0.353605,1.53796,1.52793,0.999956,1.93563e-05,0.000186153,0.00933171,0,0,0,0,0,0,0,0,0,0,0,0,0,0,0,0,0,0.0041241,0.0041241,0,0,0,0,0,0,0,0,0,0.00300784,2.3628,22.3259

1.13585,2.13574,-0.150177,1.02143,-1.6551,1.57045,1.3579,-0.3,1.55,1.5422,1,-0.000398251,7.65303e-08,-0.000199053,0,0,0,0,0,0,0,0,0,0,0,0,0,0,0,0,0,0.0041241,0.0041241,0,0,0,0,0,0,0,0,0,0.00300784,2.3628,22.3259
1.1377,2.13793,-0.147993,1.02144,-1.65729,1.57045,1.35756,-0.300007,1.54979,1.54453,1,-0.00039602,1.51815e-06,-0.000199053,0,0,0,0,0,0,0,0,0,0,0,0,0,0,0,0,0,0.0041241,0.0041241,0,0,0,0,0,0,0,0,0,0.00300784,2.3628,22.3259
1.13954,2.14012,-0.145809,1.02146,-1.65948,1.57045,1.35721,-0.300012,1.54957,1.54686,1,-0.000393786,2.95954e-06,-0.000199053,0,0,0,0,0,0,0,0,0,0,0,0,0,0,0,0,0,0.0041241,0.0041241,0,0,0,0,0,0,0,0,0,0.00300784,2.3628,22.3259
1.14138,2.14231,-0.143626,1.02147,-1.66167,1.57046,1.35686,-0.300016,1.54934,1.54918,1,-0.000391546,4.40071e-06,-0.000199052,0,0,0,0,0,0,0,0,0,0,0,0,0,0,0,0,0,0.0041241,0.0041241,0,0,0,0,0,0,0,0,0,0.00300784,2.3628,22.3259
1.14323,2.14449,-0.141442,1.02149,-1.66386,1.57046,1.35652,-0.300018,1.54911,1.55151,1,-0.000389302,5.84166e-06,-0.000199052,0,0,0,0,0,0,0,0,0,0,0,0,0,0,0,0,0,0.0041241,0.0041241,0,0,0,0,0,0,0,0,0,0.00300784,2.3628,22.3259
1.14507,2.14668,-0.139259,1.0215,-1.66605,1.57046,1.35617,-0.300018,1.54887,1.55383,1,-0.000387054,7.28239e-06,-0.000199052,0,0,0,0,0,0,0,0,0,0,0,0,0,0,0,0,0,0.0041241,0.0041241,0,0,0,0,0,0,0,0,0,0.00300784,2.3628,22.3259
1.14691,2.14887,-0.137075,1.02151,-1.66825,1.57047,1.35583,-0.300017,1.54863,1.55615,1,-0.000384801,8.72291e-06,-0.000199051,0,0,0,0,0,0,0,0,0,0,0,0,0,0,0,0,0,0.0041241,0.0041241,0,0,0,0,0,0,0,0,0,0.00300784,2.3628,22.3259
1.14875,2.15106,-0.134891,1.02153,-1.67044,1.57047,1.35548,-0.300015,1.54838,1.55846,1,-0.000382543,1.01632e-05,-0.000199051,0,0,0,0,0,0,0,0,0,0,0,0,0,0,0,0,0,0.0041241,0.0041241,0,0,0,0,0,0,0,0,0,0.00300784,2.3628,22.3259
1.1506,2.15325,-0.132708,1.02154,-1.67263,1.57047,1.35513,-0.30001,1.54812,1.56078,1,-0.000380281,1.16033e-05,-0.00019905,0,0,0,0,0,0,0,0,0,0,0,0,0,0,0,0,0,0.0041241,0.0041241,0,0,0,0,0,0,0,0,0,0.00300784,2.3628,22.3259
1.15244,2.15544,-0.130524,1.02155,-1.67485,1.57048,1.35479,-0.299999,1.54785,1.56309,1,-0.000392165,3.98126e-06,-0.000199048,0,0,0,0,0,0,0,0,0,0,0,0,0,0,0,0,0,0.0041241,0.0041241,0,0,0,0,0,0,0,0,0,0.00300784,2.3628,22.3259
1.15272,2.15151,-0.133778,1.02129,-1.67132,1.57045,1.35707,-0.305418,1.54701,1.55951,1,-0.000378427,9.81535e-07,0.000766175,0,0,0,0,0,0,0,0,0,0,0,0,0,0,0,0,0,0.0041241,0.0041241,0,0,0,0,0,0,0,0,0,0.00300784,2.3628,22.3259
1.153,2.14758,-0.137032,1.02103,-1.6678,1.57043,1.35935,-0.31083,1.54614,1.55592,0.999998,-0.000371228,-6.17152e-06,0.00173155,0,0,0,0,0,0,0,0,0,0,0,0,0,0,0,0,0,0.0041241,0.0041241,0,0,0,0,0,0,0,0,0,0.00300784,2.3628,22.3259
1.15329,2.14365,-0.140286,1.02077,-1.66428,1.5704,1.36163,-0.316236,1.54523,1.55233,0.999996,-0.000363947,-1.32196e-05,0.00269719,0,0,0,0,0,0,0,0,0,0,0,0,0,0,0,0,0,0.0041241,0.0041241,0,0,0,0,0,0,0,0,0,0.00300784,2.3628,22.3259
1.15357,2.13972,-0.143539,1.02051,-1.66076,1.57038,1.36391,-0.321639,1.54428,1.54873,0.999993,-0.000356588,-2.01307e-05,0.00366333,0,0,0,0,0,0,0,0,0,0,0,0,0,0,0,0,0,0.0041241,0.0041241,0,0,0,0,0,0,0,0,0,0.00300784,2.3628,22.3259
1.15385,2.13578,-0.146793,1.02025,-1.65724,1.57035,1.3662,-0.327036,1.54329,1.54513,0.999989,-0.00034925,-2.69542e-05,0.00463002,0,0,0,0,0,0,0,0,0,0,0,0,0,0,0,0,0,0.0041241,0.0041241,0,0,0,0,0,0,0,0,0,0.00300784,2.3628,22.3259
1.15413,2.13185,-0.150047,1.01999,-1.65373,1.57033,1.36848,-0.332428,1.54227,1.54152,0.999984,-0.000342004,-3.37482e-05,0.00559721,0,0,0,0,0,0,0,0,0,0,0,0,0,0,0,0,0,0.0041241,0.0041241,0,0,0,0,0,0,0,0,0,0.00300784,2.3628,22.3259
1.15442,2.12792,-0.153301,1.01972,-1.65021,1.5703,1.37076,-0.337815,1.54122,1.53791,0.999978,-0.000334879,-4.05459e-05,0.00656485,0,0,0,0,0,0,0,0,0,0,0,0,0,0,0,0,0,0.0041241,0.0041241,0,0,0,0,0,0,0,0,0,0.00300784,2.3628,22.3259
1.1547,2.12399,-0.156555,1.01946,-1.64669,1.57028,1.37304,-0.343197,1.54013,1.53429,0.999972,-0.000327732,-4.72372e-05,0.00753302,0,0,0,0,0,0,0,0,0,0,0,0,0,0,0,0,0,0.0041241,0.0041241,0,0,0,0,0,0,0,0,0,0.00300784,2.3628,22.3259
1.15499,2.12005,-0.159809,1.0192,-1.64317,1.57025,1.37532,-0.348573,1.539,1.53068,0.999964,-0.000320412,-5.367e-05,0.00850202,0,0,0,0,0,0,0,0,0,0,0,0,0,0,0,0,0,0.0041241,0.0041241,0,0,0,0,0,0,0,0,0,0.00300784,2.3628,22.3259
1.15554,2.11605,-0.163182,1.01888,-1.63958,1.57042,1.3776,-0.354486,1.53768,1.52688,0.999953,-0.000409082,-1.13759e-05,0.00964041,0,0,0,0,0,0,0,0,0,0,0,0,0,0,0,0,0,0.0041241,0.0041241,0,0,0,0,0,0,0,0,0,0.00300784,2.3628,22.3259
1.15521,2.11629,-0.162966,1.01898,-1.6397,1.57025,1.3776,-0.353655,1.53794,1.52719,0.999956,-0.000277865,-2.38093e-05,0.00935234,0,0,0,0,0,0,0,0,0,0,0,0,0,0,0,0,0,0.0041241,0.0041241,0,0,0,0,0,0,0,0,0,0.00300784,2.3628,22.3259
1.15519,2.1163,-0.162617,1.01918,-1.63967,1.57025,1.3776,-0.353627,1.53797,1.52774,0.999956,-4.53234e-05,0.000136885,0.00933672,0,0,0,0,0,0,0,0,0,0,0,0,0,0,0,0,0,0.0041241,0.0041241,0,0,0,0,0,0,0,0,0,0.00300784,2.3628,22.3259
1.15519,2.1163,-0.162595,1.01918,-1.63967,1.57025,1.3776,-0.353624,1.53797,1.52777,0.999956,-3.66503e-05,0.000143758,0.00933576,0,0,0,0,0,0,0,0,0,0,0,0,0,0,0,0,0,0.0041241,0.0041241,0,0,0,0,0,0,0,0,0,0.00300784,2.3628,22.3259
1.15519,2.1163,-0.162572,1.01918,-1.63967,1.57025,1.3776,-0.35362,1.53797,1.52779,0.999956,-2.7946e-05,0.000150612,0.00933483,0,0,0,0,0,0,0,0,0,0,0,0,0,0,0,0,0,0.0041241,0.0041241,0,0,0,0,0,0,0,0,0,0.00300784,2.3628,22.3259
1.15519,2.1163,-0.16255,1.01918,-1.63967,1.57025,1.3776,-0.353617,1.53797,1.52782,0.999956,-1.91852e-05,0.000157432,0.00933396,0,0,0,0,0,0,0,0,0,0,0,0,0,0,0,0,0,0.0041241,0.0041241,0,0,0,0,0,0,0,0,0,0.00300784,2.3628,22.3259
1.15518,2.1163,-0.162527,1.01918,-1.63967,1.57025,1.3776,-0.353613,1.53797,1.52785,0.999956,-1.03495e-05,0.000164214,0.0093332,0,0,0,0,0,0,0,0,0,0,0,0,0,0,0,0,0,0.0041241,0.0041241,0,0,0,0,0,0,0,0,0,0.00300784,2.3628,22.3259
1.15518,2.1163,-0.162505,1.01918,-1.63967,1.57025,1.3776,-0.35361,1.53796,1.52787,0.999956,-1.42157e-06,0.000170951,0.00933258,0,0,0,0,0,0,0,0,0,0,0,0,0,0,0,0,0,0.0041241,0.0041241,0,0,0,0,0,0,0,0,0,0.00300784,2.3628,22.3259
1.15518,2.1163,-0.162482,1.01918,-1.63967,1.57026,1.3776,-0.353608,1.53796,1.5279,0.999956,7.61212e-06,0.000177634,0.00933211,0,0,0,0,0,0,0,0,0,0,0,0,0,0,0,0,0,0.0041241,0.0041241,0,0,0,0,0,0,0,0,0,0.00300784,2.3628,22.3259
1.15518,2.11631,-0.162461,1.01918,-1.63967,1.57026,1.3776,-0.353606,1.53796,1.52792,0.999956,1.62655e-05,0.000183903,0.00933182,0,0,0,0,0,0,0,0,0,0,0,0,0,0,0,0,0,0.0041241,0.0041241,0,0,0,0,0,0,0,0,0,0.00300784,2.3628,22.3259
1.15518,2.11631,-0.162453,1.01918,-1.63967,1.57026,1.3776,-0.353605,1.53796,1.52793,0.999956,1.93563e-05,0.000186153,0.00933171,0,0,0,0,0,0,0,0,0,0,0,0,0,0,0,0,0,0.0041241,0.0041241,0,0,0,0,0,0,0,0,0,0.00300784,2.3628,22.3259

1.13585,2.13574,-0.150177,1.02143,-1.6551,1.57045,1.3579,-0.3,1.55,1.5422,1,-0.000398251,7.65303e-08,-0.000199053,0,0,0,0,0,0,0,0,0,0,0,0,0,0,0,0,0,1.17307,1.17307,0,0,0,0,0,0,0,0,0,0.00359966,2.34879,22.2736
1.13784,2.13809,-0.147826,1.02144,-1.65746,1.57045,1.35753,-0.300007,1.54977,1.5447,1,-0.000398257,7.09455e-08,-0.000199057,0,0,0,0,0,0,0,0,0,0,0,0,0,0,0,0,0,1.17307,1.17307,0,0,0,0,0,0,0,0,0,0.00359966,2.34879,22.2736
1.13982,2.14045,-0.145476,1.02146,-1.65982,1.57045,1.35716,-0.300013,1.54953,1.54721,1,-0.00039826,6.68886e-08,-0.00019906,0,0,0,0,0,0,0,0,0,0,0,0,0,0,0,0,0,1.17307,1.17307,0,0,0,0,0,0,0,0,0,0.00359966,2.34879,22.2736
1.14181,2.14281,-0.143126,1.02147,-1.66218,1.57046,1.35679,-0.300016,1.54929,1.54971,1,-0.000398258,6.43574e-08,-0.000199063,0,0,0,0,0,0,0,0,0,0,0,0,0,0,0,0,0,1.17307,1.17307,0,0,0,0,0,0,0,0,0,0.00359966,2.34879,22.2736
1.14379,2.14516,-0.140775,1.02148,-1.66455,1.57046,1.35642,-0.300018,1.54903,1.55221,1,-0.000398253,6.33453e-08,-0.000199066,0,0,0,0,0,0,0,0,0,0,0,0,0,0,0,0,0,1.17307,1.17307,0,0,0,0,0,0,0,0,0,0.00359966,2.34879,22.2736
1.14577,2.14752,-0.138425,1.02149,-1.66691,1.57046,1.35604,-0.300018,1.54877,1.5547,1,-0.000398243,6.38401e-08,-0.000199069,0,0,0,0,0,0,0,0,0,0,0,0,0,0,0,0,0,1.17307,1.17307,0,0,0,0,0,0,0,0,0,0.00359966,2.34879,22.2736
1.14776,2.14987,-0.136075,1.0215,-1.66927,1.57047,1.35567,-0.300016,1.54851,1.55719,1,-0.000398229,6.58258e-08,-0.000199072,0,0,0,0,0,0,0,0,0,0,0,0,0,0,0,0,0,1.17307,1.17307,0,0,0,0,0,0,0,0,0,0.00359966,2.34879,22.2736
1.14974,2.15223,-0.133725,1.02152,-1.67163,1.57047,1.3553,-0.300013,1.54823,1.55969,1,-0.000398211,6.92901e-08,-0.000199075,0,0,0,0,0,0,0,0,0,0,0,0,0,0,0,0,0,1.17307,1.17307,0,0,0,0,0,0,0,0,0,0.00359966,2.34879,22.2736
1.15172,2.15458,-0.131374,1.02153,-1.67399,1.57048,1.35493,-0.300007,1.54795,1.56217,1,-0.00039819,7.42437e-08,-0.000199079,0,0,0,0,0,0,0,0,0,0,0,0,0,0,0,0,0,1.17307,1.17307,0,0,0,0,0,0,0,0,0,0.00359966,2.34879,22.2736
1.15371,2.15694,-0.129024,1.02154,-1.67635,1.57048,1.35456,-0.3,1.54766,1.56466,1,-0.000398164,8.07329e-08,-0.000199082,0,0,0,0,0,0,0,0,0,0,0,0,0,0,0,0,0,1.17307,1.17307,0,0,0,0,0,0,0,0,0,0.00359966,2.34879,22.2736
1.15402,2.1527,-0.132313,1.02144,-1.6725,1.57047,1.35701,-0.305873,1.54678,1.56119,1,-0.000203884,0.00012509,0.000847684,0,0,0,0,0,0,0,0,0,0,0,0,0,0,0,0,0,1.17307,1.17307,0,0,0,0,0,0,0,0,0,0.00359966,2.34879,22.2736
1.15432,2.14846,-0.135608,1.02133,-1.66865,1.57047,1.35947,-0.311741,1.54586,1.5577,0.999998,-1.50273e-05,0.000248449,0.00189405,0,0,0,0,0,0,0,0,0,0,0,0,0,0,0,0,0,1.17307,1.17307,0,0,0,0,0,0,0,0,0,0.00359966,2.34879,22.2736
1.15463,2.14422,-0.138916,1.02121,-1.6648,1.57046,1.36192,-0.317601,1.54491,1.55418,0.999996,0.00016438,0.000367414,0.00293993,0,0,0,0,0,0,0,0,0,0,0,0,0,0,0,0,0,1.17307,1.17307,0,0,0,0,0,0,0,0,0,0.00359966,2.34879,22.2736
1.15494,2.13998,-0.142241,1.02109,-1.66094,1.57045,1.36438,-0.323455,1.54391,1.55063,0.999992,0.000331358,0.000479864,0.00398535,0,0,0,0,0,0,0,0,0,0,0,0,0,0,0,0,0,1.17307,1.17307,0,0,0,0,0,0,0,0,0,0.00359966,2.34879,22.2736
1.15525,2.13574,-0.145585,1.02096,-1.6571,1.57045,1.36683,-0.329304,1.54287,1.54705,0.999987,0.00048423,0.000584638,0.00503137,0,0,0,0,0,0,0,0,0,0,0,0,0,0,0,0,0,1.17307,1.17307,0,0,0,0,0,0,0,0,0,0.00359966,2.34879,22.2736
1.15556,2.1315,-0.148949,1.02081,-1.65325,1.57044,1.36928,-0.33515,1.54179,1.54344,0.999981,0.000622964,0.000681602,0.00607842,0,0,0,0,0,0,0,0,0,0,0,0,0,0,0,0,0,1.17307,1.17307,0,0,0,0,0,0,0,0,0,0.00359966,2.34879,22.2736
1.15587,2.12726,-0.152332,1.02065,-1.6494,1.57043,1.37174,-0.34099,1.54066,1.53979,0.999974,0.000748285,0.00077106,0.00712632,0,0,0,0,0,0,0,0,0,0,0,0,0,0,0,0,0,1.17307,1.17307,0,0,0,0,0,0,0,0,0,0.00359966,2.34879,22.2736
1.15618,2.12303,-0.15573,1.02049,-1.64556,1.57043,1.37419,-0.346823,1.5395,1.53611,0.999966,0.000863213,0.000854734,0.00817409,0,0,0,0,0,0,0,0,0,0,0,0,0,0,0,0,0,1.17307,1.17307,0,0,0,0,0,0,0,0,0,0.00359966,2.34879,22.2736
1.15649,2.11879,-0.159134,1.02032,-1.64171,1.57042,1.37665,-0.352646,1.5383,1.53241,0.999957,0.000972671,0.000935825,0.00922133,0,0,0,0,0,0,0,0,0,0,0,0,0,0,0,0,0,1.17307,1.17307,0,0,0,0,0,0,0,0,0,0.00359966,2.34879,22.2736
1.15704,2.11455,-0.164682,1.01891,-1.63808,1.57041,1.3791,-0.358731,1.53682,1.52529,0.999946,-0.000398157,-4.11171e-06,0.0103904,0,0,0,0,0,0,0,0,0,0,0,0,0,0,0,0,0,1.17307,1.17307,0,0,0,0,0,0,0,0,0,0.00359966,2.34879,22.2736
1.15522,2.11585,-0.162323,1.02006,-1.6382,1.57008,1.379,-0.35449,1.53827,1.52887,0.99996,0.00109631,0.00081897,0.008881,0,0,0,0,0,0,0,0,0,0,0,0,0,0,0,0,0,1.17307,1.17307,0,0,0,0,0,0,0,0,0,0.00359966,2.34879,22.2736
1.15527,2.11581,-0.162249,1.02011,-1.63819,1.57009,1.379,-0.354605,1.53824,1.52899,0.999959,0.00114491,0.000860133,0.00892173,0,0,0,0,0,0,0,0,0,0,0,0,0,0,0,0,0,1.17307,1.17307,0,0,0,0,0,0,0,0,0,0.00359966,2.34879,22.2736
1.15531,2.11578,-0.162177,1.02015,-1.63818,1.5701,1.379,-0.354716,1.5382,1.52911,0.999959,0.0011919,0.000899935,0.00896117,0,0,0,0,0,0,0,0,0,0,0,0,0,0,0,0,0,1.17307,1.17307,0,0,0,0,0,0,0,0,0,0.00359966,2.34879,22.2736
1.15536,2.11575,-0.162109,1.02019,-1.63818,1.57011,1.379,-0.35482,1.53818,1.52922,0.999958,0.0012357,0.000937076,0.00899808,0,0,0,0,0,0,0,0,0,0,0,0,0,0,0,0,0,1.17307,1.17307,0,0,0,0,0,0,0,0,0,0.00359966,2.34879,22.2736
1.15539,2.11572,-0.162049,1.02023,-1.63818,1.57012,1.379,-0.354914,1.53815,1.52931,0.999958,0.00127491,0.000970368,0.00903135,0,0,0,0,0,0,0,0,0,0,0,0,0,0,0,0,0,1.17307,1.17307,0,0,0,0,0,0,0,0,0,0.00359966,2.34879,22.2736
1.15543,2.11569,-0.161997,1.02027,-1.63817,1.57013,1.379,-0.354994,1.53813,1.5294,0.999958,0.00130831,0.000998779,0.00905997,0,0,0,0,0,0,0,0,0,0,0,0,0,0,0,0,0,1.17307,1.17307,0,0,0,0,0,0,0,0,0,0.00359966,2.34879,22.2736
1.15545,2.11567,-0.161954,1.02029,-1.63817,1.57014,1.379,-0.355059,1.53811,1.52947,0.999957,0.00133489,0.00102146,0.00908313,0,0,0,0,0,0,0,0,0,0,0,0,0,0,0,0,0,1.17307,1.17307,0,0,0,0,0,0,0,0,0,0.00359966,2.34879,22.2736
1.15547,2.11566,-0.161924,1.02031,-1.63817,1.57014,1.379,-0.355106,1.53809,1.52952,0.999957,0.00135403,0.00103787,0.00910016,0,0,0,0,0,0,0,0,0,0,0,0,0,0,0,0,0,1.17307,1.17307,0,0,0,0,0,0,0,0,0,0.00359966,2.34879,22.2736
1.15548,2.11565,-0.161905,1.02032,-1.63817,1.57015,1.379,-0.355136,1.53808,1.52955,0.999957,0.00136575,0.00104792,0.0091106,0,0,0,0,0,0,0,0,0,0,0,0,0,0,0,0,0,1.17307,1.17307,0,0,0,0,0,0,0,0,0,0.00359966,2.34879,22.2736
1.15549,2.11565,-0.161898,1.02033,-1.63817,1.57015,1.379,-0.355146,1.53808,1.52956,0.999957,0.00136975,0.00105136,0.00911419,0,0,0,0,0,0,0,0,0,0,0,0,0,0,0,0,0,1.17307,1.17307,0,0,0,0,0,0,0,0,0,0.00359966,2.34879,22.2736

1.13585,2.13574,-0.150177,1.02143,-1.6551,1.57045,1.3579,-0.3,1.55,1.5422,1,-0.000398251,7.65303e-08,-0.000199053,0,0,0,0,0,0,0,0,0,0,0,0,0,0,0,0,0,3.72636,3.72636,0,0,0,0,0,0,0,0,0,0.00537523,2.32794,22.1961
1.13805,2.13834,-0.147576,1.02144,-1.65771,1.57045,1.35749,-0.300009,1.54974,1.54497,1,-0.000398261,6.92857e-08,-0.000199056,0,0,0,0,0,0,0,0,0,0,0,0,0,0,0,0,0,3.72636,3.72636,0,0,0,0,0,0,0,0,0,0.00537523,2.32794,22.1961
1.14024,2.14095,-0.144976,1.02146,-1.66032,1.57045,1.35708,-0.300016,1.54948,1.54774,1,-0.000398267,6.3918e-08,-0.00019906,0,0,0,0,0,0,0,0,0,0,0,0,0,0,0,0,0,3.72636,3.72636,0,0,0,0,0,0,0,0,0,0.00537523,2.32794,22.1961
1.14244,2.14356,-0.142376,1.02147,-1.66293,1.57046,1.35667,-0.30002,1.54921,1.5505,1,-0.000398267,6.04343e-08,-0.000199063,0,0,0,0,0,0,0,0,0,0,0,0,0,0,0,0,0,3.72636,3.72636,0,0,0,0,0,0,0,0,0,0.00537523,2.32794,22.1961
1.14463,2.14616,-0.139775,1.02148,-1.66555,1.57046,1.35626,-0.300022,1.54892,1.55327,1,-0.000398262,5.88415e-08,-0.000199066,0,0,0,0,0,0,0,0,0,0,0,0,0,0,0,0,0,3.72636,3.72636,0,0,0,0,0,0,0,0,0,0.00537523,2.32794,22.1961
1.14683,2.14877,-0.137175,1.02149,-1.66816,1.57047,1.35585,-0.300022,1.54863,1.55602,1,-0.000398253,5.91465e-08,-0.000199069,0,0,0,0,0,0,0,0,0,0,0,0,0,0,0,0,0,3.72636,3.72636,0,0,0,0,0,0,0,0,0,0.00537523,2.32794,22.1961
1.14902,2.15137,-0.134575,1.0215,-1.67077,1.57047,1.35544,-0.30002,1.54833,1.55878,1,-0.000398238,6.13564e-08,-0.000199072,0,0,0,0,0,0,0,0,0,0,0,0,0,0,0,0,0,3.72636,3.72636,0,0,0,0,0,0,0,0,0,0.00537523,2.32794,22.1961
1.15122,2.15398,-0.131975,1.02152,-1.67338,1.57047,1.35503,-0.300015,1.54802,1.56153,1,-0.000398218,6.5478e-08,-0.000199075,0,0,0,0,0,0,0,0,0,0,0,0,0,0,0,0,0,3.72636,3.72636,0,0,0,0,0,0,0,0,0,0.00537523,2.32794,22.1961
1.15341,2.15658,-0.129374,1.02153,-1.67599,1.57048,1.35462,-0.300008,1.5477,1.56428,1,-0.000398193,7.15183e-08,-0.000199078,0,0,0,0,0,0,0,0,0,0,0,0,0,0,0,0,0,3.72636,3.72636,0,0,0,0,0,0,0,0,0,0.00537523,2.32794,22.1961
1.15561,2.15919,-0.126774,1.02154,-1.6786,1.57048,1.35421,-0.299999,1.54737,1.56703,1,-0.000398163,7.94841e-08,-0.000199081,0,0,0,0,0,0,0,0,0,0,0,0,0,0,0,0,0,3.72636,3.72636,0,0,0,0,0,0,0,0,0,0.00537523,2.32794,22.1961
1.15547,2.1549,-0.130112,1.02167,-1.67425,1.57023,1.35692,-0.30528,1.54684,1.56372,1,0.000149257,0.000204083,0.000516314,0,0,0,0,0,0,0,0,0,0,0,0,0,0,0,0,0,3.72636,3.72636,0,0,0,0,0,0,0,0,0,0.00537523,2.32794,22.1961
1.15532,2.15061,-0.133451,1.0218,-1.6699,1.56997,1.35964,-0.310558,1.54627,1.5604,0.999999,0.000695252,0.000411797,0.0012313,0,0,0,0,0,0,0,0,0,0,0,0,0,0,0,0,0,3.72636,3.72636,0,0,0,0,0,0,0,0,0,0.00537523,2.32794,22.1961
1.15518,2.14633,-0.136789,1.02192,-1.66555,1.56971,1.36235,-0.315832,1.54566,1.55708,0.999997,0.00123985,0.00062321,0.0019456,0,0,0,0,0,0,0,0,0,0,0,0,0,0,0,0,0,3.72636,3.72636,0,0,0,0,0,0,0,0,0,0.00537523,2.32794,22.1961
1.15504,2.14204,-0.140128,1.02205,-1.6612,1.56946,1.36507,-0.3211,1.54502,1.55375,0.999995,0.00178295,0.000838153,0.00265864,0,0,0,0,0,0,0,0,0,0,0,0,0,0,0,0,0,3.72636,3.72636,0,0,0,0,0,0,0,0,0,0.00537523,2.32794,22.1961
1.15489,2.13775,-0.143466,1.02218,-1.65685,1.5692,1.36778,-0.326364,1.54435,1.55042,0.999991,0.00232489,0.0010569,0.00337063,0,0,0,0,0,0,0,0,0,0,0,0,0,0,0,0,0,3.72636,3.72636,0,0,0,0,0,0,0,0,0,0.00537523,2.32794,22.1961
1.15474,2.13347,-0.146804,1.02231,-1.6525,1.56894,1.37049,-0.331622,1.54364,1.54708,0.999987,0.00286574,0.00127952,0.00408161,0,0,0,0,0,0,0,0,0,0,0,0,0,0,0,0,0,3.72636,3.72636,0,0,0,0,0,0,0,0,0,0.00537523,2.32794,22.1961
1.1546,2.12918,-0.150142,1.02243,-1.64815,1.56869,1.37321,-0.336875,1.54289,1.54375,0.999982,0.00340537,0.00150591,0.00479149,0,0,0,0,0,0,0,0,0,0,0,0,0,0,0,0,0,3.72636,3.72636,0,0,0,0,0,0,0,0,0,0.00537523,2.32794,22.1961
1.15445,2.1249,-0.15348,1.02256,-1.6438,1.56843,1.37592,-0.34212,1.54211,1.5404,0.999976,0.00394335,0.00173573,0.00549985,0,0,0,0,0,0,0,0,0,0,0,0,0,0,0,0,0,3.72636,3.72636,0,0,0,0,0,0,0,0,0,0.00537523,2.32794,22.1961
1.1543,2.12062,-0.156684,1.02269,-1.63944,1.56817,1.37864,-0.347347,1.54129,1.53721,0.999968,0.00453495,0.00200662,0.00620574,0,0,0,0,0,0,0,0,0,0,0,0,0,0,0,0,0,3.72636,3.72636,0,0,0,0,0,0,0,0,0,0.00537523,2.32794,22.1961
1.15929,2.1123,-0.166882,1.01895,-1.6359,1.57041,1.38135,-0.365078,1.53547,1.52297,0.999934,-0.00038942,1.47844e-06,0.0115153,0,0,0,0,0,0,0,0,0,0,0,0,0,0,0,0,0,3.72636,3.72636,0,0,0,0,0,0,0,0,0,0.00537523,2.32794,22.1961
1.15429,2.11607,-0.159871,1.02243,-1.63593,1.56783,1.38125,-0.352853,1.53997,1.53367,0.999962,0.00465304,0.00190548,0.00716722,0,0,0,0,0,0,0,0,0,0,0,0,0,0,0,0,0,3.72636,3.72636,0,0,0,0,0,0,0,0,0,0.00537523,2.32794,22.1961
1.15436,2.11602,-0.159999,1.02236,-1.63594,1.56784,1.38125,-0.353013,1.5399,1.53347,0.999962,0.00456033,0.00185268,0.00722833,0,0,0,0,0,0,0,0,0,0,0,0,0,0,0,0,0,3.72636,3.72636,0,0,0,0,0,0,0,0,0,0.00537523,2.32794,22.1961
1.15442,2.11597,-0.15999,1.02237,-1.63594,1.56786,1.38125,-0.353163,1.53986,1.53349,0.999961,0.00456456,0.00186549,0.00728271,0,0,0,0,0,0,0,0,0,0,0,0,0,0,0,0,0,3.72636,3.72636,0,0,0,0,0,0,0,0,0,0.00537523,2.32794,22.1961
1.15447,2.11593,-0.159982,1.02237,-1.63593,1.56787,1.38125,-0.353293,1.53981,1.5335,0.999961,0.00456825,0.00187673,0.00733047,0,0,0,0,0,0,0,0,0,0,0,0,0,0,0,0,0,3.72636,3.72636,0,0,0,0,0,0,0,0,0,0.00537523,2.32794,22.1961
1.15452,2.1159,-0.159976,1.02238,-1.63593,1.56788,1.38125,-0.353405,1.53978,1.53352,0.999961,0.0045714,0.00188632,0.00737127,0,0,0,0,0,0,0,0,0,0,0,0,0,0,0,0,0,3.72636,3.72636,0,0,0,0,0,0,0,0,0,0.00537523,2.32794,22.1961
1.15456,2.11587,-0.15997,1.02238,-1.63593,1.56789,1.38125,-0.353497,1.53975,1.53353,0.99996,0.00457401,0.00189422,0.00740478,0,0,0,0,0,0,0,0,0,0,0,0,0,0,0,0,0,3.72636,3.72636,0,0,0,0,0,0,0,0,0,0.00537523,2.32794,22.1961
1.15458,2.11585,-0.159966,1.02239,-1.63592,1.5679,1.38125,-0.353569,1.53973,1.53353,0.99996,0.00457606,0.00190038,0.00743093,0,0,0,0,0,0,0,0,0,0,0,0,0,0,0,0,0,3.72636,3.72636,0,0,0,0,0,0,0,0,0,0.00537523,2.32794,22.1961
1.15461,2.11583,-0.159963,1.02239,-1.63592,1.56791,1.38125,-0.35362,1.53971,1.53354,0.99996,0.00457751,0.00190479,0.00744969,0,0,0,0,0,0,0,0,0,0,0,0,0,0,0,0,0,3.72636,3.72636,0,0,0,0,0,0,0,0,0,0.00537523,2.32794,22.1961
1.15462,2.11582,-0.159961,1.02239,-1.63592,1.56791,1.38125,-0.353651,1.5397,1.53354,0.99996,0.00457837,0.00190742,0.00746101,0,0,0,0,0,0,0,0,0,0,0,0,0,0,0,0,0,3.72636,3.72636,0,0,0,0,0,0,0,0,0,0.00537523,2.32794,22.1961
1.15462,2.11582,-0.159961,1.02239,-1.63592,1.56791,1.38125,-0.353662,1.5397,1.53354,0.99996,0.00457862,0.00190828,0.00746487,0,0,0,0,0,0,0,0,0,0,0,0,0,0,0,0,0,3.72636,3.72636,0,0,0,0,0,0,0,0,0,0.00537523,2.32794,22.1961

1.13585,2.13574,-0.150177,1.02143,-1.6551,1.57045,1.3579,-0.3,1.55,1.5422,1,-0.000398251,7.65304e-08,-0.000199053,0,0,0,0,0,0,0,0,0,0,0,0,0,0,0,0,0,1.11347,1.11347,0,0,0,0,0,0,0,0,0,0.00639275,2.29685,22.1316
1.13837,2.13872,-0.147202,1.02144,-1.65809,1.57045,1.35743,-0.300011,1.54971,1.54537,1,-0.000398464,-6.68944e-08,-0.000199104,0,0,0,0,0,0,0,0,0,0,0,0,0,0,0,0,0,1.11347,1.11347,0,0,0,0,0,0,0,0,0,0.00639275,2.29685,22.1316
1.14088,2.1417,-0.144227,1.02146,-1.66107,1.57046,1.35697,-0.30002,1.5494,1.54853,1,-0.000398652,-1.95007e-07,-0.000199149,0,0,0,0,0,0,0,0,0,0,0,0,0,0,0,0,0,1.11347,1.11347,0,0,0,0,0,0,0,0,0,0.00639275,2.29685,22.1316
1.14339,2.14468,-0.141251,1.02147,-1.66406,1.57046,1.3565,-0.300025,1.54908,1.55169,1,-0.00039879,-2.89696e-07,-0.000199182,0,0,0,0,0,0,0,0,0,0,0,0,0,0,0,0,0,1.11347,1.11347,0,0,0,0,0,0,0,0,0,0.00639275,2.29685,22.1316
1.1459,2.14766,-0.138276,1.02148,-1.66705,1.57046,1.35603,-0.300028,1.54875,1.55485,1,-0.000398858,-3.39433e-07,-0.000199198,0,0,0,0,0,0,0,0,0,0,0,0,0,0,0,0,0,1.11347,1.11347,0,0,0,0,0,0,0,0,0,0.00639275,2.29685,22.1316
1.14841,2.15064,-0.135301,1.02149,-1.67003,1.57047,1.35556,-0.300028,1.54841,1.55801,1,-0.000398849,-3.38615e-07,-0.000199199,0,0,0,0,0,0,0,0,0,0,0,0,0,0,0,0,0,1.11347,1.11347,0,0,0,0,0,0,0,0,0,0.00639275,2.29685,22.1316
1.15093,2.15362,-0.132326,1.0215,-1.67302,1.57047,1.35509,-0.300025,1.54806,1.56116,1,-0.000398761,-2.8685e-07,-0.000199184,0,0,0,0,0,0,0,0,0,0,0,0,0,0,0,0,0,1.11347,1.11347,0,0,0,0,0,0,0,0,0,0.00639275,2.29685,22.1316
1.15344,2.1566,-0.12935,1.02152,-1.676,1.57048,1.35462,-0.300019,1.5477,1.5643,1,-0.000398605,-1.91406e-07,-0.000199157,0,0,0,0,0,0,0,0,0,0,0,0,0,0,0,0,0,1.11347,1.11347,0,0,0,0,0,0,0,0,0,0.00639275,2.29685,22.1316
1.15595,2.15958,-0.126375,1.02153,-1.67899,1.57048,1.35415,-0.30001,1.54732,1.56745,1,-0.000398397,-6.41138e-08,-0.000199121,0,0,0,0,0,0,0,0,0,0,0,0,0,0,0,0,0,1.11347,1.11347,0,0,0,0,0,0,0,0,0,0.00639275,2.29685,22.1316
1.15846,2.16256,-0.123399,1.02154,-1.68198,1.57049,1.35368,-0.299998,1.54693,1.57059,1,-0.000398159,8.09172e-08,-0.000199082,0,0,0,0,0,0,0,0,0,0,0,0,0,0,0,0,0,1.11347,1.11347,0,0,0,0,0,0,0,0,0,0.00639275,2.29685,22.1316
1.15837,2.15753,-0.127414,1.02129,-1.6775,1.57048,1.35679,-0.306251,1.54602,1.56624,1,-0.000308028,5.81767e-05,0.000723144,0,0,0,0,0,0,0,0,0,0,0,0,0,0,0,0,0,1.11347,1.11347,0,0,0,0,0,0,0,0,0,0.00639275,2.29685,22.1316
1.15829,2.15249,-0.131429,1.02104,-1.67302,1.57047,1.35989,-0.312498,1.54505,1.56189,0.999999,-0.00021754,0.000117517,0.00164551,0,0,0,0,0,0,0,0,0,0,0,0,0,0,0,0,0,1.11347,1.11347,0,0,0,0,0,0,0,0,0,0.00639275,2.29685,22.1316
1.1582,2.14745,-0.135442,1.02079,-1.66854,1.57047,1.363,-0.318738,1.54403,1.55753,0.999997,-0.00012608,0.000178469,0.00256799,0,0,0,0,0,0,0,0,0,0,0,0,0,0,0,0,0,1.11347,1.11347,0,0,0,0,0,0,0,0,0,0.00639275,2.29685,22.1316
1.15811,2.14242,-0.139455,1.02054,-1.66405,1.57046,1.3661,-0.324972,1.54297,1.55317,0.999994,-3.33189e-05,0.000241265,0.00349071,0,0,0,0,0,0,0,0,0,0,0,0,0,0,0,0,0,1.11347,1.11347,0,0,0,0,0,0,0,0,0,0.00639275,2.29685,22.1316
1.15803,2.13738,-0.143466,1.02029,-1.65957,1.57045,1.36921,-0.331196,1.54185,1.54881,0.99999,6.06029e-05,0.000305685,0.00441299,0,0,0,0,0,0,0,0,0,0,0,0,0,0,0,0,0,1.11347,1.11347,0,0,0,0,0,0,0,0,0,0.00639275,2.29685,22.1316
1.15794,2.13235,-0.147477,1.02005,-1.65508,1.57044,1.37231,-0.337411,1.54068,1.54444,0.999986,0.00015567,0.000371669,0.00533452,0,0,0,0,0,0,0,0,0,0,0,0,0,0,0,0,0,1.11347,1.11347,0,0,0,0,0,0,0,0,0,0.00639275,2.29685,22.1316
1.15785,2.12731,-0.151487,1.0198,-1.65059,1.57043,1.37542,-0.343615,1.53946,1.54006,0.99998,0.000252211,0.000439474,0.0062552,0,0,0,0,0,0,0,0,0,0,0,0,0,0,0,0,0,1.11347,1.11347,0,0,0,0,0,0,0,0,0,0.00639275,2.29685,22.1316
1.15776,2.12228,-0.155495,1.01956,-1.6461,1.57042,1.37852,-0.349808,1.5382,1.53568,0.999974,0.000350618,0.000509489,0.00717519,0,0,0,0,0,0,0,0,0,0,0,0,0,0,0,0,0,1.11347,1.11347,0,0,0,0,0,0,0,0,0,0.00639275,2.29685,22.1316
1.15767,2.11725,-0.159501,1.01932,-1.6416,1.57041,1.38162,-0.355992,1.53688,1.5313,0.999967,0.000451191,0.000581987,0.00809476,0,0,0,0,0,0,0,0,0,0,0,0,0,0,0,0,0,1.11347,1.11347,0,0,0,0,0,0,0,0,0,0.00639275,2.29685,22.1316
1.16267,2.10892,-0.163507,1.01675,-1.6371,1.5704,1.38473,-0.373093,1.53133,1.52532,0.999913,-0.000398031,-5.41407e-06,0.0132014,0,0,0,0,0,0,0,0,0,0,0,0,0,0,0,0,0,1.11347,1.11347,0,0,0,0,0,0,0,0,0,0.00639275,2.29685,22.1316
1.15766,2.1127,-0.1565,1.0258,-1.63255,1.5712,1.38463,-0.363332,1.53755,1.54041,0.999911,0.00782876,0.00620926,0.00886482,0,0,0,0,0,0,0,0,0,0,0,0,0,0,0,0,0,1.11347,1.11347,0,0,0,0,0,0,0,0,0,0.00639275,2.29685,22.1316
1.15764,2.11272,-0.156624,1.02573,-1.63256,1.57119,1.38463,-0.36326,1.53757,1.54021,0.999912,0.00774719,0.00614606,0.00884085,0,0,0,0,0,0,0,0,0,0,0,0,0,0,0,0,0,1.11347,1.11347,0,0,0,0,0,0,0,0,0,0.00639275,2.29685,22.1316
1.15761,2.11274,-0.156721,1.02568,-1.63257,1.57118,1.38463,-0.363191,1.53759,1.54006,0.999913,0.00768444,0.00609612,0.00881738,0,0,0,0,0,0,0,0,0,0,0,0,0,0,0,0,0,1.11347,1.11347,0,0,0,0,0,0,0,0,0,0.00639275,2.29685,22.1316
1.15758,2.11276,-0.156815,1.02562,-1.63258,1.57117,1.38462,-0.363126,1.5376,1.53991,0.999914,0.00762449,0.00604845,0.00879515,0,0,0,0,0,0,0,0,0,0,0,0,0,0,0,0,0,1.11347,1.11347,0,0,0,0,0,0,0,0,0,0.00639275,2.29685,22.1316
1.15756,2.11278,-0.156899,1.02558,-1.63258,1.57116,1.38462,-0.363067,1.53762,1.53978,0.999915,0.00756982,0.00600503,0.00877511,0,0,0,0,0,0,0,0,0,0,0,0,0,0,0,0,0,1.11347,1.11347,0,0,0,0,0,0,0,0,0,0.00639275,2.29685,22.1316
1.15754,2.11279,-0.156973,1.02553,-1.63259,1.57116,1.38462,-0.363016,1.53763,1.53966,0.999916,0.00752258,0.00596754,0.00875787,0,0,0,0,0,0,0,0,0,0,0,0,0,0,0,0,0,1.11347,1.11347,0,0,0,0,0,0,0,0,0,0.00639275,2.29685,22.1316
1.15753,2.11281,-0.157032,1.0255,-1.63259,1.57115,1.38462,-0.362975,1.53764,1.53957,0.999916,0.00748434,0.0059372,0.00874395,0,0,0,0,0,0,0,0,0,0,0,0,0,0,0,0,0,1.11347,1.11347,0,0,0,0,0,0,0,0,0,0.00639275,2.29685,22.1316
1.15751,2.11282,-0.157076,1.02547,-1.6326,1.57115,1.38462,-0.362945,1.53765,1.5395,0.999917,0.00745625,0.00591492,0.00873375,0,0,0,0,0,0,0,0,0,0,0,0,0,0,0,0,0,1.11347,1.11347,0,0,0,0,0,0,0,0,0,0.00639275,2.29685,22.1316
1.15751,2.11282,-0.157102,1.02546,-1.6326,1.57114,1.38462,-0.362927,1.53766,1.53945,0.999917,0.00743905,0.00590129,0.0087275,0,0,0,0,0,0,0,0,0,0,0,0,0,0,0,0,0,1.11347,1.11347,0,0,0,0,0,0,0,0,0,0.00639275,2.29685,22.1316
1.1575,2.11282,-0.157111,1.02545,-1.6326,1.57114,1.38462,-0.362921,1.53766,1.53944,0.999917,0.00743317,0.00589662,0.00872537,0,0,0,0,0,0,0,0,0,0,0,0,0,0,0,0,0,1.11347,1.11347,0,0,0,0,0,0,0,0,0,0.00639275,2.29685,22.1316

1.13585,2.13574,-0.150177,1.02143,-1.6551,1.57045,1.3579,-0.3,1.55,1.5422,1,-0.000398251,7.65303e-08,-0.000199053,0,0,0,0,0,0,0,0,0,0,0,0,0,0,0,0,0,1.18665,1.18665,0,0,0,0,0,0,0,0,0,0.00803669,2.2506,22.0009
1.13884,2.13928,-0.146639,1.02144,-1.65865,1.57045,1.35735,-0.300016,1.54965,1.54597,1,-0.000398298,4.98747e-08,-0.000199061,0,0,0,0,0,0,0,0,0,0,0,0,0,0,0,0,0,1.18665,1.18665,0,0,0,0,0,0,0,0,0,0.00803669,2.2506,22.0009
1.14183,2.14282,-0.143101,1.02146,-1.6622,1.57046,1.35679,-0.300028,1.54928,1.54973,1,-0.000398334,2.8055e-08,-0.000199068,0,0,0,0,0,0,0,0,0,0,0,0,0,0,0,0,0,1.18665,1.18665,0,0,0,0,0,0,0,0,0,0.00803669,2.2506,22.0009
1.14482,2.14637,-0.139563,1.02147,-1.66575,1.57046,1.35624,-0.300036,1.5489,1.55348,1,-0.000398356,1.29786e-08,-0.000199074,0,0,0,0,0,0,0,0,0,0,0,0,0,0,0,0,0,1.18665,1.18665,0,0,0,0,0,0,0,0,0,0.00803669,2.2506,22.0009
1.14781,2.14991,-0.136026,1.02148,-1.6693,1.57047,1.35568,-0.300039,1.54849,1.55723,1,-0.000398362,5.87447e-09,-0.000199078,0,0,0,0,0,0,0,0,0,0,0,0,0,0,0,0,0,1.18665,1.18665,0,0,0,0,0,0,0,0,0,0.00803669,2.2506,22.0009
1.15079,2.15345,-0.132488,1.02149,-1.67284,1.57047,1.35513,-0.300039,1.54808,1.56098,1,-0.000398351,7.34602e-09,-0.00019908,0,0,0,0,0,0,0,0,0,0,0,0,0,0,0,0,0,1.18665,1.18665,0,0,0,0,0,0,0,0,0,0.00803669,2.2506,22.0009
1.15378,2.157,-0.12895,1.02151,-1.67639,1.57048,1.35457,-0.300034,1.54764,1.56472,1,-0.000398324,1.73894e-08,-0.000199081,0,0,0,0,0,0,0,0,0,0,0,0,0,0,0,0,0,1.18665,1.18665,0,0,0,0,0,0,0,0,0,0.00803669,2.2506,22.0009
1.15677,2.16054,-0.125412,1.02152,-1.67994,1.57048,1.35402,-0.300026,1.54719,1.56845,1,-0.00039828,3.52295e-08,-0.000199081,0,0,0,0,0,0,0,0,0,0,0,0,0,0,0,0,0,1.18665,1.18665,0,0,0,0,0,0,0,0,0,0.00803669,2.2506,22.0009
1.15976,2.16408,-0.121874,1.02153,-1.68349,1.57049,1.35346,-0.300013,1.54672,1.57218,1,-0.000398223,5.95228e-08,-0.00019908,0,0,0,0,0,0,0,0,0,0,0,0,0,0,0,0,0,1.18665,1.18665,0,0,0,0,0,0,0,0,0,0.00803669,2.2506,22.0009
1.16274,2.16763,-0.118337,1.02154,-1.68704,1.5705,1.3529,-0.299996,1.54624,1.57591,1,-0.000398155,8.84624e-08,-0.000199078,0,0,0,0,0,0,0,0,0,0,0,0,0,0,0,0,0,1.18665,1.18665,0,0,0,0,0,0,0,0,0,0.00803669,2.2506,22.0009
1.16274,2.16147,-0.122355,1.02104,-1.68175,1.57045,1.35659,-0.307677,1.54493,1.57149,0.999999,-6.77235e-05,0.000192752,0.00103584,0,0,0,0,0,0,0,0,0,0,0,0,0,0,0,0,0,1.18665,1.18665,0,0,0,0,0,0,0,0,0,0.00803669,2.2506,22.0009
1.16274,2.15531,-0.126373,1.02053,-1.67646,1.57041,1.36028,-0.31535,1.54355,1.56706,0.999997,0.000261081,0.000388835,0.00227078,0,0,0,0,0,0,0,0,0,0,0,0,0,0,0,0,0,1.18665,1.18665,0,0,0,0,0,0,0,0,0,0.00803669,2.2506,22.0009
1.16274,2.14915,-0.130391,1.02002,-1.67118,1.57037,1.36397,-0.323014,1.5421,1.56262,0.999994,0.000588417,0.000588442,0.0035058,0,0,0,0,0,0,0,0,0,0,0,0,0,0,0,0,0,1.18665,1.18665,0,0,0,0,0,0,0,0,0,0.00803669,2.2506,22.0009
1.16274,2.14298,-0.134409,1.01952,-1.66589,1.57032,1.36766,-0.33067,1.54058,1.55818,0.999988,0.000914387,0.000791632,0.00474086,0,0,0,0,0,0,0,0,0,0,0,0,0,0,0,0,0,1.18665,1.18665,0,0,0,0,0,0,0,0,0,0.00803669,2.2506,22.0009
1.16274,2.13682,-0.138426,1.01902,-1.6606,1.57028,1.37135,-0.338314,1.53899,1.55374,0.999981,0.00123932,0.000998573,0.0059758,0,0,0,0,0,0,0,0,0,0,0,0,0,0,0,0,0,1.18665,1.18665,0,0,0,0,0,0,0,0,0,0.00803669,2.2506,22.0009
1.16273,2.13066,-0.142443,1.01852,-1.65531,1.57024,1.37504,-0.345948,1.53733,1.54929,0.999972,0.0015644,0.00121003,0.00721043,0,0,0,0,0,0,0,0,0,0,0,0,0,0,0,0,0,1.18665,1.18665,0,0,0,0,0,0,0,0,0,0.00803669,2.2506,22.0009
1.16273,2.1245,-0.146453,1.01802,-1.65002,1.57019,1.37873,-0.35357,1.53561,1.54484,0.999962,0.00189248,0.00142795,0.00844482,0,0,0,0,0,0,0,0,0,0,0,0,0,0,0,0,0,1.18665,1.18665,0,0,0,0,0,0,0,0,0,0.00803669,2.2506,22.0009
1.16273,2.11834,-0.150453,1.01754,-1.64473,1.57015,1.38241,-0.361181,1.53381,1.54041,0.999949,0.002227,0.00165483,0.0096796,0,0,0,0,0,0,0,0,0,0,0,0,0,0,0,0,0,1.18665,1.18665,0,0,0,0,0,0,0,0,0,0.00803669,2.2506,22.0009
1.16273,2.11218,-0.154438,1.01706,-1.63944,1.5701,1.3861,-0.368787,1.53195,1.536,0.999935,0.00257064,0.00189311,0.0109167,0,0,0,0,0,0,0,0,0,0,0,0,0,0,0,0,0,1.18665,1.18665,0,0,0,0,0,0,0,0,0,0.00803669,2.2506,22.0009
1.16773,2.10386,-0.16089,1.01169,-1.63466,1.5704,1.38979,-0.385658,1.52586,1.52523,0.999876,-0.000398128,-6.26126e-06,0.0157303,0,0,0,0,0,0,0,0,0,0,0,0,0,0,0,0,0,1.18665,1.18665,0,0,0,0,0,0,0,0,0,0.00803669,2.2506,22.0009
1.16272,2.10764,-0.16078,1.02074,-1.63465,1.5704,1.38969,-0.375421,1.5318,1.53158,0.999926,0.0033428,0.00264387,0.0113929,0,0,0,0,0,0,0,0,0,0,0,0,0,0,0,0,0,1.18665,1.18665,0,0,0,0,0,0,0,0,0,0.00803669,2.2506,22.0009
1.1627,2.10766,-0.160668,1.0208,-1.63464,1.57041,1.38969,-0.375363,1.53183,1.53176,0.999926,0.00341645,0.00269939,0.0113691,0,0,0,0,0,0,0,0,0,0,0,0,0,0,0,0,0,1.18665,1.18665,0,0,0,0,0,0,0,0,0,0.00803669,2.2506,22.0009
1.16267,2.10768,-0.160559,1.02086,-1.63463,1.57041,1.38969,-0.375305,1.53186,1.53193,0.999926,0.00348782,0.00275309,0.0113457,0,0,0,0,0,0,0,0,0,0,0,0,0,0,0,0,0,1.18665,1.18665,0,0,0,0,0,0,0,0,0,0.00803669,2.2506,22.0009
1.16265,2.1077,-0.160457,1.02092,-1.63462,1.57042,1.38969,-0.37525,1.53188,1.53209,0.999926,0.00355449,0.00280316,0.0113235,0,0,0,0,0,0,0,0,0,0,0,0,0,0,0,0,0,1.18665,1.18665,0,0,0,0,0,0,0,0,0,0.00803669,2.2506,22.0009
1.16262,2.10772,-0.160364,1.02097,-1.63461,1.57042,1.38969,-0.375201,1.5319,1.53224,0.999926,0.00361537,0.0028488,0.0113035,0,0,0,0,0,0,0,0,0,0,0,0,0,0,0,0,0,1.18665,1.18665,0,0,0,0,0,0,0,0,0,0.00803669,2.2506,22.0009
1.1626,2.10773,-0.160284,1.02102,-1.63461,1.57043,1.38969,-0.375158,1.53192,1.53237,0.999925,0.00366778,0.00288812,0.0112863,0,0,0,0,0,0,0,0,0,0,0,0,0,0,0,0,0,1.18665,1.18665,0,0,0,0,0,0,0,0,0,0.00803669,2.2506,22.0009
1.16259,2.10774,-0.160219,1.02105,-1.6346,1.57043,1.38968,-0.375124,1.53194,1.53247,0.999925,0.00371025,0.00291998,0.0112724,0,0,0,0,0,0,0,0,0,0,0,0,0,0,0,0,0,1.18665,1.18665,0,0,0,0,0,0,0,0,0,0.00803669,2.2506,22.0009
1.16258,2.10775,-0.160171,1.02108,-1.6346,1.57043,1.38968,-0.375099,1.53195,1.53255,0.999925,0.00374153,0.00294345,0.0112622,0,0,0,0,0,0,0,0,0,0,0,0,0,0,0,0,0,1.18665,1.18665,0,0,0,0,0,0,0,0,0,0.00803669,2.2506,22.0009
1.16257,2.10776,-0.160142,1.0211,-1.6346,1.57043,1.38968,-0.375084,1.53196,1.53259,0.999925,0.00376072,0.00295785,0.011256,0,0,0,0,0,0,0,0,0,0,0,0,0,0,0,0,0,1.18665,1.18665,0,0,0,0,0,0,0,0,0,0.00803669,2.2506,22.0009
1.16257,2.10776,-0.160132,1.0211,-1.6346,1.57043,1.38968,-0.375079,1.53196,1.53261,0.999925,0.00376731,0.00296279,0.0112539,0,0,0,0,0,0,0,0,0,0,0,0,0,0,0,0,0,1.18665,1.18665,0,0,0,0,0,0,0,0,0,0.00803669,2.2506,22.0009

1.13585,2.13574,-0.150177,1.02143,-1.6551,1.57045,1.3579,-0.3,1.55,1.5422,1,-0.000398251,7.65303e-08,-0.000199053,0,0,0,0,0,0,0,0,0,0,0,0,0,0,0,0,0,0.0279971,0.0279971,0,0,0,0,0,0,0,0,0,0.0112935,2.18211,21.819
1.13956,2.14013,-0.145795,1.02144,-1.65949,1.57045,1.35722,-0.300024,1.54956,1.54686,1,-0.000398328,3.65095e-08,-0.000199062,0,0,0,0,0,0,0,0,0,0,0,0,0,0,0,0,0,0.0279971,0.0279971,0,0,0,0,0,0,0,0,0,0.0112935,2.18211,21.819
1.14326,2.14451,-0.141414,1.02146,-1.66388,1.57046,1.35653,-0.300042,1.5491,1.55152,1,-0.000398387,3.91508e-09,-0.00019907,0,0,0,0,0,0,0,0,0,0,0,0,0,0,0,0,0,0.0279971,0.0279971,0,0,0,0,0,0,0,0,0,0.0112935,2.18211,21.819
1.14696,2.1489,-0.137032,1.02147,-1.66828,1.57047,1.35585,-0.300054,1.54861,1.55616,1,-0.000398426,-1.83458e-08,-0.000199076,0,0,0,0,0,0,0,0,0,0,0,0,0,0,0,0,0,0.0279971,0.0279971,0,0,0,0,0,0,0,0,0,0.0112935,2.18211,21.819
1.15066,2.15329,-0.132651,1.02148,-1.67267,1.57047,1.35517,-0.300059,1.54809,1.5608,1,-0.00039844,-2.85422e-08,-0.00019908,0,0,0,0,0,0,0,0,0,0,0,0,0,0,0,0,0,0.0279971,0.0279971,0,0,0,0,0,0,0,0,0,0.0112935,2.18211,21.819
1.15437,2.15767,-0.128269,1.02149,-1.67706,1.57048,1.35448,-0.300058,1.54755,1.56543,1,-0.000398428,-2.56805e-08,-0.000199082,0,0,0,0,0,0,0,0,0,0,0,0,0,0,0,0,0,0.0279971,0.0279971,0,0,0,0,0,0,0,0,0,0.0112935,2.18211,21.819
1.15807,2.16206,-0.123888,1.02151,-1.68146,1.57049,1.3538,-0.30005,1.54698,1.57005,1,-0.000398392,-1.00863e-08,-0.000199081,0,0,0,0,0,0,0,0,0,0,0,0,0,0,0,0,0,0.0279971,0.0279971,0,0,0,0,0,0,0,0,0,0.0112935,2.18211,21.819
1.16177,2.16645,-0.119506,1.02152,-1.68585,1.57049,1.35311,-0.300037,1.54639,1.57467,1,-0.000398332,1.70111e-08,-0.000199079,0,0,0,0,0,0,0,0,0,0,0,0,0,0,0,0,0,0.0279971,0.0279971,0,0,0,0,0,0,0,0,0,0.0112935,2.18211,21.819
1.16548,2.17083,-0.115124,1.02153,-1.69024,1.5705,1.35243,-0.300017,1.54577,1.57927,1,-0.000398251,5.36663e-08,-0.000199076,0,0,0,0,0,0,0,0,0,0,0,0,0,0,0,0,0,0.0279971,0.0279971,0,0,0,0,0,0,0,0,0,0.0112935,2.18211,21.819
1.16918,2.17522,-0.110743,1.02154,-1.69463,1.57051,1.35174,-0.299991,1.54513,1.58387,1,-0.000398154,9.77333e-08,-0.000199072,0,0,0,0,0,0,0,0,0,0,0,0,0,0,0,0,0,0.0279971,0.0279971,0,0,0,0,0,0,0,0,0,0.0112935,2.18211,21.819
1.1693,2.16737,-0.115053,1.02022,-1.68841,1.57049,1.35631,-0.30975,1.5431,1.57867,0.999999,-0.000151424,0.000154623,0.00150606,0,0,0,0,0,0,0,0,0,0,0,0,0,0,0,0,0,0.0279971,0.0279971,0,0,0,0,0,0,0,0,0,0.0112935,2.18211,21.819
1.16943,2.15953,-0.119366,1.01889,-1.6822,1.57047,1.36087,-0.319493,1.54097,1.57345,0.999995,9.16617e-05,0.000311147,0.00321126,0,0,0,0,0,0,0,0,0,0,0,0,0,0,0,0,0,0.0279971,0.0279971,0,0,0,0,0,0,0,0,0,0.0112935,2.18211,21.819
1.16956,2.15168,-0.123684,1.01755,-1.67598,1.57045,1.36544,-0.32922,1.53872,1.56822,0.999988,0.000329143,0.000468379,0.00491682,0,0,0,0,0,0,0,0,0,0,0,0,0,0,0,0,0,0.0279971,0.0279971,0,0,0,0,0,0,0,0,0,0.0112935,2.18211,21.819
1.16969,2.14383,-0.128009,1.01622,-1.66976,1.57043,1.37,-0.338928,1.53637,1.56297,0.999978,0.000559574,0.000625273,0.00662288,0,0,0,0,0,0,0,0,0,0,0,0,0,0,0,0,0,0.0279971,0.0279971,0,0,0,0,0,0,0,0,0,0.0112935,2.18211,21.819
1.16982,2.13598,-0.132343,1.01488,-1.66354,1.57041,1.37457,-0.348616,1.53391,1.55769,0.999965,0.000782064,0.000781071,0.00832946,0,0,0,0,0,0,0,0,0,0,0,0,0,0,0,0,0,0.0279971,0.0279971,0,0,0,0,0,0,0,0,0,0.0112935,2.18211,21.819
1.16995,2.12813,-0.136685,1.01353,-1.65733,1.5704,1.37913,-0.358282,1.53133,1.5524,0.999949,0.000997,0.000935803,0.0100361,0,0,0,0,0,0,0,0,0,0,0,0,0,0,0,0,0,0.0279971,0.0279971,0,0,0,0,0,0,0,0,0,0.0112935,2.18211,21.819
1.17007,2.12028,-0.141035,1.01218,-1.65111,1.57038,1.38369,-0.367923,1.52865,1.54708,0.99993,0.00120465,0.00108932,0.011742,0,0,0,0,0,0,0,0,0,0,0,0,0,0,0,0,0,0.0279971,0.0279971,0,0,0,0,0,0,0,0,0,0.0112935,2.18211,21.819
1.1702,2.11244,-0.145391,1.01082,-1.6449,1.57036,1.38826,-0.377536,1.52586,1.54175,0.999908,0.00140668,0.00124257,0.013447,0,0,0,0,0,0,0,0,0,0,0,0,0,0,0,0,0,0.0279971,0.0279971,0,0,0,0,0,0,0,0,0,0.0112935,2.18211,21.819
1.17033,2.10459,-0.14975,1.00947,-1.63868,1.57034,1.39282,-0.387121,1.52296,1.5364,0.999883,0.00160513,0.00139707,0.0151516,0,0,0,0,0,0,0,0,0,0,0,0,0,0,0,0,0,0.0279971,0.0279971,0,0,0,0,0,0,0,0,0,0.0112935,2.18211,21.819
1.17532,2.09627,-0.15546,1.0041,-1.6325,1.57039,1.39739,-0.404017,1.51697,1.52669,0.999809,-0.000398069,-7.77193e-06,0.0195266,0,0,0,0,0,0,0,0,0,0,0,0,0,0,0,0,0,0.0279971,0.0279971,0,0,0,0,0,0,0,0,0,0.0112935,2.18211,21.819
1.17032,2.10004,-0.154787,1.01314,-1.63247,1.57036,1.39728,-0.393858,1.52301,1.53371,0.999874,0.00355479,0.00284071,0.0151893,0,0,0,0,0,0,0,0,0,0,0,0,0,0,0,0,0,0.0279971,0.0279971,0,0,0,0,0,0,0,0,0,0.0112935,2.18211,21.819
1.17024,2.1001,-0.15467,1.01321,-1.63247,1.57034,1.39728,-0.393677,1.52308,1.53389,0.999875,0.003633,0.00288453,0.0151224,0,0,0,0,0,0,0,0,0,0,0,0,0,0,0,0,0,0.0279971,0.0279971,0,0,0,0,0,0,0,0,0,0.0112935,2.18211,21.819
1.17016,2.10015,-0.154557,1.01327,-1.63248,1.57032,1.39728,-0.393502,1.52315,1.53407,0.999875,0.00370883,0.00292704,0.0150575,0,0,0,0,0,0,0,0,0,0,0,0,0,0,0,0,0,0.0279971,0.0279971,0,0,0,0,0,0,0,0,0,0.0112935,2.18211,21.819
1.17009,2.1002,-0.154451,1.01333,-1.63248,1.5703,1.39728,-0.393338,1.52322,1.53423,0.999876,0.00377984,0.00296684,0.0149967,0,0,0,0,0,0,0,0,0,0,0,0,0,0,0,0,0,0.0279971,0.0279971,0,0,0,0,0,0,0,0,0,0.0112935,2.18211,21.819
1.17003,2.10025,-0.154355,1.01338,-1.63248,1.57028,1.39728,-0.393189,1.52327,1.53438,0.999876,0.00384419,0.00300292,0.0149416,0,0,0,0,0,0,0,0,0,0,0,0,0,0,0,0,0,0.0279971,0.0279971,0,0,0,0,0,0,0,0,0,0.0112935,2.18211,21.819
1.16997,2.10029,-0.154273,1.01342,-1.63248,1.57027,1.39728,-0.393061,1.52332,1.53451,0.999877,0.00389965,0.00303401,0.0148941,0,0,0,0,0,0,0,0,0,0,0,0,0,0,0,0,0,0.0279971,0.0279971,0,0,0,0,0,0,0,0,0,0.0112935,2.18211,21.819
1.16993,2.10032,-0.154206,1.01346,-1.63248,1.57026,1.39728,-0.392957,1.52336,1.53461,0.999877,0.0039446,0.00305919,0.0148555,0,0,0,0,0,0,0,0,0,0,0,0,0,0,0,0,0,0.0279971,0.0279971,0,0,0,0,0,0,0,0,0,0.0112935,2.18211,21.819
1.1699,2.10035,-0.154157,1.01348,-1.63248,1.57025,1.39728,-0.39288,1.52339,1.53469,0.999877,0.00397772,0.00307773,0.0148271,0,0,0,0,0,0,0,0,0,0,0,0,0,0,0,0,0,0.0279971,0.0279971,0,0,0,0,0,0,0,0,0,0.0112935,2.18211,21.819
1.16987,2.10036,-0.154127,1.0135,-1.63248,1.57024,1.39728,-0.392833,1.52341,1.53474,0.999878,0.00399808,0.00308912,0.0148095,0,0,0,0,0,0,0,0,0,0,0,0,0,0,0,0,0,0.0279971,0.0279971,0,0,0,0,0,0,0,0,0,0.0112935,2.18211,21.819
1.16987,2.10037,-0.154116,1.01351,-1.63248,1.57024,1.39728,-0.392816,1.52342,1.53475,0.999878,0.00400509,0.00309304,0.0148035,0,0,0,0,0,0,0,0,0,0,0,0,0,0,0,0,0,0.0279971,0.0279971,0,0,0,0,0,0,0,0,0,0.0112935,2.18211,21.819

1.13585,2.13574,-0.150177,1.02143,-1.6551,1.57045,1.3579,-0.3,1.55,1.5422,1,-0.000398251,7.65303e-08,-0.000199053,0,0,0,0,0,0,0,0,0,0,0,0,0,0,0,0,0,11.0533,11.0533,0,0,0,0,0,0,0,0,0,0.0315192,2.08141,21.4358
1.14063,2.14139,-0.144529,1.02144,-1.66076,1.57046,1.35703,-0.30004,1.54943,1.54821,1,-0.000398333,4.37181e-08,-0.000199055,0,0,0,0,0,0,0,0,0,0,0,0,0,0,0,0,0,11.0533,11.0533,0,0,0,0,0,0,0,0,0,0.0315192,2.08141,21.4358
1.14541,2.14704,-0.138882,1.02146,-1.66642,1.57046,1.35615,-0.300069,1.54881,1.5542,1,-0.000398392,1.98933e-08,-0.000199057,0,0,0,0,0,0,0,0,0,0,0,0,0,0,0,0,0,11.0533,11.0533,0,0,0,0,0,0,0,0,0,0.0315192,2.08141,21.4358
1.15019,2.1527,-0.133235,1.02147,-1.67207,1.57047,1.35528,-0.300087,1.54815,1.56018,1,-0.000398427,5.12807e-09,-0.000199058,0,0,0,0,0,0,0,0,0,0,0,0,0,0,0,0,0,11.0533,11.0533,0,0,0,0,0,0,0,0,0,0.0315192,2.08141,21.4358
1.15496,2.15835,-0.127588,1.02148,-1.67773,1.57048,1.3544,-0.300095,1.54746,1.56614,1,-0.000398438,-5.05547e-10,-0.00019906,0,0,0,0,0,0,0,0,0,0,0,0,0,0,0,0,0,11.0533,11.0533,0,0,0,0,0,0,0,0,0,0.0315192,2.08141,21.4358
1.15974,2.164,-0.121941,1.0215,-1.68339,1.57049,1.35353,-0.300092,1.54671,1.57209,1,-0.000398425,3.06433e-09,-0.000199061,0,0,0,0,0,0,0,0,0,0,0,0,0,0,0,0,0,11.0533,11.0533,0,0,0,0,0,0,0,0,0,0.0315192,2.08141,21.4358
1.16452,2.16965,-0.116294,1.02151,-1.68905,1.5705,1.35265,-0.300079,1.54593,1.57803,1,-0.000398389,1.59094e-08,-0.000199063,0,0,0,0,0,0,0,0,0,0,0,0,0,0,0,0,0,11.0533,11.0533,0,0,0,0,0,0,0,0,0,0.0315192,2.08141,21.4358
1.16929,2.17531,-0.110647,1.02152,-1.69471,1.57051,1.35177,-0.300056,1.5451,1.58396,1,-0.000398329,3.81011e-08,-0.000199064,0,0,0,0,0,0,0,0,0,0,0,0,0,0,0,0,0,11.0533,11.0533,0,0,0,0,0,0,0,0,0,0.0315192,2.08141,21.4358
1.17407,2.18096,-0.104999,1.02154,-1.70037,1.57052,1.3509,-0.300023,1.54423,1.58986,1,-0.000398246,6.97109e-08,-0.000199066,0,0,0,0,0,0,0,0,0,0,0,0,0,0,0,0,0,11.0533,11.0533,0,0,0,0,0,0,0,0,0,0.0315192,2.08141,21.4358
1.17885,2.18661,-0.0993522,1.02155,-1.70602,1.57053,1.35002,-0.299979,1.54332,1.59576,1,-0.000398139,1.1081e-07,-0.000199068,0,0,0,0,0,0,0,0,0,0,0,0,0,0,0,0,0,11.0533,11.0533,0,0,0,0,0,0,0,0,0,0.0315192,2.08141,21.4358
1.17917,2.17641,-0.103686,1.02147,-1.69728,1.57051,1.3559,-0.313101,1.54104,1.5917,0.999996,0.00142619,0.00117434,0.00212229,0,0,0,0,0,0,0,0,0,0,0,0,0,0,0,0,0,11.0533,11.0533,0,0,0,0,0,0,0,0,0,0.0315192,2.08141,21.4358
1.17949,2.16621,-0.10802,1.02139,-1.68853,1.57049,1.36177,-0.326215,1.53859,1.58765,0.999982,0.00323121,0.00237841,0.00444354,0,0,0,0,0,0,0,0,0,0,0,0,0,0,0,0,0,11.0533,11.0533,0,0,0,0,0,0,0,0,0,0.0315192,2.08141,21.4358
1.1798,2.15601,-0.112355,1.02132,-1.67978,1.57047,1.36765,-0.339318,1.53597,1.58358,0.999958,0.00501653,0.0036121,0.00676464,0,0,0,0,0,0,0,0,0,0,0,0,0,0,0,0,0,11.0533,11.0533,0,0,0,0,0,0,0,0,0,0.0315192,2.08141,21.4358
1.18012,2.14581,-0.116689,1.02124,-1.67103,1.57045,1.37353,-0.352408,1.53317,1.57952,0.999924,0.0067818,0.00487516,0.00908554,0,0,0,0,0,0,0,0,0,0,0,0,0,0,0,0,0,11.0533,11.0533,0,0,0,0,0,0,0,0,0,0.0315192,2.08141,21.4358
1.18044,2.13561,-0.121023,1.02117,-1.66228,1.57043,1.3794,-0.365483,1.5302,1.57546,0.99988,0.00852663,0.00616731,0.0114062,0,0,0,0,0,0,0,0,0,0,0,0,0,0,0,0,0,11.0533,11.0533,0,0,0,0,0,0,0,0,0,0.0315192,2.08141,21.4358
1.18076,2.12541,-0.125357,1.02109,-1.65354,1.57041,1.38528,-0.378539,1.52706,1.57139,0.999825,0.0102507,0.00748832,0.0137266,0,0,0,0,0,0,0,0,0,0,0,0,0,0,0,0,0,11.0533,11.0533,0,0,0,0,0,0,0,0,0,0.0315192,2.08141,21.4358
1.18108,2.11521,-0.129691,1.02101,-1.64479,1.57039,1.39115,-0.391575,1.52374,1.56732,0.999761,0.0119535,0.00883792,0.0160466,0,0,0,0,0,0,0,0,0,0,0,0,0,0,0,0,0,11.0533,11.0533,0,0,0,0,0,0,0,0,0,0.0315192,2.08141,21.4358
1.1814,2.10502,-0.134025,1.02094,-1.63604,1.57037,1.39703,-0.404587,1.52025,1.56324,0.999686,0.0136349,0.0102158,0.0183662,0,0,0,0,0,0,0,0,0,0,0,0,0,0,0,0,0,11.0533,11.0533,0,0,0,0,0,0,0,0,0,0.0315192,2.08141,21.4358
1.18172,2.09482,-0.138359,1.02086,-1.62729,1.57035,1.4029,-0.417575,1.51658,1.55917,0.999601,0.0152944,0.0116218,0.0206855,0,0,0,0,0,0,0,0,0,0,0,0,0,0,0,0,0,11.0533,11.0533,0,0,0,0,0,0,0,0,0,0.0315192,2.08141,21.4358
1.18671,2.08488,-0.161605,0.998847,-1.62111,1.57037,1.40878,-0.434587,1.5074,1.51713,0.999682,-0.00039818,-1.01059e-05,0.0252182,0,0,0,0,0,0,0,0,0,0,0,0,0,0,0,0,0,11.0533,11.0533,0,0,0,0,0,0,0,0,0,0.0315192,2.08141,21.4358
1.15949,2.09108,-0.143386,1.02454,-1.62108,1.55897,1.40867,-0.38694,1.52807,1.55658,0.999715,0.020692,0.00837601,0.00842426,0,0,0,0,0,0,0,0,0,0,0,0,0,0,0,0,0,11.0533,11.0533,0,0,0,0,0,0,0,0,0,0.0315192,2.08141,21.4358
1.15948,2.09109,-0.14339,1.02454,-1.62108,1.55897,1.40867,-0.386936,1.52807,1.55658,0.999715,0.0206887,0.00837328,0.00842332,0,0,0,0,0,0,0,0,0,0,0,0,0,0,0,0,0,11.0533,11.0533,0,0,0,0,0,0,0,0,0,0.0315192,2.08141,21.4358
1.15948,2.09109,-0.143394,1.02454,-1.62109,1.55897,1.40867,-0.386932,1.52807,1.55657,0.999716,0.0206857,0.00837078,0.00842247,0,0,0,0,0,0,0,0,0,0,0,0,0,0,0,0,0,11.0533,11.0533,0,0,0,0,0,0,0,0,0,0.0315192,2.08141,21.4358
1.15948,2.09109,-0.143398,1.02453,-1.62109,1.55897,1.40867,-0.386928,1.52807,1.55656,0.999716,0.0206829,0.00836843,0.00842172,0,0,0,0,0,0,0,0,0,0,0,0,0,0,0,0,0,11.0533,11.0533,0,0,0,0,0,0,0,0,0,0.0315192,2.08141,21.4358
1.15948,2.09109,-0.143401,1.02453,-1.62109,1.55897,1.40867,-0.386925,1.52807,1.55656,0.999716,0.0206803,0.00836631,0.00842109,0,0,0,0,0,0,0,0,0,0,0,0,0,0,0,0,0,11.0533,11.0533,0,0,0,0,0,0,0,0,0,0.0315192,2.08141,21.4358
